; generated by Slic3r 1.3.0-dev on 2018-01-04 at 21:21:01

; Filament notes: 
; List of materials tested with standart PLA print settings for MK2:
; 
; Das Filament
; Esun PLA
; EUMAKERS PLA
; Fiberlogy HD-PLA
; Fillamentum PLA
; Floreon3D
; Hatchbox PLA
; Plasty Mladeč PLA
; Primavalue PLA
; Proto pasta Matte Fiber
; Verbatim PLA
; Verbatim BVOH
; 
; external perimeters extrusion width = 0.60mm (5.51mm^3/s)
; perimeters extrusion width = 0.43mm (4.97mm^3/s)
; infill extrusion width = 0.70mm (13.12mm^3/s)
; solid infill extrusion width = 0.70mm (13.12mm^3/s)
; top infill extrusion width = 0.43mm (6.21mm^3/s)
; support material extrusion width = 0.35mm (4.81mm^3/s)

M107
M115 U3.0.12 ; tell printer latest fw version
M83  ; extruder relative mode
M104 S210 ; set extruder temp
M140 S65 ; set bed temp
M190 S65 ; wait for bed temp
M109 S210 ; wait for extruder temp
G28 W ; home all without mesh bed level
G80 ; mesh bed leveling
G1 Y-3.0 F1000.0 ; go outside pritn area
G1 X60.0 E9.0  F1000.0 ; intro line
G1 X100.0 E12.5  F1000.0 ; intro line
; Filament gcode

G21 ; set units to millimeters
G90 ; use absolute coordinates
M83 ; use relative distances for extrusion
G1 E-0.80000 F2100.00000
G1 Z0.200 F7200.000
G1 X81.388 Y96.840 F7200.000
G1 E0.80000 F2100.00000
M201 X1000 Y1000
M204 P1000 T1000
G1 F2100
G1 X84.544 Y94.742 E0.11881
G1 X85.824 Y94.345 E0.04204
G1 X144.664 Y93.477 E1.84508
G1 X144.921 Y93.487 E0.00807
G1 X169.457 Y95.790 E0.77269
G1 X174.786 Y96.457 E0.16840
G1 X176.034 Y97.009 E0.04278
G1 X176.866 Y98.823 E0.06257
G1 X176.824 Y111.827 E0.40774
G1 X176.428 Y113.133 E0.04278
G1 X174.759 Y114.176 E0.06169
G1 X169.709 Y114.847 E0.15973
G1 X168.782 Y114.913 E0.02914
G1 X153.116 Y115.364 E0.49142
G1 X135.683 Y115.364 E0.54660
G1 X83.326 Y114.808 E1.64169
G1 X82.782 Y114.739 E0.01720
G1 X75.460 Y112.932 E0.23646
G1 X74.285 Y112.239 E0.04278
G1 X73.652 Y110.624 E0.05437
G1 X73.652 Y108.164 E0.07715
G1 X73.685 Y107.633 E0.01667
G1 X73.769 Y107.163 E0.01497
G1 X73.863 Y106.824 E0.01102
G1 X74.037 Y106.371 E0.01523
G1 X74.228 Y105.997 E0.01318
G1 X74.565 Y105.488 E0.01912
G1 X80.821 Y97.369 E0.32138
G1 X81.344 Y96.880 E0.02244
G1 F5760
G1 X83.168 Y95.661 E-0.76000
G1 E-0.04000 F2100.00000
G1 X90.858 Y110.037 F7200.000
G1 E0.80000 F2100.00000
G1 F1680
G1 X76.619 Y110.037 E0.44645
G1 X76.628 Y108.000 E0.06386
G1 X76.651 Y107.862 E0.00440
G1 X76.751 Y107.566 E0.00981
G1 X76.825 Y107.426 E0.00494
G1 X76.904 Y107.312 E0.00434
G1 X77.152 Y107.056 E0.01120
G1 X84.468 Y100.987 E0.29802
G1 X84.782 Y100.749 E0.01237
G1 X85.057 Y100.575 E0.01021
G1 X85.467 Y100.361 E0.01450
G1 X85.839 Y100.212 E0.01255
G1 X86.127 Y100.121 E0.00948
G1 X86.494 Y100.038 E0.01181
G1 X86.927 Y99.979 E0.01369
G1 X87.307 Y99.963 E0.01193
G1 X90.301 Y99.976 E0.09387
G1 X90.470 Y100.015 E0.00543
G1 X90.619 Y100.073 E0.00503
G1 X90.788 Y100.171 E0.00611
G1 X90.924 Y100.283 E0.00552
G1 X91.040 Y100.414 E0.00550
G1 X91.140 Y100.574 E0.00592
G1 X91.208 Y100.733 E0.00541
G1 X91.266 Y101.035 E0.00965
G1 X91.260 Y101.227 E0.00603
G1 X91.226 Y101.400 E0.00552
G1 X91.164 Y101.568 E0.00561
G1 X91.086 Y101.710 E0.00508
G1 X90.970 Y101.859 E0.00592
G1 X90.510 Y102.283 E0.01961
G1 X90.218 Y102.626 E0.01412
G1 X89.973 Y103.000 E0.01402
G1 X89.787 Y103.378 E0.01322
G1 X89.637 Y103.802 E0.01408
G1 X89.543 Y104.240 E0.01405
G1 X89.504 Y104.676 E0.01373
G1 X89.518 Y105.103 E0.01341
G1 X89.581 Y105.519 E0.01318
G1 X89.709 Y105.974 E0.01483
G1 X89.888 Y106.394 E0.01432
G1 X90.280 Y107.046 E0.02384
G1 X90.440 Y107.353 E0.01085
G1 X90.665 Y107.931 E0.01944
G1 X90.754 Y108.264 E0.01082
G1 X90.814 Y108.584 E0.01022
G1 X90.850 Y108.918 E0.01052
G1 X90.857 Y109.977 E0.03321
G1 X91.238 Y110.414 F7200.000
G1 F1260
G1 X76.240 Y110.414 E0.47023
G1 X76.251 Y107.968 E0.07670
G1 X76.284 Y107.770 E0.00630
G1 X76.404 Y107.416 E0.01170
G1 X76.502 Y107.230 E0.00659
G1 X76.611 Y107.073 E0.00601
G1 X76.896 Y106.779 E0.01282
G1 X84.233 Y100.692 E0.29892
G1 X84.567 Y100.439 E0.01313
G1 X84.869 Y100.248 E0.01120
G1 X85.309 Y100.018 E0.01558
G1 X85.712 Y99.856 E0.01360
G1 X86.029 Y99.757 E0.01041
G1 X86.427 Y99.666 E0.01281
G1 X86.894 Y99.603 E0.01477
G1 X87.299 Y99.586 E0.01272
G1 X90.146 Y99.586 E0.08925
G1 X90.357 Y99.602 E0.00665
G1 X90.581 Y99.653 E0.00719
G1 X90.784 Y99.732 E0.00683
G1 X91.004 Y99.860 E0.00799
G1 X91.187 Y100.011 E0.00743
G1 X91.343 Y100.188 E0.00739
G1 X91.475 Y100.399 E0.00781
G1 X91.565 Y100.609 E0.00718
G1 X91.619 Y100.807 E0.00644
G1 X91.644 Y101.019 E0.00667
G1 X91.636 Y101.270 E0.00788
G1 X91.590 Y101.502 E0.00743
G1 X91.508 Y101.726 E0.00746
G1 X91.401 Y101.918 E0.00689
G1 X91.249 Y102.115 E0.00781
G1 X90.782 Y102.545 E0.01989
G1 X90.521 Y102.852 E0.01266
G1 X90.301 Y103.187 E0.01256
G1 X90.135 Y103.525 E0.01179
G1 X90.001 Y103.905 E0.01263
G1 X89.917 Y104.296 E0.01257
G1 X89.882 Y104.687 E0.01228
G1 X89.894 Y105.069 E0.01199
G1 X89.950 Y105.439 E0.01175
G1 X90.065 Y105.849 E0.01333
G1 X90.225 Y106.222 E0.01273
G1 X90.610 Y106.861 E0.02340
G1 X90.781 Y107.191 E0.01165
G1 X91.025 Y107.820 E0.02115
G1 X91.122 Y108.181 E0.01171
G1 X91.187 Y108.529 E0.01113
G1 X91.227 Y108.896 E0.01157
G1 X91.237 Y110.354 E0.04572
G1 X90.890 Y110.217 F7200.000
G1 F5760
G1 X89.043 Y110.363 E-0.76000
G1 E-0.04000 F2100.00000
G1 X90.411 Y109.727 F7200.000
G1 E0.80000 F2100.00000
G1 F2520
G1 X90.545 Y109.593 E0.00610
G1 X90.541 Y109.047 E0.01765
G1 X89.861 Y109.727 E0.03106
G1 X89.312 Y109.727 E0.01778
G1 X90.501 Y108.538 E0.05436
G1 X90.401 Y108.088 E0.01491
G1 X88.762 Y109.727 E0.07494
G1 X88.212 Y109.727 E0.01778
G1 X90.256 Y107.682 E0.09347
G1 X90.089 Y107.300 E0.01350
G1 X87.662 Y109.727 E0.11096
G1 X87.112 Y109.727 E0.01778
G1 X89.889 Y106.950 E0.12698
G1 X89.683 Y106.606 E0.01295
G1 X86.562 Y109.727 E0.14267
G1 X86.012 Y109.727 E0.01778
G1 X89.505 Y106.234 E0.15968
G1 X89.419 Y106.033 E0.00707
G1 X89.361 Y105.828 E0.00689
G1 X85.462 Y109.727 E0.17826
G1 X84.913 Y109.727 E0.01778
G1 X89.256 Y105.384 E0.19858
G1 X89.208 Y105.071 E0.01022
G1 X89.202 Y104.887 E0.00596
G1 X84.363 Y109.727 E0.22128
G1 X83.813 Y109.727 E0.01778
G1 X89.218 Y104.322 E0.24713
G1 X89.236 Y104.117 E0.00666
G1 X89.336 Y103.654 E0.01530
G1 X83.263 Y109.727 E0.27766
G1 X82.713 Y109.727 E0.01778
G1 X89.745 Y102.695 E0.32153
G1 X89.982 Y102.333 E0.01398
G1 X90.304 Y101.955 E0.01606
G1 X90.758 Y101.537 E0.01993
G1 X90.836 Y101.435 E0.00415
G1 X90.928 Y101.231 E0.00723
G1 X90.951 Y101.118 E0.00373
G1 X90.944 Y100.946 E0.00558
G1 X82.163 Y109.727 E0.40148
G1 X81.613 Y109.727 E0.01778
G1 X90.786 Y100.554 E0.41938
G1 X90.639 Y100.415 E0.00656
G1 X90.465 Y100.325 E0.00631
G1 X81.064 Y109.727 E0.42987
G1 X80.514 Y109.727 E0.01778
G1 X89.967 Y100.274 E0.43221
G1 X89.417 Y100.274 E0.01777
G1 X79.964 Y109.727 E0.43221
G1 X79.414 Y109.727 E0.01778
G1 X88.867 Y100.274 E0.43222
G1 X88.317 Y100.273 E0.01777
G1 X78.864 Y109.727 E0.43222
G1 X78.314 Y109.727 E0.01778
G1 X87.768 Y100.273 E0.43223
G1 X87.211 Y100.280 E0.01801
G1 X77.764 Y109.727 E0.43190
G1 X77.214 Y109.727 E0.01778
G1 X86.590 Y100.351 E0.42868
G1 X86.292 Y100.419 E0.00989
G1 X85.797 Y100.595 E0.01699
G1 X76.932 Y109.459 E0.40530
G1 X76.935 Y108.907 E0.01785
G1 X83.927 Y101.914 E0.31972
G1 X80.702 Y104.590 E0.13549
G1 X76.937 Y108.355 E0.17214
G1 X76.938 Y108.099 E0.00825
G1 X77.029 Y107.792 E0.01037
G1 X77.138 Y107.610 E0.00685
G1 X77.476 Y107.265 E0.01562
G1 F5760
G1 X77.138 Y107.610 E-0.16737
G1 F5760
G1 X77.029 Y107.792 E-0.07336
G1 F5760
G1 X76.938 Y108.099 E-0.11106
G1 F5760
G1 X76.937 Y108.355 E-0.08841
G1 F5760
G1 X77.590 Y107.702 E-0.31980
G1 E-0.04000 F2100.00000
G1 Z0.200 F7200.000
G1 X83.943 Y111.338 F7200.000
G1 E0.80000 F2100.00000
G1 F2100
G1 X83.535 Y111.338 E0.01278
G1 X83.539 Y112.242 E0.02837
G1 X83.943 Y112.242 E0.01265
G1 X83.943 Y111.338 E0.02836
G1 X84.697 Y111.338 E0.02365
G1 X84.697 Y112.242 E0.02836
G1 X85.451 Y112.242 E0.02365
G1 X85.451 Y111.338 E0.02836
G1 X86.205 Y111.338 E0.02365
G1 X86.205 Y112.242 E0.02836
G1 X86.959 Y112.242 E0.02365
G1 X86.959 Y111.338 E0.02836
G1 X87.713 Y111.338 E0.02365
G1 X87.713 Y112.242 E0.02836
G1 F5760
G1 X87.713 Y111.338 E-0.31333
G1 F5760
G1 X86.959 Y111.338 E-0.26121
G1 F5760
G1 X86.959 Y111.873 E-0.18546
G1 E-0.04000 F2100.00000
G1 X88.468 Y98.662 F7200.000
G1 E0.80000 F2100.00000
G1 F2100
G1 X88.468 Y97.710 E0.02986
G1 X87.836 Y97.735 E0.01983
G1 X87.831 Y97.526 E0.00654
G1 X87.713 Y97.549 E0.00376
G1 X87.713 Y98.642 E0.03426
G1 X86.959 Y98.674 E0.02367
G1 X86.959 Y97.203 E0.04612
G1 X86.523 Y97.412 E0.01517
G1 X86.523 Y97.104 E0.00966
G1 X86.205 Y97.298 E0.01168
G1 X86.205 Y98.769 E0.04614
G1 X85.776 Y98.868 E0.01382
G1 X85.451 Y98.970 E0.01067
G1 X85.451 Y97.306 E0.05216
G1 X84.697 Y97.932 E0.03073
G1 X84.697 Y99.276 E0.04214
G1 X84.651 Y99.304 E0.00169
G1 X84.653 Y99.144 E0.00501
G1 X83.943 Y99.733 E0.02894
G1 X83.943 Y98.558 E0.03686
G1 X83.326 Y99.069 E0.02511
G1 X83.188 Y99.056 E0.00434
G1 X83.188 Y100.359 E0.04086
G1 X82.446 Y100.975 E0.03026
G1 X82.463 Y99.785 E0.03730
G1 X82.753 Y99.545 E0.01182
G1 X82.856 Y99.023 E0.01666
G1 X83.188 Y99.056 E0.01048
G1 F5760
G1 X82.856 Y99.023 E-0.11582
G1 F5760
G1 X82.753 Y99.545 E-0.18401
G1 F5760
G1 X82.463 Y99.785 E-0.13058
G1 F5760
G1 X82.449 Y100.737 E-0.32959
G1 E-0.04000 F2100.00000
G1 Z0.200 F7200.000
G1 X136.572 Y105.636 F7200.000
G1 E0.80000 F2100.00000
G1 F840
G1 X136.683 Y105.039 E0.01903
G1 X136.791 Y104.722 E0.01053
G1 X136.926 Y104.422 E0.01030
G1 X137.096 Y104.131 E0.01056
G1 X137.303 Y103.848 E0.01100
G1 X137.522 Y103.606 E0.01023
G1 X137.773 Y103.379 E0.01063
G1 X138.046 Y103.180 E0.01059
G1 X138.334 Y103.011 E0.01048
G1 X138.631 Y102.875 E0.01023
G1 X138.937 Y102.770 E0.01014
G1 X139.248 Y102.697 E0.01003
G1 X139.615 Y102.651 E0.01157
G1 X140.129 Y102.653 E0.01612
G1 X140.447 Y102.696 E0.01008
G1 X140.791 Y102.779 E0.01108
G1 X141.344 Y103.000 E0.01868
G1 X141.646 Y103.177 E0.01098
G1 X141.929 Y103.384 E0.01100
G1 X142.171 Y103.603 E0.01023
G1 X142.399 Y103.854 E0.01063
G1 X142.598 Y104.127 E0.01059
G1 X142.767 Y104.415 E0.01048
G1 X142.903 Y104.712 E0.01023
G1 X143.012 Y105.031 E0.01057
G1 X143.124 Y105.628 E0.01904
G1 X143.125 Y106.222 E0.01864
G1 X143.014 Y106.819 E0.01903
G1 X142.906 Y107.137 E0.01053
G1 X142.771 Y107.436 E0.01030
G1 X142.602 Y107.727 E0.01053
G1 X142.403 Y108.000 E0.01059
G1 X142.176 Y108.252 E0.01065
G1 X141.924 Y108.480 E0.01065
G1 X141.651 Y108.679 E0.01059
G1 X141.363 Y108.848 E0.01048
G1 X141.066 Y108.983 E0.01023
G1 X140.747 Y109.093 E0.01057
G1 X140.150 Y109.205 E0.01904
G1 X139.555 Y109.206 E0.01864
G1 X138.959 Y109.095 E0.01903
G1 X138.641 Y108.987 E0.01053
G1 X138.341 Y108.851 E0.01030
G1 X138.051 Y108.682 E0.01053
G1 X137.778 Y108.483 E0.01059
G1 X137.526 Y108.256 E0.01065
G1 X137.298 Y108.004 E0.01065
G1 X137.099 Y107.732 E0.01059
G1 X136.930 Y107.443 E0.01048
G1 X136.794 Y107.147 E0.01023
G1 X136.685 Y106.828 E0.01057
G1 X136.573 Y106.231 E0.01904
G1 X136.572 Y105.696 E0.01676
G1 X136.949 Y105.671 F7200.000
G1 F840
G1 X137.048 Y105.135 E0.01709
G1 X137.142 Y104.860 E0.00909
G1 X137.262 Y104.595 E0.00912
G1 X137.412 Y104.338 E0.00934
G1 X137.596 Y104.087 E0.00977
G1 X137.789 Y103.873 E0.00902
G1 X138.012 Y103.672 E0.00942
G1 X138.253 Y103.495 E0.00938
G1 X138.508 Y103.346 E0.00928
G1 X138.771 Y103.226 E0.00905
G1 X139.042 Y103.133 E0.00898
G1 X139.315 Y103.068 E0.00881
G1 X139.637 Y103.028 E0.01017
G1 X140.102 Y103.030 E0.01458
G1 X140.377 Y103.067 E0.00870
G1 X140.676 Y103.139 E0.00963
G1 X141.178 Y103.340 E0.01695
G1 X141.440 Y103.492 E0.00949
G1 X141.691 Y103.677 E0.00977
G1 X141.904 Y103.870 E0.00902
G1 X142.106 Y104.092 E0.00942
G1 X142.282 Y104.334 E0.00938
G1 X142.432 Y104.589 E0.00928
G1 X142.552 Y104.852 E0.00905
G1 X142.646 Y105.127 E0.00914
G1 X142.747 Y105.663 E0.01709
G1 X142.748 Y106.188 E0.01645
G1 X142.648 Y106.724 E0.01709
G1 X142.555 Y106.998 E0.00909
G1 X142.435 Y107.263 E0.00912
G1 X142.285 Y107.520 E0.00933
G1 X142.109 Y107.762 E0.00938
G1 X141.908 Y107.985 E0.00942
G1 X141.685 Y108.187 E0.00943
G1 X141.444 Y108.363 E0.00938
G1 X141.189 Y108.513 E0.00928
G1 X140.926 Y108.633 E0.00905
G1 X140.650 Y108.727 E0.00914
G1 X140.114 Y108.828 E0.01709
G1 X139.590 Y108.829 E0.01645
G1 X139.054 Y108.729 E0.01709
G1 X138.780 Y108.636 E0.00909
G1 X138.515 Y108.516 E0.00912
G1 X138.258 Y108.366 E0.00933
G1 X138.016 Y108.190 E0.00938
G1 X137.793 Y107.989 E0.00942
G1 X137.591 Y107.766 E0.00942
G1 X137.414 Y107.525 E0.00938
G1 X137.265 Y107.269 E0.00928
G1 X137.145 Y107.007 E0.00905
G1 X137.051 Y106.731 E0.00914
G1 X136.950 Y106.195 E0.01709
G1 X136.949 Y105.731 E0.01457
G1 X136.622 Y105.440 F7200.000
G1 F5760
G1 X137.048 Y105.135 E-0.20922
G1 F5760
G1 X137.142 Y104.860 E-0.10041
G1 F5760
G1 X137.262 Y104.595 E-0.10075
G1 F5760
G1 X137.412 Y104.338 E-0.10313
G1 F5760
G1 X137.596 Y104.087 E-0.10795
G1 F5760
G1 X137.789 Y103.873 E-0.09967
G1 F5760
G1 X137.872 Y103.798 E-0.03888
G1 E-0.04000 F2100.00000
G1 X135.358 Y105.483 F7200.000
G1 E0.80000 F2100.00000
G1 F1680
G1 X135.415 Y105.089 E0.01249
G1 X135.508 Y104.695 E0.01270
G1 X135.638 Y104.305 E0.01287
G1 X135.805 Y103.927 E0.01298
G1 X136.006 Y103.563 E0.01304
G1 X136.241 Y103.219 E0.01304
G1 X136.505 Y102.899 E0.01299
G1 X136.794 Y102.608 E0.01288
G1 X137.111 Y102.342 E0.01298
G1 X137.447 Y102.109 E0.01281
G1 X137.795 Y101.911 E0.01255
G1 X138.149 Y101.749 E0.01223
G1 X138.539 Y101.610 E0.01298
G1 X145.039 Y99.620 E0.21314
G1 X146.706 Y99.416 E0.05266
G1 X168.818 Y100.525 E0.69415
G1 X169.276 Y100.571 E0.01444
G1 X169.731 Y100.661 E0.01454
G1 X170.179 Y100.796 E0.01469
G1 X170.607 Y100.971 E0.01447
G1 X171.014 Y101.186 E0.01445
G1 X171.401 Y101.439 E0.01450
G1 X171.761 Y101.728 E0.01447
G1 X172.096 Y102.056 E0.01472
G1 X172.391 Y102.406 E0.01433
G1 X172.650 Y102.778 E0.01421
G1 X172.880 Y103.191 E0.01482
G1 X173.072 Y103.630 E0.01505
G1 X173.212 Y104.061 E0.01421
G1 X173.313 Y104.514 E0.01454
G1 X173.369 Y104.964 E0.01421
G1 X173.382 Y105.427 E0.01452
G1 X173.354 Y105.859 E0.01359
G1 X173.284 Y106.303 E0.01409
G1 X173.168 Y106.751 E0.01450
G1 X173.007 Y107.196 E0.01485
G1 X172.797 Y107.632 E0.01516
G1 X172.552 Y108.034 E0.01477
G1 X172.274 Y108.404 E0.01452
G1 X171.965 Y108.742 E0.01437
G1 X171.617 Y109.057 E0.01470
G1 X171.262 Y109.320 E0.01384
G1 X170.850 Y109.569 E0.01511
G1 X170.425 Y109.772 E0.01476
G1 X169.993 Y109.928 E0.01440
G1 X169.546 Y110.044 E0.01448
G1 X169.099 Y110.114 E0.01417
G1 X168.628 Y110.144 E0.01482
G1 X139.910 Y110.442 E0.90049
G1 X139.548 Y110.432 E0.01134
G1 X139.149 Y110.387 E0.01260
G1 X138.767 Y110.310 E0.01222
G1 X138.384 Y110.197 E0.01249
G1 X138.008 Y110.049 E0.01270
G1 X137.641 Y109.865 E0.01287
G1 X137.290 Y109.646 E0.01298
G1 X136.958 Y109.394 E0.01304
G1 X136.651 Y109.114 E0.01304
G1 X136.373 Y108.807 E0.01299
G1 X136.125 Y108.479 E0.01288
G1 X135.907 Y108.127 E0.01298
G1 X135.725 Y107.761 E0.01281
G1 X135.579 Y107.389 E0.01255
G1 X135.469 Y107.015 E0.01223
G1 X135.389 Y106.620 E0.01262
G1 X135.349 Y106.274 E0.01093
G1 X135.336 Y105.872 E0.01260
G1 X135.355 Y105.543 E0.01034
G1 X134.983 Y105.446 F7200.000
G1 F1260
G1 X135.044 Y105.018 E0.01353
G1 X135.145 Y104.591 E0.01376
G1 X135.286 Y104.170 E0.01394
G1 X135.467 Y103.759 E0.01406
G1 X135.685 Y103.365 E0.01413
G1 X135.939 Y102.992 E0.01413
G1 X136.225 Y102.646 E0.01408
G1 X136.539 Y102.330 E0.01396
G1 X136.882 Y102.042 E0.01406
G1 X137.246 Y101.790 E0.01388
G1 X137.623 Y101.575 E0.01360
G1 X138.007 Y101.399 E0.01326
G1 X138.421 Y101.252 E0.01376
G1 X144.961 Y99.250 E0.21444
G1 X146.693 Y99.038 E0.05472
G1 X168.846 Y100.149 E0.69547
G1 X169.331 Y100.198 E0.01530
G1 X169.822 Y100.295 E0.01568
G1 X170.306 Y100.440 E0.01584
G1 X170.766 Y100.629 E0.01561
G1 X171.206 Y100.861 E0.01559
G1 X171.623 Y101.134 E0.01563
G1 X172.011 Y101.446 E0.01561
G1 X172.373 Y101.799 E0.01586
G1 X172.691 Y102.176 E0.01546
G1 X172.970 Y102.578 E0.01534
G1 X173.219 Y103.023 E0.01598
G1 X173.425 Y103.497 E0.01620
G1 X173.576 Y103.962 E0.01534
G1 X173.685 Y104.450 E0.01567
G1 X173.745 Y104.935 E0.01534
G1 X173.759 Y105.434 E0.01564
G1 X173.729 Y105.901 E0.01468
