; generated by Slic3r 1.36.2-prusa3d on 2017-11-18 at 11:09:31

; 

; external perimeters extrusion width = 0.45mm
; perimeters extrusion width = 0.45mm
; infill extrusion width = 0.45mm
; solid infill extrusion width = 0.45mm
; top infill extrusion width = 0.45mm
; first layer extrusion width = 0.42mm

M107
M115 U3.0.12 ; tell printer latest fw version
M83  ; extruder relative mode
M104 S210 ; set extruder temp
M140 S55 ; set bed temp
M190 S55 ; wait for bed temp
M109 S210 ; wait for extruder temp
G28 W ; home all without mesh bed level
G80 ; mesh bed leveling
G1 Y-3.0 F1000.0 ; go outside pritn area
G1 X60.0 E9.0  F1000.0 ; intro line
G1 X100.0 E12.5  F1000.0 ; intro line
; Filament gcode

G21 ; set units to millimeters
G90 ; use absolute coordinates
M83 ; use relative distances for extrusion
G1 E-0.80000 F2100.00000
G1 Z0.200 F7200.000
G1 X98.175 Y78.477 F7200.000
G1 E0.80000 F2100.00000
M204 S1000
G1 F2100
G1 X98.652 Y78.042 E0.01942
G1 X99.228 Y77.752 E0.01942
G1 X99.862 Y77.627 E0.01942
G1 X122.004 Y77.623 E0.66603
G1 X150.215 Y79.133 E0.84979
G1 X150.779 Y79.254 E0.01737
G1 X151.301 Y79.510 E0.01749
G1 X151.742 Y79.883 E0.01737
G1 X152.083 Y80.354 E0.01749
G1 X152.300 Y80.901 E0.01771
G1 X152.377 Y81.485 E0.01771
G1 X152.377 Y128.546 E1.41557
G1 X152.284 Y129.158 E0.01862
G1 X152.035 Y129.729 E0.01874
G1 X151.649 Y130.212 E0.01862
G1 X151.147 Y130.582 E0.01874
G1 X150.663 Y130.783 E0.01578
G1 X150.146 Y130.873 E0.01578
G1 X122.024 Y132.377 E0.84710
G1 X99.878 Y132.374 E0.66615
G1 X99.287 Y132.268 E0.01805
G1 X98.739 Y132.015 E0.01817
G1 X98.274 Y131.635 E0.01805
G1 X97.918 Y131.147 E0.01817
G1 X97.698 Y130.593 E0.01794
G1 X97.623 Y130.005 E0.01783
G1 X97.623 Y79.989 E1.50448
G1 X97.678 Y79.494 E0.01498
G1 X97.832 Y79.024 E0.01487
G1 X98.143 Y78.528 E0.01761
G1 F5760
G1 X98.652 Y78.042 E-0.24366
G1 F5760
G1 X99.228 Y77.752 E-0.22358
G1 F5760
G1 X99.862 Y77.627 E-0.22358
G1 F5760
G1 X100.062 Y77.627 E-0.06917
G1 E-0.04000 F2100.00000
G1 X100.964 Y80.964 F7200.000
G1 E0.80000 F2100.00000
G1 F1680
G1 X121.036 Y80.964 E0.60375
G1 X121.036 Y82.036 E0.03224
G1 X113.529 Y82.036 E0.22580
G1 X113.529 Y83.978 E0.05843
G1 X111.525 Y129.036 E1.35666
G1 X110.475 Y129.036 E0.03160
G1 X108.471 Y83.978 E1.35666
G1 X108.471 Y82.036 E0.05843
G1 X100.964 Y82.036 E0.22580
G1 X100.964 Y81.024 E0.03043
G1 F5760
G1 X103.158 Y81.018 E-0.76000
G1 E-0.04000 F2100.00000
G1 X120.664 Y82.413 F7200.000
G1 E0.80000 F2100.00000
G1 F1680
G1 X113.906 Y82.413 E0.20328
G1 X113.906 Y83.987 E0.04734
G1 X111.902 Y128.987 E1.35494
G1 X111.902 Y129.413 E0.01281
G1 X110.098 Y129.413 E0.05429
G1 X110.098 Y128.987 E0.01281
G1 X108.094 Y83.987 E1.35494
G1 X108.094 Y82.413 E0.04734
G1 X101.336 Y82.413 E0.20328
G1 X101.336 Y129.413 E1.41375
G1 X100.587 Y129.413 E0.02253
G1 X100.587 Y80.587 E1.46867
G1 X121.413 Y80.587 E0.62644
G1 X121.413 Y129.413 E1.46867
G1 X120.664 Y129.413 E0.02253
G1 X120.664 Y82.473 E1.41195
G1 X120.287 Y82.790 F7200.000
G1 F1050
G1 X114.283 Y82.790 E0.18059
G1 X114.283 Y83.995 E0.03626
G1 X114.229 Y85.210 E0.03657
G1 X116.785 Y85.210 E0.07688
G1 X116.785 Y85.790 E0.01745
G1 X114.203 Y85.790 E0.07765
G1 X114.096 Y88.210 E0.07287
G1 X116.785 Y88.210 E0.08089
G1 X116.785 Y88.790 E0.01745
G1 X114.070 Y88.790 E0.08166
G1 X113.962 Y91.210 E0.07287
G1 X116.785 Y91.210 E0.08490
G1 X116.785 Y91.790 E0.01745
G1 X113.936 Y91.790 E0.08568
G1 X113.829 Y94.210 E0.07287
G1 X116.785 Y94.210 E0.08892
G1 X116.785 Y94.790 E0.01745
G1 X113.803 Y94.790 E0.08969
G1 X113.695 Y97.210 E0.07287
G1 X116.785 Y97.210 E0.09293
G1 X116.785 Y97.790 E0.01745
G1 X113.669 Y97.790 E0.09370
G1 X113.561 Y100.210 E0.07287
G1 X116.785 Y100.210 E0.09695
G1 X116.785 Y100.790 E0.01745
G1 X113.536 Y100.790 E0.09773
G1 X113.428 Y103.210 E0.07287
G1 X116.785 Y103.210 E0.10096
G1 X116.785 Y103.790 E0.01745
G1 X113.402 Y103.790 E0.10174
G1 X113.294 Y106.210 E0.07287
G1 X116.785 Y106.210 E0.10499
G1 X116.785 Y106.790 E0.01745
G1 X113.269 Y106.790 E0.10576
G1 X113.161 Y109.210 E0.07287
G1 X116.785 Y109.210 E0.10899
G1 X116.785 Y109.790 E0.01745
G1 X113.135 Y109.790 E0.10977
G1 X113.027 Y112.210 E0.07287
G1 X116.785 Y112.210 E0.11302
G1 X116.785 Y112.790 E0.01745
G1 X113.001 Y112.790 E0.11379
G1 X112.894 Y115.210 E0.07287
G1 X116.785 Y115.210 E0.11703
G1 X116.785 Y115.790 E0.01745
G1 X112.868 Y115.790 E0.11780
G1 X112.760 Y118.210 E0.07287
G1 X116.785 Y118.210 E0.12106
G1 X116.785 Y118.790 E0.01745
G1 X112.734 Y118.790 E0.12183
G1 X112.627 Y121.210 E0.07287
G1 X116.785 Y121.210 E0.12507
G1 X116.785 Y121.790 E0.01745
G1 X112.600 Y121.790 E0.12586
G1 X112.493 Y124.210 E0.07287
G1 X116.785 Y124.210 E0.12910
G1 X116.785 Y124.790 E0.01745
G1 X112.467 Y124.790 E0.12987
G1 X112.359 Y127.210 E0.07287
G1 X116.785 Y127.210 E0.13313
G1 X116.785 Y127.790 E0.01745
G1 X112.333 Y127.790 E0.13390
G1 X112.279 Y128.995 E0.03629
G1 X112.279 Y129.790 E0.02390
G1 X109.721 Y129.790 E0.07697
G1 X109.721 Y128.995 E0.02390
G1 X109.667 Y127.790 E0.03629
G1 X105.215 Y127.790 E0.13390
G1 X105.215 Y127.210 E0.01745
G1 X109.641 Y127.210 E0.13313
G1 X109.533 Y124.790 E0.07287
G1 X105.215 Y124.790 E0.12987
G1 X105.215 Y124.210 E0.01745
G1 X109.507 Y124.210 E0.12910
G1 X109.400 Y121.790 E0.07287
G1 X105.215 Y121.790 E0.12586
G1 X105.215 Y121.210 E0.01745
G1 X109.373 Y121.210 E0.12507
G1 X109.266 Y118.790 E0.07287
G1 X105.215 Y118.790 E0.12183
G1 X105.215 Y118.210 E0.01745
G1 X109.240 Y118.210 E0.12106
G1 X109.132 Y115.790 E0.07287
G1 X105.215 Y115.790 E0.11780
G1 X105.215 Y115.210 E0.01745
G1 X109.106 Y115.210 E0.11703
G1 X108.999 Y112.790 E0.07287
G1 X105.215 Y112.790 E0.11379
G1 X105.215 Y112.210 E0.01745
G1 X108.973 Y112.210 E0.11302
G1 X108.865 Y109.790 E0.07287
G1 X105.215 Y109.790 E0.10977
G1 X105.215 Y109.210 E0.01745
G1 X108.839 Y109.210 E0.10899
G1 X108.731 Y106.790 E0.07287
G1 X105.215 Y106.790 E0.10576
G1 X105.215 Y106.210 E0.01745
G1 X108.706 Y106.210 E0.10499
G1 X108.598 Y103.790 E0.07287
G1 X105.215 Y103.790 E0.10174
G1 X105.215 Y103.210 E0.01745
G1 X108.572 Y103.210 E0.10096
G1 X108.464 Y100.790 E0.07287
G1 X105.215 Y100.790 E0.09773
G1 X105.215 Y100.210 E0.01745
G1 X108.439 Y100.210 E0.09695
G1 X108.331 Y97.790 E0.07287
G1 X105.215 Y97.790 E0.09370
G1 X105.215 Y97.210 E0.01745
G1 X108.305 Y97.210 E0.09293
G1 X108.197 Y94.790 E0.07287
G1 X105.215 Y94.790 E0.08969
G1 X105.215 Y94.210 E0.01745
G1 X108.171 Y94.210 E0.08892
G1 X108.064 Y91.790 E0.07287
G1 X105.215 Y91.790 E0.08568
G1 X105.215 Y91.210 E0.01745
G1 X108.038 Y91.210 E0.08490
G1 X107.930 Y88.790 E0.07287
G1 X105.215 Y88.790 E0.08166
G1 X105.215 Y88.210 E0.01745
G1 X107.904 Y88.210 E0.08089
G1 X107.797 Y85.790 E0.07287
G1 X105.215 Y85.790 E0.07765
G1 X105.215 Y85.210 E0.01745
G1 X107.771 Y85.210 E0.07688
G1 X107.717 Y83.995 E0.03657
G1 X107.717 Y82.790 E0.03626
G1 X101.713 Y82.790 E0.18059
G1 X101.713 Y129.790 E1.41375
G1 X100.210 Y129.790 E0.04521
G1 X100.210 Y80.210 E1.49136
G1 X121.790 Y80.210 E0.64912
G1 X121.790 Y129.790 E1.49136
G1 X120.287 Y129.790 E0.04521
G1 X120.287 Y82.850 E1.41195
G1 X120.283 Y82.390 F7200.000
G1 X121.038 Y82.224 F7200.000
G1 F1680
G1 X121.038 Y129.224 E1.22581
G1 F5760
G1 X121.038 Y127.030 E-0.76000
G1 E-0.04000 F2100.00000
G1 X116.596 Y127.500 F7200.000
G1 E0.80000 F2100.00000
G1 F1680
G1 X112.157 Y127.500 E0.05340
G1 F5760
G1 X114.351 Y127.500 E-0.76000
G1 E-0.04000 F2100.00000
G1 X110.547 Y128.122 F7200.000
G1 E0.80000 F2100.00000
G1 F1680
G1 X111.178 Y128.753 E0.02689
G1 X111.255 Y128.753 E0.00232
G1 X111.274 Y128.315 E0.01322
G1 X110.700 Y127.741 E0.02448
G1 X110.675 Y127.181 E0.01688
G1 X111.297 Y127.803 E0.02651
G1 X111.320 Y127.291 E0.01545
G1 X110.650 Y126.622 E0.02855
G1 X110.626 Y126.063 E0.01688
G1 X111.343 Y126.780 E0.03058
G1 X111.365 Y126.268 E0.01545
G1 X110.601 Y125.503 E0.03261
G1 X110.576 Y124.944 E0.01688
G1 X111.388 Y125.756 E0.03464
G1 X111.411 Y125.244 E0.01545
G1 X110.551 Y124.385 E0.03667
G1 X110.526 Y123.825 E0.01688
G1 X111.434 Y124.733 E0.03870
G1 X111.456 Y124.221 E0.01545
G1 X110.501 Y123.266 E0.04073
G1 X110.476 Y122.706 E0.01688
G1 X111.479 Y123.709 E0.04276
G1 X111.502 Y123.198 E0.01545
G1 X110.451 Y122.147 E0.04479
G1 X110.427 Y121.588 E0.01688
G1 X111.525 Y122.686 E0.04683
G1 X111.547 Y122.174 E0.01545
G1 X110.402 Y121.028 E0.04886
G1 X110.377 Y120.469 E0.01688
G1 X111.570 Y121.662 E0.05089
G1 X111.593 Y121.151 E0.01545
G1 X110.352 Y119.910 E0.05292
G1 X110.327 Y119.350 E0.01688
G1 X111.616 Y120.639 E0.05495
G1 X111.638 Y120.127 E0.01545
G1 X110.302 Y118.791 E0.05698
G1 X110.277 Y118.231 E0.01688
G1 X111.661 Y119.615 E0.05901
G1 X111.684 Y119.104 E0.01545
G1 X110.252 Y117.672 E0.06104
G1 X110.228 Y117.113 E0.01688
G1 X111.707 Y118.592 E0.06307
G1 X111.729 Y118.080 E0.01545
G1 X110.203 Y116.553 E0.06510
G1 X110.178 Y115.994 E0.01688
G1 X111.752 Y117.568 E0.06714
G1 X111.775 Y117.057 E0.01545
G1 X110.153 Y115.435 E0.06917
G1 X110.128 Y114.875 E0.01688
G1 X111.798 Y116.545 E0.07120
G1 X111.820 Y116.033 E0.01545
G1 X110.103 Y114.316 E0.07323
G1 X110.078 Y113.756 E0.01688
G1 X111.843 Y115.521 E0.07526
G1 X111.866 Y115.010 E0.01545
G1 X110.053 Y113.197 E0.07729
G1 X110.029 Y112.638 E0.01688
G1 X111.889 Y114.498 E0.07932
G1 X111.912 Y113.986 E0.01545
G1 X110.004 Y112.078 E0.08135
G1 X109.979 Y111.519 E0.01688
G1 X111.934 Y113.475 E0.08338
G1 X111.957 Y112.963 E0.01545
G1 X109.954 Y110.960 E0.08542
G1 X109.929 Y110.400 E0.01688
G1 X111.980 Y112.451 E0.08745
G1 X112.003 Y111.939 E0.01545
G1 X109.904 Y109.841 E0.08948
G1 X109.879 Y109.282 E0.01688
G1 X112.025 Y111.428 E0.09151
G1 X112.048 Y110.916 E0.01545
G1 X109.854 Y108.722 E0.09354
G1 X109.830 Y108.163 E0.01688
G1 X112.071 Y110.404 E0.09557
G1 X112.094 Y109.892 E0.01545
G1 X109.805 Y107.603 E0.09760
G1 X109.780 Y107.044 E0.01688
G1 X112.116 Y109.381 E0.09963
G1 X112.139 Y108.869 E0.01545
G1 X109.755 Y106.485 E0.10166
G1 X109.730 Y105.925 E0.01688
G1 X112.162 Y108.357 E0.10369
G1 X112.185 Y107.845 E0.01545
G1 X109.705 Y105.366 E0.10573
G1 X109.680 Y104.807 E0.01688
G1 X112.207 Y107.334 E0.10776
G1 X112.230 Y106.822 E0.01545
G1 X109.655 Y104.247 E0.10979
G1 X109.631 Y103.688 E0.01688
G1 X112.253 Y106.310 E0.11182
G1 X112.276 Y105.798 E0.01545
G1 X109.606 Y103.128 E0.11385
G1 X109.581 Y102.569 E0.01688
G1 X112.298 Y105.287 E0.11588
G1 X112.321 Y104.775 E0.01545
G1 X109.556 Y102.010 E0.11791
G1 X109.531 Y101.450 E0.01688
G1 X112.344 Y104.263 E0.11994
G1 X112.367 Y103.751 E0.01545
G1 X109.506 Y100.891 E0.12197
G1 X109.481 Y100.332 E0.01688
G1 X112.389 Y103.240 E0.12401
G1 X112.412 Y102.728 E0.01545
G1 X109.456 Y99.772 E0.12604
G1 X109.432 Y99.213 E0.01688
G1 X112.435 Y102.216 E0.12807
G1 X112.458 Y101.705 E0.01545
G1 X109.407 Y98.654 E0.13010
G1 X109.382 Y98.094 E0.01688
G1 X112.480 Y101.193 E0.13213
G1 X112.503 Y100.681 E0.01545
G1 X109.357 Y97.535 E0.13416
G1 X109.332 Y96.975 E0.01688
G1 X112.526 Y100.169 E0.13619
G1 X112.549 Y99.658 E0.01545
G1 X109.307 Y96.416 E0.13822
G1 X109.282 Y95.857 E0.01688
G1 X112.571 Y99.146 E0.14025
G1 X112.594 Y98.634 E0.01545
G1 X109.257 Y95.297 E0.14228
G1 X109.233 Y94.738 E0.01688
G1 X112.617 Y98.122 E0.14432
G1 X112.640 Y97.611 E0.01545
G1 X109.208 Y94.179 E0.14635
G1 X109.183 Y93.619 E0.01688
G1 X112.662 Y97.099 E0.14838
G1 X112.685 Y96.587 E0.01545
G1 X109.158 Y93.060 E0.15041
G1 X109.133 Y92.500 E0.01688
G1 X112.708 Y96.075 E0.15244
G1 X112.731 Y95.564 E0.01545
G1 X109.108 Y91.941 E0.15447
G1 X109.083 Y91.382 E0.01688
G1 X112.754 Y95.052 E0.15650
G1 X112.776 Y94.540 E0.01545
G1 X109.058 Y90.822 E0.15853
G1 X109.034 Y90.263 E0.01688
G1 X112.799 Y94.028 E0.16056
G1 X112.822 Y93.517 E0.01545
G1 X109.009 Y89.704 E0.16260
G1 X108.984 Y89.144 E0.01688
G1 X112.845 Y93.005 E0.16463
G1 X112.867 Y92.493 E0.01545
G1 X108.959 Y88.585 E0.16666
G1 X108.934 Y88.025 E0.01688
G1 X112.890 Y91.981 E0.16869
G1 X112.913 Y91.470 E0.01545
G1 X108.909 Y87.466 E0.17072
G1 X108.884 Y86.907 E0.01688
G1 X112.936 Y90.958 E0.17275
G1 X112.958 Y90.446 E0.01545
G1 X108.859 Y86.347 E0.17478
G1 X108.835 Y85.788 E0.01688
G1 X112.981 Y89.935 E0.17681
G1 X113.004 Y89.423 E0.01545
G1 X108.810 Y85.229 E0.17884
G1 X108.785 Y84.669 E0.01688
G1 X113.027 Y88.911 E0.18087
G1 X113.049 Y88.399 E0.01545
G1 X108.760 Y84.110 E0.18291
G1 X108.754 Y83.569 E0.01630
G1 X113.072 Y87.888 E0.18414
G1 X113.095 Y87.376 E0.01545
G1 X108.754 Y83.035 E0.18511
G1 X108.754 Y82.500 E0.01612
G1 X113.118 Y86.864 E0.18608
G1 X113.140 Y86.352 E0.01545
G1 X108.035 Y81.247 E0.21770
G1 X108.569 Y81.247 E0.01612
G1 X113.163 Y85.841 E0.19588
G1 X113.186 Y85.329 E0.01545
G1 X109.104 Y81.247 E0.17406
G1 X109.638 Y81.247 E0.01612
G1 X113.209 Y84.817 E0.15224
G1 X113.231 Y84.305 E0.01545
G1 X110.173 Y81.247 E0.13042
G1 X110.707 Y81.247 E0.01612
G1 X113.246 Y83.786 E0.10826
G1 X113.246 Y83.251 E0.01612
G1 X111.242 Y81.247 E0.08547
G1 X111.776 Y81.247 E0.01612
G1 X113.246 Y82.717 E0.06267
G1 X113.246 Y82.182 E0.01612
G1 X112.311 Y81.247 E0.03988
G1 X112.845 Y81.247 E0.01612
G1 X113.352 Y81.753 E0.02158
G1 X113.886 Y81.753 E0.01612
G1 X113.380 Y81.247 E0.02158
G1 X113.914 Y81.247 E0.01612
G1 X114.420 Y81.753 E0.02158
G1 X114.955 Y81.753 E0.01612
G1 X114.449 Y81.247 E0.02158
G1 X114.983 Y81.247 E0.01612
G1 X115.489 Y81.753 E0.02158
G1 X116.024 Y81.753 E0.01612
G1 X115.518 Y81.247 E0.02158
G1 X116.052 Y81.247 E0.01612
G1 X116.558 Y81.753 E0.02158
G1 X117.093 Y81.753 E0.01612
G1 X116.587 Y81.247 E0.02158
G1 X117.121 Y81.247 E0.01612
G1 X117.627 Y81.753 E0.02158
G1 X118.162 Y81.753 E0.01612
G1 X117.656 Y81.247 E0.02158
G1 X118.190 Y81.247 E0.01612
G1 X118.696 Y81.753 E0.02158
G1 X119.231 Y81.753 E0.01612
G1 X118.725 Y81.247 E0.02158
G1 X119.259 Y81.247 E0.01612
G1 X119.765 Y81.753 E0.02158
G1 X120.300 Y81.753 E0.01612
G1 X119.794 Y81.247 E0.02158
G1 X120.328 Y81.247 E0.01612
G1 X120.923 Y81.841 E0.02535
G1 F5760
G1 X120.328 Y81.247 E-0.29116
G1 F5760
G1 X119.794 Y81.247 E-0.18512
G1 F5760
G1 X120.300 Y81.753 E-0.24790
G1 F5760
G1 X120.197 Y81.753 E-0.03581
G1 E-0.04000 F2100.00000
G1 X116.596 Y85.500 F7200.000
G1 E0.80000 F2100.00000
G1 F1680
G1 X114.027 Y85.500 E0.03090
G1 F5760
G1 X116.221 Y85.500 E-0.76000
G1 E-0.04000 F2100.00000
G1 X113.894 Y88.500 F7200.000
G1 E0.80000 F2100.00000
G1 F1680
G1 X116.596 Y88.500 E0.03251
G1 F5760
G1 X114.402 Y88.500 E-0.76000
G1 E-0.04000 F2100.00000
G1 X116.596 Y91.500 F7200.000
G1 E0.80000 F2100.00000
G1 F1680
G1 X113.761 Y91.500 E0.03411
G1 F5760
G1 X115.955 Y91.500 E-0.76000
G1 E-0.04000 F2100.00000
G1 X113.627 Y94.500 F7200.000
G1 E0.80000 F2100.00000
G1 F1680
G1 X116.596 Y94.500 E0.03572
G1 F5760
G1 X114.402 Y94.500 E-0.76000
G1 E-0.04000 F2100.00000
G1 X116.596 Y97.500 F7200.000
G1 E0.80000 F2100.00000
G1 F1680
G1 X113.494 Y97.500 E0.03732
G1 F5760
G1 X115.688 Y97.500 E-0.76000
G1 E-0.04000 F2100.00000
G1 X113.360 Y100.500 F7200.000
G1 E0.80000 F2100.00000
G1 F1680
G1 X116.596 Y100.500 E0.03893
G1 F5760
G1 X114.402 Y100.500 E-0.76000
G1 E-0.04000 F2100.00000
G1 X116.596 Y103.500 F7200.000
G1 E0.80000 F2100.00000
G1 F1680
G1 X113.227 Y103.500 E0.04053
G1 F5760
G1 X115.421 Y103.500 E-0.76000
G1 E-0.04000 F2100.00000
G1 X113.093 Y106.500 F7200.000
G1 E0.80000 F2100.00000
G1 F1680
G1 X116.596 Y106.500 E0.04215
G1 F5760
G1 X114.402 Y106.500 E-0.76000
G1 E-0.04000 F2100.00000
G1 X116.596 Y109.500 F7200.000
G1 E0.80000 F2100.00000
G1 F1680
G1 X112.959 Y109.500 E0.04375
G1 F5760
G1 X115.154 Y109.500 E-0.76000
G1 E-0.04000 F2100.00000
G1 X112.826 Y112.500 F7200.000
G1 E0.80000 F2100.00000
G1 F1680
G1 X116.596 Y112.500 E0.04536
G1 F5760
G1 X114.402 Y112.500 E-0.76000
G1 E-0.04000 F2100.00000
G1 X116.596 Y115.500 F7200.000
G1 E0.80000 F2100.00000
G1 F1680
G1 X112.692 Y115.500 E0.04696
G1 F5760
G1 X114.887 Y115.500 E-0.76000
G1 E-0.04000 F2100.00000
G1 X112.558 Y118.500 F7200.000
G1 E0.80000 F2100.00000
G1 F1680
G1 X116.596 Y118.500 E0.04857
G1 F5760
G1 X114.402 Y118.500 E-0.76000
G1 E-0.04000 F2100.00000
G1 X116.596 Y121.500 F7200.000
G1 E0.80000 F2100.00000
G1 F1680
G1 X112.425 Y121.500 E0.05018
G1 F5760
G1 X114.619 Y121.500 E-0.76000
G1 E-0.04000 F2100.00000
G1 X109.575 Y121.500 F7200.000
G1 E0.80000 F2100.00000
G1 F1680
