; generated by Slic3r 1.36.2-prusa3d on 2017-11-18 at 11:10:29

; 

; external perimeters extrusion width = 0.45mm
; perimeters extrusion width = 0.45mm
; infill extrusion width = 0.45mm
; solid infill extrusion width = 0.45mm
; top infill extrusion width = 0.45mm
; first layer extrusion width = 0.42mm

M107
M115 U3.0.12 ; tell printer latest fw version
M83  ; extruder relative mode
M104 S210 ; set extruder temp
M140 S55 ; set bed temp
M190 S55 ; wait for bed temp
M109 S210 ; wait for extruder temp
G28 W ; home all without mesh bed level
G80 ; mesh bed leveling
G1 Y-3.0 F1000.0 ; go outside pritn area
G1 X60.0 E9.0  F1000.0 ; intro line
G1 X100.0 E12.5  F1000.0 ; intro line
; Filament gcode

G21 ; set units to millimeters
G90 ; use absolute coordinates
M83 ; use relative distances for extrusion
G1 E-0.80000 F2100.00000
G1 Z0.200 F7200.000
G1 X111.951 Y53.794 F7200.000
G1 E0.80000 F2100.00000
M204 S1000
G1 F2100
G1 X112.436 Y53.210 E0.02282
G1 X113.079 Y52.809 E0.02282
G1 X113.816 Y52.630 E0.02282
G1 X136.004 Y52.623 E0.66740
G1 X136.899 Y52.799 E0.02744
G1 X137.662 Y53.300 E0.02744
G1 X138.181 Y54.055 E0.02755
G1 X138.376 Y54.946 E0.02744
G1 X138.377 Y155.000 E3.00962
G1 X138.324 Y155.499 E0.01510
G1 X138.049 Y156.206 E0.02282
G1 X137.562 Y156.792 E0.02293
G1 X136.917 Y157.193 E0.02282
G1 X136.176 Y157.371 E0.02293
G1 X113.996 Y157.377 E0.66717
G1 X113.501 Y157.324 E0.01498
G1 X112.765 Y157.031 E0.02383
G1 X112.166 Y156.512 E0.02383
G1 X111.771 Y155.825 E0.02383
G1 X111.623 Y155.043 E0.02395
G1 X111.623 Y55.000 E3.00928
G1 X111.676 Y54.501 E0.01510
G1 X111.930 Y53.850 E0.02101
G1 F5760
G1 X112.436 Y53.210 E-0.28252
G1 F5760
G1 X113.079 Y52.809 E-0.26273
G1 F5760
G1 X113.682 Y52.663 E-0.21475
G1 E-0.04000 F2100.00000
G1 X114.964 Y108.964 F7200.000
G1 E0.80000 F2100.00000
G1 F1680
G1 X135.036 Y108.964 E0.60375
G1 X135.036 Y109.036 E0.00216
G1 X127.571 Y109.036 E0.22454
G1 X125.568 Y154.036 E1.35493
G1 X124.432 Y154.036 E0.03416
G1 X122.429 Y109.036 E1.35493
G1 X114.964 Y109.024 E0.22454
G1 F5760
G1 X117.158 Y109.018 E-0.76000
G1 E-0.04000 F2100.00000
G1 X127.932 Y109.413 F7200.000
G1 E0.80000 F2100.00000
G1 F1680
G1 X125.928 Y154.413 E1.35493
G1 X124.072 Y154.413 E0.05585
G1 X122.068 Y109.413 E1.35493
G1 X114.587 Y109.413 E0.22504
G1 X114.587 Y108.587 E0.02484
G1 X135.413 Y108.587 E0.62644
G1 X135.413 Y109.413 E0.02484
G1 X127.992 Y109.413 E0.22323
G1 X128.292 Y109.790 F7200.000
G1 F1050
G1 X128.229 Y111.210 E0.04276
G1 X130.785 Y111.210 E0.07687
G1 X130.785 Y111.790 E0.01745
G1 X128.203 Y111.790 E0.07765
G1 X128.140 Y113.210 E0.04276
G1 X130.785 Y113.210 E0.07955
G1 X130.785 Y113.790 E0.01745
G1 X128.115 Y113.790 E0.08032
G1 X128.051 Y115.210 E0.04276
G1 X130.785 Y115.210 E0.08223
G1 X130.785 Y115.790 E0.01745
G1 X128.025 Y115.790 E0.08300
G1 X127.962 Y117.210 E0.04276
G1 X130.785 Y117.210 E0.08490
G1 X130.785 Y117.790 E0.01745
G1 X127.936 Y117.790 E0.08568
G1 X127.873 Y119.210 E0.04276
G1 X130.785 Y119.210 E0.08758
G1 X130.785 Y119.790 E0.01745
G1 X127.848 Y119.790 E0.08835
G1 X127.784 Y121.210 E0.04276
G1 X130.785 Y121.210 E0.09025
G1 X130.785 Y121.790 E0.01745
G1 X127.758 Y121.790 E0.09104
G1 X127.695 Y123.210 E0.04276
G1 X130.785 Y123.210 E0.09293
G1 X130.785 Y123.790 E0.01745
G1 X127.669 Y123.790 E0.09371
G1 X127.606 Y125.210 E0.04276
G1 X130.785 Y125.210 E0.09561
G1 X130.785 Y125.790 E0.01745
G1 X127.581 Y125.790 E0.09638
G1 X127.517 Y127.210 E0.04276
G1 X130.785 Y127.210 E0.09828
G1 X130.785 Y127.790 E0.01745
G1 X127.491 Y127.790 E0.09907
G1 X127.428 Y129.210 E0.04276
G1 X130.785 Y129.210 E0.10097
G1 X130.785 Y129.790 E0.01745
G1 X127.402 Y129.790 E0.10174
G1 X127.339 Y131.210 E0.04276
G1 X130.785 Y131.210 E0.10364
G1 X130.785 Y131.790 E0.01745
G1 X127.313 Y131.790 E0.10442
G1 X127.250 Y133.210 E0.04276
G1 X130.785 Y133.210 E0.10631
G1 X130.785 Y133.790 E0.01745
G1 X127.224 Y133.790 E0.10710
G1 X127.161 Y135.210 E0.04276
G1 X130.785 Y135.210 E0.10900
G1 X130.785 Y135.790 E0.01745
G1 X127.135 Y135.790 E0.10978
G1 X127.072 Y137.210 E0.04276
G1 X130.785 Y137.210 E0.11167
G1 X130.785 Y137.790 E0.01745
G1 X127.046 Y137.790 E0.11245
G1 X126.983 Y139.210 E0.04276
G1 X130.785 Y139.210 E0.11435
G1 X130.785 Y139.790 E0.01745
G1 X126.957 Y139.790 E0.11514
G1 X126.894 Y141.210 E0.04276
G1 X130.785 Y141.210 E0.11704
G1 X130.785 Y141.790 E0.01745
G1 X126.868 Y141.790 E0.11781
G1 X126.805 Y143.210 E0.04276
G1 X130.785 Y143.210 E0.11971
G1 X130.785 Y143.790 E0.01745
G1 X126.779 Y143.790 E0.12048
G1 X126.716 Y145.210 E0.04276
G1 X130.785 Y145.210 E0.12240
G1 X130.785 Y145.790 E0.01745
G1 X126.690 Y145.790 E0.12317
G1 X126.627 Y147.210 E0.04276
G1 X130.785 Y147.210 E0.12507
G1 X130.785 Y147.790 E0.01745
G1 X126.601 Y147.790 E0.12585
G1 X126.538 Y149.210 E0.04276
G1 X130.785 Y149.210 E0.12775
G1 X130.785 Y149.790 E0.01745
G1 X126.511 Y149.790 E0.12854
G1 X126.448 Y151.210 E0.04276
G1 X130.785 Y151.210 E0.13044
G1 X130.785 Y151.790 E0.01745
G1 X126.423 Y151.790 E0.13121
G1 X126.360 Y153.210 E0.04276
G1 X130.785 Y153.210 E0.13311
G1 X130.785 Y153.790 E0.01745
G1 X126.334 Y153.790 E0.13388
G1 X126.289 Y154.790 E0.03011
G1 X123.711 Y154.790 E0.07753
G1 X123.666 Y153.790 E0.03011
G1 X119.215 Y153.790 E0.13388
G1 X119.215 Y153.210 E0.01745
G1 X123.640 Y153.210 E0.13311
G1 X123.577 Y151.790 E0.04276
G1 X119.215 Y151.790 E0.13121
G1 X119.215 Y151.210 E0.01745
G1 X123.552 Y151.210 E0.13044
G1 X123.489 Y149.790 E0.04276
G1 X119.215 Y149.790 E0.12854
G1 X119.215 Y149.210 E0.01745
G1 X123.462 Y149.210 E0.12775
G1 X123.399 Y147.790 E0.04276
G1 X119.215 Y147.790 E0.12585
G1 X119.215 Y147.210 E0.01745
G1 X123.373 Y147.210 E0.12507
G1 X123.310 Y145.790 E0.04276
G1 X119.215 Y145.790 E0.12317
G1 X119.215 Y145.210 E0.01745
G1 X123.284 Y145.210 E0.12240
G1 X123.221 Y143.790 E0.04276
G1 X119.215 Y143.790 E0.12048
G1 X119.215 Y143.210 E0.01745
G1 X123.195 Y143.210 E0.11971
G1 X123.132 Y141.790 E0.04276
G1 X119.215 Y141.790 E0.11781
G1 X119.215 Y141.210 E0.01745
G1 X123.106 Y141.210 E0.11704
G1 X123.043 Y139.790 E0.04276
G1 X119.215 Y139.790 E0.11514
G1 X119.215 Y139.210 E0.01745
G1 X123.017 Y139.210 E0.11435
G1 X122.954 Y137.790 E0.04276
G1 X119.215 Y137.790 E0.11245
G1 X119.215 Y137.210 E0.01745
G1 X122.928 Y137.210 E0.11167
G1 X122.865 Y135.790 E0.04276
G1 X119.215 Y135.790 E0.10978
G1 X119.215 Y135.210 E0.01745
G1 X122.839 Y135.210 E0.10900
G1 X122.776 Y133.790 E0.04276
G1 X119.215 Y133.790 E0.10710
G1 X119.215 Y133.210 E0.01745
G1 X122.750 Y133.210 E0.10631
G1 X122.687 Y131.790 E0.04276
G1 X119.215 Y131.790 E0.10442
G1 X119.215 Y131.210 E0.01745
G1 X122.661 Y131.210 E0.10364
G1 X122.598 Y129.790 E0.04276
G1 X119.215 Y129.790 E0.10174
G1 X119.215 Y129.210 E0.01745
G1 X122.572 Y129.210 E0.10097
G1 X122.509 Y127.790 E0.04276
G1 X119.215 Y127.790 E0.09907
G1 X119.215 Y127.210 E0.01745
G1 X122.483 Y127.210 E0.09828
G1 X122.419 Y125.790 E0.04276
G1 X119.215 Y125.790 E0.09638
G1 X119.215 Y125.210 E0.01745
G1 X122.394 Y125.210 E0.09561
G1 X122.331 Y123.790 E0.04276
G1 X119.215 Y123.790 E0.09371
G1 X119.215 Y123.210 E0.01745
G1 X122.305 Y123.210 E0.09293
G1 X122.242 Y121.790 E0.04276
G1 X119.215 Y121.790 E0.09104
G1 X119.215 Y121.210 E0.01745
G1 X122.216 Y121.210 E0.09025
G1 X122.152 Y119.790 E0.04276
G1 X119.215 Y119.790 E0.08835
G1 X119.215 Y119.210 E0.01745
G1 X122.127 Y119.210 E0.08758
G1 X122.064 Y117.790 E0.04276
G1 X119.215 Y117.790 E0.08568
G1 X119.215 Y117.210 E0.01745
G1 X122.038 Y117.210 E0.08490
G1 X121.975 Y115.790 E0.04276
G1 X119.215 Y115.790 E0.08300
G1 X119.215 Y115.210 E0.01745
G1 X121.949 Y115.210 E0.08223
G1 X121.885 Y113.790 E0.04276
G1 X119.215 Y113.790 E0.08032
G1 X119.215 Y113.210 E0.01745
G1 X121.860 Y113.210 E0.07955
G1 X121.797 Y111.790 E0.04276
G1 X119.215 Y111.790 E0.07765
G1 X119.215 Y111.210 E0.01745
G1 X121.771 Y111.210 E0.07687
G1 X121.708 Y109.790 E0.04276
G1 X114.794 Y109.790 E0.20796
G1 X114.794 Y154.790 E1.35359
G1 X114.210 Y154.790 E0.01757
G1 X114.210 Y108.210 E1.40112
G1 X135.790 Y108.210 E0.64912
G1 X135.790 Y154.790 E1.40112
G1 X135.206 Y154.790 E0.01757
G1 X135.206 Y109.790 E1.35359
G1 X128.352 Y109.790 E0.20616
G1 X127.942 Y109.597 F7200.000
G1 X127.423 Y109.812 F7200.000
G1 F1680
G1 X126.858 Y109.247 E0.02425
G1 X126.320 Y109.247 E0.01630
G1 X127.238 Y110.164 E0.03934
G1 X127.215 Y110.679 E0.01562
G1 X125.783 Y109.247 E0.06141
G1 X125.245 Y109.247 E0.01630
G1 X127.192 Y111.193 E0.08348
G1 X127.169 Y111.708 E0.01562
G1 X124.708 Y109.247 E0.10555
G1 X124.170 Y109.247 E0.01630
G1 X127.146 Y112.223 E0.12762
G1 X127.123 Y112.737 E0.01562
G1 X123.633 Y109.247 E0.14969
G1 X123.095 Y109.247 E0.01630
G1 X127.100 Y113.252 E0.17176
G1 X127.077 Y113.766 E0.01562
G1 X122.729 Y109.418 E0.18649
G1 X122.754 Y109.981 E0.01708
G1 X127.054 Y114.281 E0.18443
G1 X127.031 Y114.795 E0.01562
G1 X122.779 Y110.543 E0.18238
G1 X122.804 Y111.106 E0.01708
G1 X127.009 Y115.310 E0.18032
G1 X126.986 Y115.825 E0.01562
G1 X122.829 Y111.668 E0.17826
G1 X122.854 Y112.231 E0.01708
G1 X126.963 Y116.339 E0.17621
G1 X126.940 Y116.854 E0.01562
G1 X122.879 Y112.793 E0.17415
G1 X122.904 Y113.356 E0.01708
G1 X126.917 Y117.368 E0.17209
G1 X126.894 Y117.883 E0.01562
G1 X122.930 Y113.918 E0.17004
G1 X122.955 Y114.481 E0.01708
G1 X126.871 Y118.398 E0.16798
G1 X126.848 Y118.912 E0.01562
G1 X122.980 Y115.044 E0.16592
G1 X123.005 Y115.606 E0.01708
G1 X126.825 Y119.427 E0.16387
G1 X126.802 Y119.941 E0.01562
G1 X123.030 Y116.169 E0.16181
G1 X123.055 Y116.731 E0.01708
G1 X126.779 Y120.456 E0.15976
G1 X126.757 Y120.970 E0.01562
G1 X123.080 Y117.294 E0.15770
G1 X123.105 Y117.856 E0.01708
G1 X126.734 Y121.485 E0.15564
G1 X126.711 Y122.000 E0.01562
G1 X123.130 Y118.419 E0.15359
G1 X123.155 Y118.981 E0.01708
G1 X126.688 Y122.514 E0.15153
G1 X126.665 Y123.029 E0.01562
G1 X123.180 Y119.544 E0.14947
G1 X123.205 Y120.106 E0.01708
G1 X126.642 Y123.543 E0.14742
G1 X126.619 Y124.058 E0.01562
G1 X123.230 Y120.669 E0.14536
G1 X123.255 Y121.231 E0.01708
G1 X126.596 Y124.573 E0.14330
G1 X126.573 Y125.087 E0.01562
G1 X123.280 Y121.794 E0.14125
G1 X123.305 Y122.356 E0.01708
G1 X126.550 Y125.602 E0.13919
G1 X126.528 Y126.116 E0.01562
G1 X123.330 Y122.919 E0.13713
G1 X123.355 Y123.481 E0.01708
G1 X126.505 Y126.631 E0.13508
G1 X126.482 Y127.145 E0.01562
G1 X123.380 Y124.044 E0.13302
G1 X123.405 Y124.606 E0.01708
G1 X126.459 Y127.660 E0.13097
G1 X126.436 Y128.175 E0.01562
G1 X123.430 Y125.169 E0.12891
G1 X123.455 Y125.732 E0.01708
G1 X126.413 Y128.689 E0.12685
G1 X126.390 Y129.204 E0.01562
G1 X123.480 Y126.294 E0.12480
G1 X123.505 Y126.857 E0.01708
G1 X126.367 Y129.718 E0.12274
G1 X126.344 Y130.233 E0.01562
G1 X123.530 Y127.419 E0.12068
G1 X123.555 Y127.982 E0.01708
G1 X126.321 Y130.747 E0.11863
G1 X126.298 Y131.262 E0.01562
G1 X123.581 Y128.544 E0.11657
G1 X123.606 Y129.107 E0.01708
G1 X126.276 Y131.777 E0.11451
G1 X126.253 Y132.291 E0.01562
G1 X123.631 Y129.669 E0.11246
G1 X123.656 Y130.232 E0.01708
G1 X126.230 Y132.806 E0.11040
G1 X126.207 Y133.320 E0.01562
G1 X123.681 Y130.794 E0.10835
G1 X123.706 Y131.357 E0.01708
G1 X126.184 Y133.835 E0.10629
G1 X126.161 Y134.350 E0.01562
G1 X123.731 Y131.919 E0.10423
G1 X123.756 Y132.482 E0.01708
G1 X126.138 Y134.864 E0.10218
G1 X126.115 Y135.379 E0.01562
G1 X123.781 Y133.044 E0.10012
G1 X123.806 Y133.607 E0.01708
G1 X126.092 Y135.893 E0.09806
G1 X126.069 Y136.408 E0.01562
G1 X123.831 Y134.169 E0.09601
G1 X123.856 Y134.732 E0.01708
G1 X126.046 Y136.922 E0.09395
G1 X126.024 Y137.437 E0.01562
G1 X123.881 Y135.294 E0.09189
G1 X123.906 Y135.857 E0.01708
G1 X126.001 Y137.952 E0.08984
G1 X125.978 Y138.466 E0.01562
G1 X123.931 Y136.420 E0.08778
G1 X123.956 Y136.982 E0.01708
G1 X125.955 Y138.981 E0.08572
G1 X125.932 Y139.495 E0.01562
G1 X123.981 Y137.545 E0.08367
G1 X124.006 Y138.107 E0.01708
G1 X125.909 Y140.010 E0.08161
G1 X125.886 Y140.525 E0.01562
G1 X124.031 Y138.670 E0.07956
G1 X124.056 Y139.232 E0.01708
G1 X125.863 Y141.039 E0.07750
G1 X125.840 Y141.554 E0.01562
G1 X124.081 Y139.795 E0.07544
G1 X124.106 Y140.357 E0.01708
G1 X125.817 Y142.068 E0.07339
G1 X125.794 Y142.583 E0.01562
G1 X124.131 Y140.920 E0.07133
G1 X124.156 Y141.482 E0.01708
G1 X125.772 Y143.097 E0.06927
G1 X125.749 Y143.612 E0.01562
G1 X124.181 Y142.045 E0.06722
G1 X124.207 Y142.607 E0.01708
G1 X125.726 Y144.127 E0.06516
G1 X125.703 Y144.641 E0.01562
G1 X124.232 Y143.170 E0.06310
G1 X124.257 Y143.732 E0.01708
G1 X125.680 Y145.156 E0.06105
G1 X125.657 Y145.670 E0.01562
G1 X124.282 Y144.295 E0.05899
G1 X124.307 Y144.857 E0.01708
G1 X125.634 Y146.185 E0.05694
G1 X125.611 Y146.699 E0.01562
G1 X124.332 Y145.420 E0.05488
G1 X124.357 Y145.982 E0.01708
G1 X125.588 Y147.214 E0.05282
G1 X125.565 Y147.729 E0.01562
G1 X124.382 Y146.545 E0.05077
G1 X124.407 Y147.108 E0.01708
G1 X125.543 Y148.243 E0.04871
G1 X125.520 Y148.758 E0.01562
G1 X124.432 Y147.670 E0.04665
G1 X124.457 Y148.233 E0.01708
G1 X125.497 Y149.272 E0.04460
G1 X125.474 Y149.787 E0.01562
G1 X124.482 Y148.795 E0.04254
G1 X124.507 Y149.358 E0.01708
G1 X125.451 Y150.302 E0.04048
G1 X125.428 Y150.816 E0.01562
G1 X124.532 Y149.920 E0.03843
G1 X124.557 Y150.483 E0.01708
G1 X125.405 Y151.331 E0.03637
G1 X125.382 Y151.845 E0.01562
G1 X124.582 Y151.045 E0.03431
G1 X124.607 Y151.608 E0.01708
G1 X125.359 Y152.360 E0.03226
G1 X125.336 Y152.874 E0.01562
G1 X124.632 Y152.170 E0.03020
G1 X124.657 Y152.733 E0.01708
G1 X125.313 Y153.389 E0.02815
G1 X125.297 Y153.753 E0.01105
G1 X125.140 Y153.753 E0.00477
G1 X124.504 Y153.118 E0.02726
G1 X123.842 Y153.500 F7200.000
G1 F1680
G1 X119.404 Y153.500 E0.05339
G1 F5760
G1 X121.598 Y153.500 E-0.76000
G1 E-0.04000 F2100.00000
G1 X119.404 Y151.500 F7200.000
G1 E0.80000 F2100.00000
G1 F1680
G1 X123.753 Y151.500 E0.05232
G1 F5760
G1 X121.559 Y151.500 E-0.76000
G1 E-0.04000 F2100.00000
G1 X123.664 Y149.500 F7200.000
G1 E0.80000 F2100.00000
G1 F1680
G1 X119.404 Y149.500 E0.05125
G1 F5760
G1 X121.598 Y149.500 E-0.76000
G1 E-0.04000 F2100.00000
G1 X119.404 Y147.500 F7200.000
G1 E0.80000 F2100.00000
G1 F1680
G1 X123.575 Y147.500 E0.05018
G1 F5760
G1 X121.381 Y147.500 E-0.76000
G1 E-0.04000 F2100.00000
G1 X123.486 Y145.500 F7200.000
G1 E0.80000 F2100.00000
G1 F1680
G1 X119.404 Y145.500 E0.04911
G1 F5760
G1 X121.598 Y145.500 E-0.76000
G1 E-0.04000 F2100.00000
G1 X119.404 Y143.500 F7200.000
G1 E0.80000 F2100.00000
G1 F1680
G1 X123.396 Y143.500 E0.04803
G1 F5760
G1 X121.202 Y143.500 E-0.76000
G1 E-0.04000 F2100.00000
G1 X123.308 Y141.500 F7200.000
G1 E0.80000 F2100.00000
G1 F1680
G1 X119.404 Y141.500 E0.04696
G1 F5760
G1 X121.598 Y141.500 E-0.76000
G1 E-0.04000 F2100.00000
G1 X119.404 Y139.500 F7200.000
G1 E0.80000 F2100.00000
G1 F1680
G1 X123.219 Y139.500 E0.04589
G1 F5760
G1 X121.024 Y139.500 E-0.76000
G1 E-0.04000 F2100.00000
G1 X123.129 Y137.500 F7200.000
G1 E0.80000 F2100.00000
G1 F1680
G1 X119.404 Y137.500 E0.04482
G1 F5760
G1 X121.598 Y137.500 E-0.76000
G1 E-0.04000 F2100.00000
G1 X119.404 Y135.500 F7200.000
G1 E0.80000 F2100.00000
G1 F1680
G1 X123.041 Y135.500 E0.04375
G1 F5760
G1 X120.846 Y135.500 E-0.76000
G1 E-0.04000 F2100.00000
G1 X122.952 Y133.500 F7200.000
G1 E0.80000 F2100.00000
G1 F1680
G1 X119.404 Y133.500 E0.04268
G1 F5760
G1 X121.598 Y133.500 E-0.76000
G1 E-0.04000 F2100.00000
G1 X119.404 Y131.500 F7200.000
G1 E0.80000 F2100.00000
G1 F1680
G1 X122.862 Y131.500 E0.04161
G1 F5760
G1 X120.668 Y131.500 E-0.76000
G1 E-0.04000 F2100.00000
G1 X122.773 Y129.500 F7200.000
G1 E0.80000 F2100.00000
G1 F1680
G1 X119.404 Y129.500 E0.04054
G1 F5760
G1 X121.598 Y129.500 E-0.76000
G1 E-0.04000 F2100.00000
G1 X119.404 Y127.500 F7200.000
G1 E0.80000 F2100.00000
G1 F1680
G1 X122.685 Y127.500 E0.03947
G1 F5760
G1 X120.490 Y127.500 E-0.76000
G1 E-0.04000 F2100.00000
G1 X122.595 Y125.500 F7200.000
G1 E0.80000 F2100.00000
G1 F1680
G1 X119.404 Y125.500 E0.03839
G1 F5760
G1 X121.598 Y125.500 E-0.76000
G1 E-0.04000 F2100.00000
G1 X119.404 Y123.500 F7200.000
G1 E0.80000 F2100.00000
G1 F1680
G1 X122.506 Y123.500 E0.03732
G1 F5760
G1 X120.312 Y123.500 E-0.76000
G1 E-0.04000 F2100.00000
G1 X122.418 Y121.500 F7200.000
G1 E0.80000 F2100.00000
G1 F1680
G1 X119.404 Y121.500 E0.03626
G1 F5760
