;FLAVOR:Repetier
;TIME:1273
;Generated with Cura_SteamEngine 3.1.0
M82 ; absolute extrusion mode
G21 ; set units to millimeters
G90 ; use absolute positioning
M82 ; absolute extrusion mode
M104 S210 ; set extruder temp
M140 S60.0 ; set bed temp
M190 S60.0 ; wait for bed temp
M109 S210 ; wait for extruder temp
G28 W ; home all without mesh bed level
G80 ; mesh bed leveling
G92 E0.0 ; reset extruder distance position
G1 Y-3.0 F1000.0 ; go outside print area
G1 X60.0 E9.0 F1000.0 ; intro line
G1 X100.0 E21.5 F1000.0 ; intro line
G92 E0.0 ; reset extruder distance position
;LAYER_COUNT:12
;LAYER:0
M107
G0 F3600 X73.409 Y72.118 Z0.15
;TYPE:SKIRT
G1 F1800 X73.83 Y71.757 E0.01383
G1 X74.341 Y71.391 E0.02951
G1 X74.824 Y71.106 E0.0435
G1 X75.366 Y70.847 E0.05849
G1 X75.885 Y70.652 E0.07232
G1 X76.461 Y70.491 E0.08724
G1 X77.011 Y70.388 E0.1012
G1 X77.636 Y70.327 E0.11686
G1 X78.142 Y70.318 E0.12948
G1 X78.446 Y70.351 E0.13711
G1 X86.33 Y71.597 E0.33622
G1 X91.79 Y72.135 E0.47308
G1 X97.24 Y72.363 E0.60915
G1 X102.727 Y72.281 E0.74604
G1 X108.187 Y71.89 E0.88259
G1 X113.613 Y71.192 E1.01906
G1 X119.009 Y70.185 E1.15598
G1 X121.651 Y69.576 E1.22362
G1 X126.925 Y68.119 E1.3601
G1 X132.164 Y66.348 E1.49806
G1 X134.68 Y65.376 E1.56534
G1 X137.881 Y64.062 E1.65165
G1 X138.362 Y63.907 E1.66426
G1 X138.675 Y63.85 E1.6722
G1 X139.685 Y63.716 E1.69761
G1 X140.19 Y63.689 E1.71023
G1 X140.544 Y63.718 E1.71909
G1 X141.667 Y63.873 E1.74737
G1 X141.894 Y63.913 E1.75312
G1 X146.938 Y64.984 E1.88174
G1 X152.342 Y65.822 E2.01816
G1 X157.806 Y66.355 E2.15511
G1 X163.255 Y66.576 E2.29114
G1 X168.744 Y66.488 E2.42809
G1 X174.216 Y66.092 E2.56494
G1 X179.644 Y65.387 E2.70148
G1 X182.313 Y64.924 E2.76905
G1 X187.89 Y63.761 E2.91117
G1 X188.391 Y63.698 E2.92376
G1 X188.763 Y63.702 E2.93304
G1 X189.85 Y63.777 E2.96022
G1 X190.35 Y63.851 E2.97283
G1 X190.808 Y63.994 E2.9848
G1 X191.881 Y64.419 E3.01359
G1 X192.335 Y64.642 E3.02621
G1 X192.641 Y64.848 E3.03541
G1 X193.345 Y65.384 E3.05748
G1 X193.722 Y65.721 E3.07009
G1 X193.992 Y66.044 E3.08059
G1 X194.645 Y66.939 E3.10823
G1 X194.91 Y67.37 E3.12085
G1 X195.031 Y67.637 E3.12816
G1 X195.315 Y68.347 E3.14724
G1 X195.492 Y68.958 E3.16311
G1 X195.609 Y69.596 E3.17929
G1 X195.661 Y70.157 E3.19334
G1 X195.664 Y70.761 E3.20841
G1 X195.62 Y71.308 E3.2221
G1 X195.513 Y71.944 E3.23819
G1 X195.389 Y72.436 E3.25084
G1 X194.344 Y75.535 E3.33242
G1 X192.808 Y80.863 E3.47075
G1 X192.167 Y83.498 E3.53839
G1 X191.606 Y86.138 E3.60572
G1 X190.689 Y91.563 E3.74296
G1 X190.083 Y97 E3.87943
G1 X189.785 Y102.464 E4.01593
G1 X189.797 Y107.952 E4.15283
G1 X190.117 Y113.396 E4.28887
G1 X190.748 Y118.847 E4.42575
G1 X191.69 Y124.269 E4.56303
G1 X192.265 Y126.912 E4.6305
G1 X192.915 Y129.54 E4.69803
G1 X194.472 Y134.856 E4.83621
G1 X195.369 Y137.495 E4.90574
G1 X195.483 Y137.927 E4.91689
G1 X195.6 Y138.543 E4.93253
G1 X195.656 Y139.095 E4.94637
G1 X195.665 Y139.741 E4.96248
G1 X195.632 Y140.246 E4.97511
G1 X195.579 Y140.524 E4.98217
G1 X195.334 Y141.557 E5.00865
G1 X195.092 Y142.231 E5.02651
G1 X194.824 Y142.776 E5.04166
G1 X194.494 Y143.308 E5.05728
G1 X193.968 Y143.996 E5.07888
G1 X193.503 Y144.486 E5.09574
G1 X193.053 Y144.87 E5.11049
G1 X192.605 Y145.19 E5.12423
G1 X192.042 Y145.523 E5.14054
G1 X191.535 Y145.766 E5.15457
G1 X190.958 Y145.982 E5.16994
G1 X190.424 Y146.13 E5.18376
G1 X189.793 Y146.248 E5.19977
G1 X189.225 Y146.303 E5.21401
G1 X188.588 Y146.307 E5.2299
G1 X187.948 Y146.246 E5.24594
G1 X179.771 Y144.631 E5.45385
G1 X174.339 Y143.918 E5.59052
G1 X168.9 Y143.516 E5.72656
G1 X163.414 Y143.421 E5.86343
G1 X157.929 Y143.636 E6.00036
G1 X152.501 Y144.158 E6.13639
G1 X147.07 Y144.992 E6.27345
G1 X141.247 Y146.209 E6.42185
G1 X140.747 Y146.273 E6.43442
G1 X140.087 Y146.305 E6.4509
G1 X139.518 Y146.282 E6.46511
G1 X138.912 Y146.203 E6.48035
G1 X138.221 Y146.033 E6.4981
G1 X134.385 Y144.622 E6.60006
G1 X129.146 Y142.91 E6.73755
G1 X123.797 Y141.491 E6.8756
G1 X121.194 Y140.919 E6.94208
G1 X115.794 Y139.968 E7.07885
G1 X110.342 Y139.322 E7.21581
G1 X104.88 Y138.988 E7.35231
G1 X99.409 Y138.962 E7.48879
G1 X93.93 Y139.247 E7.62565
G1 X88.506 Y139.838 E7.76175
G1 X83.063 Y140.744 E7.89939
G1 X79.27 Y141.561 E7.99618
G1 X78.882 Y141.62 E8.00597
G1 X78.268 Y141.675 E8.02135
G1 X77.723 Y141.678 E8.03494
G1 X77.131 Y141.63 E8.04976
G1 X76.587 Y141.538 E8.06352
G1 X75.997 Y141.385 E8.07873
G1 X75.458 Y141.192 E8.09301
G1 X74.891 Y140.93 E8.10859
G1 X74.405 Y140.652 E8.12256
G1 X73.925 Y140.318 E8.13714
G1 X73.505 Y139.969 E8.15076
G1 X73.055 Y139.525 E8.16653
G1 X72.684 Y139.086 E8.18087
G1 X72.342 Y138.599 E8.19572
G1 X72.068 Y138.129 E8.20929
G1 X71.804 Y137.571 E8.22469
G1 X71.608 Y137.038 E8.23885
G1 X71.45 Y136.454 E8.25394
G1 X71.352 Y135.907 E8.26781
G1 X71.297 Y135.3 E8.28301
G1 X71.294 Y134.752 E8.29668
G1 X71.342 Y134.16 E8.3115
G1 X71.434 Y133.619 E8.32518
G1 X73.044 Y127.385 E8.48579
G1 X73.613 Y124.713 E8.55394
G1 X74.097 Y122.048 E8.62151
G1 X74.854 Y116.592 E8.75891
G1 X75.299 Y111.155 E8.89499
G1 X75.436 Y105.664 E9.03201
G1 X75.264 Y100.217 E9.16795
G1 X74.781 Y94.75 E9.30486
G1 X73.989 Y89.316 E9.44184
G1 X72.896 Y83.964 E9.5781
G1 X72.232 Y81.289 E9.64686
G1 X71.46 Y78.499 E9.71907
G1 X71.359 Y77.955 E9.73287
G1 X71.299 Y77.336 E9.74839
G1 X71.294 Y76.777 E9.76233
G1 X71.341 Y76.178 E9.77732
G1 X71.431 Y75.636 E9.79102
G1 X71.58 Y75.053 E9.80603
G1 X71.764 Y74.526 E9.81996
G1 X72.015 Y73.971 E9.83515
G1 X72.29 Y73.483 E9.84913
G1 X72.639 Y72.973 E9.86454
G1 X72.996 Y72.539 E9.87856
G1 X73.409 Y72.118 E9.89327
G1 F2100 E9.09327
G0 F3600 X75.204 Y73.894
G0 X76.116 Y74.799
G0 X77.467 Y75.112
G0 X77.492 Y75.208
;TYPE:WALL-INNER
G1 F2100 E9.89327
G1 F1800 X77.045 Y75.392 E9.90533
G1 X76.66 Y75.688 E9.91744
G1 X76.365 Y76.072 E9.92952
G1 X76.179 Y76.52 E9.94162
G1 X76.117 Y77 E9.9537
G1 X76.179 Y77.48 E9.96577
G1 X76.365 Y77.928 E9.97787
G1 X76.66 Y78.312 E9.98995
G1 X77.045 Y78.608 E10.00206
G1 X77.492 Y78.792 E10.01412
G1 X77.972 Y78.856 E10.0262
G1 X78.451 Y78.792 E10.03826
G1 X78.9 Y78.608 E10.05036
G1 X79.283 Y78.311 E10.06245
G1 X79.578 Y77.928 E10.07451
G1 X79.764 Y77.481 E10.08659
G1 X79.828 Y77 E10.09869
G1 X79.764 Y76.519 E10.1108
G1 X79.578 Y76.072 E10.12287
G1 X79.283 Y75.689 E10.13493
G1 X78.9 Y75.392 E10.14702
G1 X78.451 Y75.208 E10.15913
G1 X77.972 Y75.144 E10.17118
G1 X77.492 Y75.208 E10.18326
G0 F3600 X77.467 Y75.112
G0 X78.461 Y75.17
G0 X78.92 Y75.358
G0 X79.311 Y75.661
G0 X102.472 Y110.393
G0 X102.472 Y110.493
G1 F1800 X102.32 Y110.673 E10.18914
G1 X80.203 Y136.852 E11.04403
G1 X79.826 Y137.226 E11.05728
G1 X79.412 Y137.515 E11.06987
G1 X78.957 Y137.725 E11.08237
G1 X78.469 Y137.854 E11.09497
G1 X77.958 Y137.898 E11.10776
G1 X77.463 Y137.854 E11.12016
G1 X76.976 Y137.722 E11.13274
G1 X76.515 Y137.504 E11.14546
G1 X76.105 Y137.217 E11.15795
G1 X75.746 Y136.855 E11.17067
G1 X75.46 Y136.446 E11.18311
G1 X75.245 Y135.981 E11.19589
G1 X75.118 Y135.497 E11.20838
G1 X75.074 Y134.986 E11.22117
G1 X75.118 Y134.492 E11.23354
G1 X75.251 Y134.002 E11.24621
G1 X75.466 Y133.546 E11.25878
G1 X75.77 Y133.113 E11.27198
G1 X98.676 Y106 E12.15737
G1 X75.772 Y78.889 E13.0427
G1 X75.466 Y78.455 E13.05594
G1 X75.252 Y77.999 E13.06851
G1 X75.119 Y77.509 E13.08117
G1 X75.074 Y77.013 E13.0936
G1 X75.117 Y76.504 E13.10634
G1 X75.244 Y76.02 E13.11882
G1 X75.459 Y75.555 E13.1316
G1 X75.745 Y75.146 E13.14405
G1 X76.104 Y74.784 E13.15677
G1 X76.514 Y74.497 E13.16925
G1 X76.975 Y74.279 E13.18197
G1 X77.462 Y74.147 E13.19456
G1 X77.958 Y74.102 E13.20698
G1 X78.467 Y74.145 E13.21973
G1 X78.956 Y74.274 E13.23234
G1 X79.411 Y74.484 E13.24484
G1 X79.825 Y74.773 E13.25744
G1 X80.203 Y75.148 E13.27072
G1 X102.32 Y101.327 E14.12561
G1 X102.472 Y101.507 E14.13149
G1 X102.624 Y101.327 E14.13511
G1 X124.74 Y75.148 E14.98999
G1 X125.118 Y74.773 E15.00327
G1 X125.531 Y74.485 E15.01583
G1 X125.986 Y74.275 E15.02833
G1 X126.474 Y74.146 E15.04093
G1 X126.985 Y74.102 E15.05372
G1 X127.48 Y74.146 E15.06612
G1 X127.967 Y74.278 E15.0787
G1 X128.428 Y74.496 E15.09142
G1 X128.838 Y74.783 E15.10391
G1 X129.197 Y75.145 E15.11663
G1 X129.483 Y75.554 E15.12908
G1 X129.698 Y76.019 E15.14185
G1 X129.826 Y76.509 E15.15449
G1 X129.87 Y77.008 E15.16698
G1 X129.825 Y77.508 E15.17951
G1 X129.692 Y77.998 E15.19217
G1 X129.477 Y78.454 E15.20475
G1 X129.173 Y78.887 E15.21795
G1 X106.267 Y106 E16.10334
G1 X129.168 Y133.107 E16.98854
G1 X129.477 Y133.545 E17.00191
G1 X129.691 Y134.001 E17.01447
G1 X129.824 Y134.491 E17.02714
G1 X129.869 Y134.986 E17.03954
G1 X129.826 Y135.496 E17.0523
G1 X129.699 Y135.98 E17.06479
G1 X129.484 Y136.445 E17.07757
G1 X129.198 Y136.854 E17.09002
G1 X128.839 Y137.216 E17.10273
G1 X128.429 Y137.503 E17.11522
G1 X127.968 Y137.721 E17.12794
G1 X127.481 Y137.853 E17.14052
G1 X126.985 Y137.898 E17.15295
G1 X126.476 Y137.855 E17.16569
G1 X125.987 Y137.726 E17.17831
G1 X125.532 Y137.516 E17.19081
G1 X125.118 Y137.227 E17.2034
G1 X124.74 Y136.852 E17.21668
G1 X102.624 Y110.673 E18.07156
G1 X102.472 Y110.493 E18.07519
G0 F3600 X102.472 Y110.393
G0 X126.467 Y133.112
G0 X126.492 Y133.208
G1 F1800 X126.045 Y133.392 E18.08725
G1 X125.66 Y133.688 E18.09936
G1 X125.365 Y134.072 E18.11144
G1 X125.179 Y134.52 E18.12354
G1 X125.117 Y135 E18.13561
G1 X125.179 Y135.48 E18.14769
G1 X125.365 Y135.928 E18.15979
G1 X125.66 Y136.312 E18.17186
G1 X126.045 Y136.608 E18.18398
G1 X126.492 Y136.792 E18.19604
G1 X126.972 Y136.856 E18.20812
G1 X127.451 Y136.792 E18.22017
G1 X127.9 Y136.608 E18.23228
G1 X128.283 Y136.311 E18.24437
G1 X128.578 Y135.928 E18.25643
G1 X128.764 Y135.481 E18.2685
G1 X128.828 Y135 E18.28061
G1 X128.764 Y134.519 E18.29271
G1 X128.578 Y134.072 E18.30479
G1 X128.283 Y133.689 E18.31685
G1 X127.9 Y133.392 E18.32894
G1 X127.451 Y133.208 E18.34104
G1 X126.972 Y133.144 E18.3531
G1 X126.492 Y133.208 E18.36518
G0 F3600 X126.467 Y133.112
G0 X102.472 Y110.453
G0 X77.467 Y133.112
G0 X77.492 Y133.208
G1 F1800 X77.045 Y133.392 E18.37724
G1 X76.66 Y133.688 E18.38935
G1 X76.365 Y134.072 E18.40143
G1 X76.179 Y134.52 E18.41353
G1 X76.117 Y135 E18.4256
G1 X76.179 Y135.48 E18.43768
G1 X76.365 Y135.928 E18.44978
G1 X76.66 Y136.312 E18.46185
G1 X77.045 Y136.608 E18.47397
G1 X77.492 Y136.792 E18.48603
G1 X77.972 Y136.856 E18.49811
G1 X78.451 Y136.792 E18.51016
G1 X78.9 Y136.608 E18.52227
G1 X79.283 Y136.311 E18.53436
G1 X79.578 Y135.928 E18.54642
G1 X79.764 Y135.481 E18.55849
G1 X79.828 Y135 E18.5706
G1 X79.764 Y134.519 E18.5827
G1 X79.578 Y134.072 E18.59478
G1 X79.283 Y133.689 E18.60684
G1 X78.9 Y133.392 E18.61893
G1 X78.451 Y133.208 E18.63103
G1 X77.972 Y133.144 E18.64309
G1 X77.492 Y133.208 E18.65517
G0 F3600 X77.467 Y133.112
G0 X125.632 Y75.66
G0 X126.467 Y75.112
G0 X126.492 Y75.208
G1 F1800 X126.045 Y75.392 E18.66722
G1 X125.66 Y75.688 E18.67934
G1 X125.365 Y76.072 E18.69142
G1 X125.179 Y76.52 E18.70352
G1 X125.117 Y77 E18.71559
G1 X125.179 Y77.48 E18.72766
G1 X125.365 Y77.928 E18.73977
G1 X125.66 Y78.312 E18.75184
G1 X126.045 Y78.608 E18.76396
G1 X126.492 Y78.792 E18.77602
G1 X126.972 Y78.856 E18.7881
G1 X127.451 Y78.792 E18.80015
G1 X127.9 Y78.608 E18.81226
G1 X128.283 Y78.311 E18.82435
G1 X128.578 Y77.928 E18.83641
G1 X128.764 Y77.481 E18.84848
G1 X128.828 Y77 E18.86059
G1 X128.764 Y76.519 E18.87269
G1 X128.578 Y76.072 E18.88477
G1 X128.283 Y75.689 E18.89683
G1 X127.9 Y75.392 E18.90892
G1 X127.451 Y75.208 E18.92102
G1 X126.972 Y75.144 E18.93308
G1 X126.492 Y75.208 E18.94516
G0 F3600 X126.596 Y75.598
;TYPE:WALL-OUTER
G1 F1800 X126.246 Y75.742 E18.9546
G1 X125.945 Y75.973 E18.96406
G1 X125.714 Y76.274 E18.97353
G1 X125.569 Y76.624 E18.98298
G1 X125.52 Y77 E18.99244
G1 X125.569 Y77.376 E19.00189
G1 X125.714 Y77.726 E19.01134
G1 X125.945 Y78.027 E19.02081
G1 X126.246 Y78.258 E19.03027
G1 X126.596 Y78.402 E19.03972
G1 X126.972 Y78.452 E19.04918
G1 X127.347 Y78.402 E19.05861
G1 X127.698 Y78.258 E19.06808
G1 X127.998 Y78.026 E19.07754
G1 X128.229 Y77.726 E19.08698
G1 X128.374 Y77.376 E19.09643
G1 X128.424 Y77 E19.1059
G1 X128.374 Y76.624 E19.11536
G1 X128.229 Y76.274 E19.12481
G1 X127.998 Y75.974 E19.13425
G1 X127.698 Y75.742 E19.14371
G1 X127.347 Y75.598 E19.15318
G1 X126.972 Y75.548 E19.16261
G1 X126.596 Y75.598 E19.17208
G0 F3600 X126.411 Y75.674
G0 X126.221 Y75.212
G0 X125.632 Y75.66
G0 X102.091 Y110.79
G0 X102.472 Y111.113
G1 F1800 X102.32 Y111.293 E19.17795
G1 X80.498 Y137.123 E20.02145
G1 X80.084 Y137.534 E20.036
G1 X79.612 Y137.863 E20.05035
G1 X79.092 Y138.103 E20.06464
G1 X78.536 Y138.25 E20.07898
G1 X77.963 Y138.299 E20.09333
G1 X77.39 Y138.249 E20.10768
G1 X76.835 Y138.098 E20.12203
G1 X76.316 Y137.853 E20.13634
G1 X75.844 Y137.522 E20.15072
G1 X75.438 Y137.113 E20.1651
G1 X75.112 Y136.646 E20.17931
G1 X74.867 Y136.116 E20.19387
G1 X74.722 Y135.564 E20.20811
G1 X74.673 Y134.991 E20.22245
G1 X74.723 Y134.419 E20.23678
G1 X74.874 Y133.864 E20.25112
G1 X75.118 Y133.345 E20.26543
G1 X75.456 Y132.864 E20.28009
G1 X98.152 Y106 E21.15736
G1 X75.458 Y79.138 E22.03456
G1 X75.119 Y78.656 E22.04926
G1 X74.875 Y78.137 E22.06356
G1 X74.724 Y77.582 E22.07791
G1 X74.673 Y77.01 E22.09224
G1 X74.721 Y76.437 E22.10658
G1 X74.866 Y75.885 E22.12082
G1 X75.111 Y75.355 E22.13538
G1 X75.437 Y74.888 E22.14959
G1 X75.843 Y74.479 E22.16397
G1 X76.315 Y74.148 E22.17835
G1 X76.834 Y73.903 E22.19266
G1 X77.389 Y73.752 E22.20701
G1 X77.962 Y73.701 E22.22136
G1 X78.535 Y73.749 E22.2357
G1 X79.091 Y73.896 E22.25005
G1 X79.611 Y74.136 E22.26434
G1 X80.083 Y74.465 E22.27869
G1 X80.498 Y74.877 E22.29328
G1 X102.32 Y100.707 E23.13677
G1 X102.472 Y100.887 E23.14265
G1 X102.624 Y100.707 E23.14627
G1 X124.445 Y74.877 E23.98975
G1 X124.86 Y74.465 E24.00434
G1 X125.331 Y74.137 E24.01866
G1 X125.851 Y73.897 E24.03294
G1 X126.407 Y73.75 E24.04729
G1 X126.98 Y73.701 E24.06164
G1 X127.553 Y73.751 E24.07598
G1 X128.108 Y73.902 E24.09033
G1 X128.627 Y74.147 E24.10465
G1 X129.099 Y74.478 E24.11903
G1 X129.505 Y74.887 E24.1334
G1 X129.831 Y75.354 E24.14761
G1 X130.076 Y75.884 E24.16218
G1 X130.221 Y76.436 E24.17641
G1 X130.271 Y77.009 E24.19076
G1 X130.22 Y77.581 E24.20509
G1 X130.069 Y78.136 E24.21943
G1 X129.825 Y78.655 E24.23374
G1 X129.487 Y79.136 E24.2484
G1 X106.791 Y106 E25.12567
G1 X129.482 Y132.858 E26.00274
G1 X129.824 Y133.344 E26.01757
G1 X130.068 Y133.863 E26.03187
G1 X130.219 Y134.418 E26.04622
G1 X130.271 Y134.99 E26.06055
G1 X130.222 Y135.563 E26.0749
G1 X130.077 Y136.115 E26.08913
G1 X129.832 Y136.645 E26.1037
G1 X129.506 Y137.112 E26.1179
G1 X129.1 Y137.521 E26.13228
G1 X128.628 Y137.852 E26.14666
G1 X128.109 Y138.097 E26.16098
G1 X127.554 Y138.248 E26.17533
G1 X126.981 Y138.299 E26.18968
G1 X126.408 Y138.251 E26.20402
G1 X125.852 Y138.104 E26.21837
G1 X125.332 Y137.864 E26.23265
G1 X124.86 Y137.535 E26.247
G1 X124.445 Y137.123 E26.26159
G1 X102.624 Y111.293 E27.10507
G1 X102.472 Y111.113 E27.1087
G0 F3600 X102.343 Y111.266
G0 X101.962 Y110.943
G0 X102.472 Y110.453
G0 X126.531 Y133.102
G0 X126.596 Y133.598
G1 F1800 X126.246 Y133.742 E27.11814
G1 X125.945 Y133.973 E27.1276
G1 X125.714 Y134.274 E27.13707
G1 X125.569 Y134.624 E27.14652
G1 X125.52 Y135 E27.15597
G1 X125.569 Y135.376 E27.16543
G1 X125.714 Y135.726 E27.17488
G1 X125.945 Y136.027 E27.18435
G1 X126.246 Y136.258 E27.19381
G1 X126.596 Y136.402 E27.20325
G1 X126.972 Y136.452 E27.21272
G1 X127.347 Y136.402 E27.22215
G1 X127.698 Y136.258 E27.23162
G1 X127.998 Y136.026 E27.24108
G1 X128.229 Y135.726 E27.25052
G1 X128.374 Y135.376 E27.25997
G1 X128.424 Y135 E27.26943
G1 X128.374 Y134.624 E27.2789
G1 X128.229 Y134.274 E27.28835
G1 X127.998 Y133.974 E27.29779
G1 X127.698 Y133.742 E27.30725
G1 X127.347 Y133.598 E27.31672
G1 X126.972 Y133.548 E27.32615
G1 X126.596 Y133.598 E27.33562
G0 F3600 X126.411 Y133.674
G0 X126.221 Y133.212
G0 X102.472 Y110.453
G0 X77.531 Y133.102
G0 X77.596 Y133.598
G1 F1800 X77.246 Y133.742 E27.34506
G1 X76.945 Y133.973 E27.35452
G1 X76.714 Y134.274 E27.36399
G1 X76.569 Y134.624 E27.37344
G1 X76.52 Y135 E27.38289
G1 X76.569 Y135.376 E27.39235
G1 X76.714 Y135.726 E27.4018
G1 X76.945 Y136.027 E27.41127
G1 X77.246 Y136.258 E27.42073
G1 X77.596 Y136.402 E27.43017
