;FLAVOR:Repetier
;TIME:443
;Generated with Cura_SteamEngine 3.1.0
M82 ; absolute extrusion mode
G21 ; set units to millimeters
G90 ; use absolute positioning
M82 ; absolute extrusion mode
M104 S210 ; set extruder temp
M140 S60.0 ; set bed temp
M190 S60.0 ; wait for bed temp
M109 S210 ; wait for extruder temp
G28 W ; home all without mesh bed level
G80 ; mesh bed leveling
G92 E0.0 ; reset extruder distance position
G1 Y-3.0 F1000.0 ; go outside print area
G1 X60.0 E9.0 F1000.0 ; intro line
G1 X100.0 E21.5 F1000.0 ; intro line
G92 E0.0 ; reset extruder distance position
;LAYER_COUNT:34
;LAYER:0
M107
G0 F3600 X111.968 Y92.41 Z0.15
;TYPE:SKIRT
G1 F1800 X112.365 Y92.007 E0.01411
G1 X112.815 Y91.665 E0.02821
G1 X113.308 Y91.389 E0.0423
G1 X113.836 Y91.185 E0.05642
G1 X114.386 Y91.058 E0.07051
G1 X115.009 Y91.009 E0.08609
G1 X134.991 Y91.01 E0.58455
G1 X135.555 Y91.05 E0.59865
G1 X136.108 Y91.169 E0.61276
G1 X136.638 Y91.365 E0.62686
G1 X137.136 Y91.633 E0.64097
G1 X137.59 Y91.97 E0.65507
G1 X137.993 Y92.366 E0.66916
G1 X138.336 Y92.816 E0.68328
G1 X138.611 Y93.309 E0.69736
G1 X138.815 Y93.837 E0.71148
G1 X138.942 Y94.388 E0.72558
G1 X138.991 Y95.01 E0.74115
G1 X138.991 Y114.991 E1.23958
G1 X138.951 Y115.555 E1.25368
G1 X138.832 Y116.108 E1.26779
G1 X138.636 Y116.638 E1.28189
G1 X138.368 Y117.135 E1.29597
G1 X138.032 Y117.59 E1.31008
G1 X137.635 Y117.993 E1.32419
G1 X137.185 Y118.335 E1.33829
G1 X136.692 Y118.611 E1.35239
G1 X136.164 Y118.815 E1.36651
G1 X135.614 Y118.942 E1.38059
G1 X134.991 Y118.991 E1.39618
G1 X115.009 Y118.991 E1.89463
G1 X114.445 Y118.951 E1.90873
G1 X113.892 Y118.832 E1.92284
G1 X113.362 Y118.636 E1.93694
G1 X112.865 Y118.368 E1.95103
G1 X112.41 Y118.032 E1.96513
G1 X112.007 Y117.635 E1.97925
G1 X111.665 Y117.185 E1.99335
G1 X111.389 Y116.692 E2.00744
G1 X111.185 Y116.164 E2.02156
G1 X111.058 Y115.614 E2.03564
G1 X111.009 Y114.991 E2.05123
G1 X111.009 Y95.009 E2.54968
G1 X111.049 Y94.445 E2.56379
G1 X111.168 Y93.892 E2.5779
G1 X111.364 Y93.362 E2.59199
G1 X111.632 Y92.865 E2.60608
G1 X111.968 Y92.41 E2.62019
G0 F3600 X112.364 Y92.567
G1 F1800 X112.756 Y92.201 E2.63357
G1 X113.198 Y91.898 E2.64693
G1 X113.681 Y91.663 E2.66033
G1 X114.192 Y91.503 E2.67369
G1 X114.722 Y91.42 E2.68707
G1 X115.009 Y91.409 E2.69424
G1 X134.991 Y91.41 E3.19269
G1 X135.526 Y91.45 E3.20607
G1 X136.049 Y91.569 E3.21945
G1 X136.548 Y91.764 E3.23282
G1 X137.013 Y92.032 E3.2462
G1 X137.433 Y92.365 E3.25957
G1 X137.799 Y92.757 E3.27295
G1 X138.103 Y93.199 E3.28633
G1 X138.337 Y93.682 E3.29972
G1 X138.497 Y94.194 E3.3131
G1 X138.58 Y94.723 E3.32646
G1 X138.591 Y95.01 E3.33363
G1 X138.591 Y114.991 E3.83205
G1 X138.551 Y115.526 E3.84544
G1 X138.432 Y116.049 E3.85882
G1 X138.237 Y116.548 E3.87218
G1 X137.969 Y117.013 E3.88557
G1 X137.636 Y117.433 E3.89894
G1 X137.244 Y117.799 E3.91232
G1 X136.802 Y118.102 E3.92568
G1 X136.319 Y118.337 E3.93908
G1 X135.808 Y118.497 E3.95244
G1 X135.278 Y118.58 E3.96582
G1 X134.991 Y118.591 E3.97299
G1 X115.009 Y118.591 E4.47144
G1 X114.474 Y118.551 E4.48482
G1 X113.951 Y118.432 E4.4982
G1 X113.452 Y118.237 E4.51157
G1 X112.987 Y117.969 E4.52496
G1 X112.567 Y117.636 E4.53833
G1 X112.201 Y117.244 E4.5517
G1 X111.898 Y116.802 E4.56507
G1 X111.663 Y116.319 E4.57847
G1 X111.503 Y115.808 E4.59183
G1 X111.42 Y115.278 E4.60521
G1 X111.409 Y114.991 E4.61237
G1 X111.409 Y95.009 E5.11083
G1 X111.449 Y94.474 E5.12421
G1 X111.568 Y93.951 E5.13759
G1 X111.763 Y93.452 E5.15095
G1 X112.031 Y92.987 E5.16434
G1 X112.364 Y92.567 E5.17771
G0 F3600 X112.428 Y93.117
G1 F1800 X112.758 Y92.734 E5.19032
G1 X113.145 Y92.408 E5.20295
G1 X113.578 Y92.147 E5.21556
G1 X114.046 Y91.957 E5.22816
G1 X114.539 Y91.844 E5.24077
G1 X115.009 Y91.809 E5.25253
G1 X134.991 Y91.81 E5.75098
G1 X135.495 Y91.85 E5.7636
G1 X135.987 Y91.969 E5.77622
G1 X136.453 Y92.164 E5.78882
G1 X136.883 Y92.429 E5.80142
G1 X137.266 Y92.76 E5.81405
G1 X137.592 Y93.146 E5.82665
G1 X137.853 Y93.579 E5.83927
G1 X138.043 Y94.048 E5.85189
G1 X138.156 Y94.54 E5.86448
G1 X138.191 Y95.01 E5.87624
G1 X138.191 Y114.991 E6.37467
G1 X138.151 Y115.495 E6.38728
G1 X138.032 Y115.986 E6.39988
G1 X137.838 Y116.453 E6.4125
G1 X137.572 Y116.883 E6.42511
G1 X137.242 Y117.266 E6.43772
G1 X136.855 Y117.592 E6.45034
G1 X136.422 Y117.853 E6.46295
G1 X135.954 Y118.043 E6.47555
G1 X135.461 Y118.156 E6.48817
G1 X134.991 Y118.191 E6.49993
G1 X115.009 Y118.191 E6.99838
G1 X114.505 Y118.151 E7.01099
G1 X114.014 Y118.032 E7.02359
G1 X113.547 Y117.838 E7.03621
G1 X113.117 Y117.572 E7.04882
G1 X112.734 Y117.242 E7.06143
G1 X112.408 Y116.855 E7.07406
G1 X112.147 Y116.422 E7.08667
G1 X111.957 Y115.954 E7.09927
G1 X111.844 Y115.461 E7.11188
G1 X111.809 Y114.991 E7.12364
G1 X111.809 Y95.009 E7.62209
G1 X111.849 Y94.505 E7.63471
G1 X111.968 Y94.014 E7.64731
G1 X112.162 Y93.547 E7.65992
G1 X112.428 Y93.117 E7.67254
G1 F2100 E6.87254
G0 F3600 X114.335 Y95.614
G0 X115.614 Y95.614
G0 X134.33 Y114.33
G0 X134.4 Y114.4
;TYPE:WALL-INNER
G1 F2100 E7.67254
G1 F1800 X115.6 Y114.4 E8.1415
G1 X115.6 Y95.6 E8.61047
G1 X134.4 Y95.6 E9.07944
G1 X134.4 Y114.4 E9.54841
G0 F3600 X134.8 Y114.8
;TYPE:WALL-OUTER
G1 F1800 X115.2 Y114.8 E10.03733
G1 X115.2 Y95.2 E10.52625
G1 X134.8 Y95.2 E11.01518
G1 X134.8 Y114.8 E11.5041
G0 F3600 X134.6 Y114.8
G0 X134.33 Y114.33
G0 X134.01 Y114.01
;TYPE:SKIN
G1 F1800 X115.99 Y114.01 E11.95361
G1 X115.99 Y95.99 E12.40312
G1 X134.01 Y95.99 E12.85263
G1 X134.01 Y114.01 E13.30215
G0 F3600 X133.829 Y96.494
G1 F1800 X133.505 Y96.17 E13.31358
G0 F3600 X132.939 Y96.17
G1 F1800 X133.829 Y97.06 E13.34497
G1 X133.899 Y97.13
G0 F3600 X133.829 Y97.625
G1 F1800 X132.373 Y96.17 E13.39632
G1 X132.303 Y96.1
G0 F3600 X131.808 Y96.17
G1 F1800 X133.829 Y98.191 E13.46762
G1 X133.899 Y98.261
G0 F3600 X133.829 Y98.757
G1 F1800 X131.242 Y96.17 E13.55888
G1 X131.172 Y96.1
G0 F3600 X130.676 Y96.17
G1 F1800 X133.829 Y99.323 E13.67011
G1 X133.899 Y99.393
G0 F3600 X133.829 Y99.888
G1 F1800 X130.111 Y96.17 E13.80127
G1 X130.041 Y96.1
G0 F3600 X129.545 Y96.17
G1 F1800 X133.829 Y100.454 E13.9524
G1 X133.899 Y100.524
G0 F3600 X133.829 Y101.02
G1 F1800 X128.979 Y96.17 E14.1235
G1 X128.909 Y96.1
G0 F3600 X128.414 Y96.17
G1 F1800 X133.829 Y101.585 E14.31453
G1 X133.899 Y101.655
G0 F3600 X133.829 Y102.151
G1 F1800 X127.848 Y96.17 E14.52552
G1 X127.778 Y96.1
G0 F3600 X127.282 Y96.17
G1 F1800 X133.829 Y102.717 E14.75649
G1 X133.899 Y102.787
G0 F3600 X133.829 Y103.282
G1 F1800 X126.717 Y96.17 E15.00738
G1 X126.647 Y96.1
G0 F3600 X126.151 Y96.17
G1 F1800 X133.829 Y103.848 E15.27824
G1 X133.899 Y103.918
G0 F3600 X133.829 Y104.414
G1 F1800 X125.585 Y96.17 E15.56907
G1 X125.515 Y96.1
G0 F3600 X125.02 Y96.17
G1 F1800 X133.829 Y104.979 E15.87983
G1 X133.899 Y105.049
G0 F3600 X133.829 Y105.545
G1 F1800 X124.454 Y96.17 E16.21056
G1 X124.384 Y96.1
G0 F3600 X123.888 Y96.17
G1 F1800 X133.829 Y106.111 E16.56126
G1 X133.899 Y106.181
G0 F3600 X133.829 Y106.676
G1 F1800 X123.322 Y96.17 E16.9319
G1 X123.252 Y96.1
G0 F3600 X122.757 Y96.17
G1 F1800 X133.829 Y107.242 E17.3225
G1 X133.899 Y107.312
G0 F3600 X133.829 Y107.808
G1 F1800 X122.191 Y96.17 E17.73306
G1 X122.121 Y96.1
G0 F3600 X121.625 Y96.17
G1 F1800 X133.829 Y108.374 E18.16359
G1 X133.899 Y108.444
G0 F3600 X133.829 Y108.939
G1 F1800 X121.06 Y96.17 E18.61405
G1 X120.99 Y96.1
G0 F3600 X120.494 Y96.17
G1 F1800 X133.829 Y109.505 E19.08448
G1 X133.899 Y109.575
G0 F3600 X133.829 Y110.071
G1 F1800 X119.928 Y96.17 E19.57487
G1 X119.858 Y96.1
G0 F3600 X119.363 Y96.17
G1 F1800 X133.829 Y110.636 E20.0852
G1 X133.899 Y110.706
G0 F3600 X133.829 Y111.202
G1 F1800 X118.797 Y96.17 E20.6155
G1 X118.727 Y96.1
G0 F3600 X118.231 Y96.17
G1 F1800 X133.829 Y111.768 E21.16576
G1 X133.899 Y111.838
G0 F3600 X133.829 Y112.333
G1 F1800 X117.666 Y96.17 E21.73595
G1 X117.596 Y96.1
G0 F3600 X117.1 Y96.17
G1 F1800 X133.829 Y112.899 E22.32611
G1 X133.899 Y112.969
G0 F3600 X133.829 Y113.465
G1 F1800 X116.534 Y96.17 E22.93624
G1 X116.464 Y96.1
G0 F3600 X116.169 Y96.37
G1 F1800 X133.629 Y113.83 E23.55219
G1 X133.699 Y113.9
G0 F3600 X133.063 Y113.83
G1 F1800 X116.169 Y96.935 E24.14819
G1 X116.099 Y96.865
G0 F3600 X116.169 Y97.501
G1 F1800 X132.497 Y113.83 E24.72422
G1 X132.567 Y113.9
G0 F3600 X131.931 Y113.83
G1 F1800 X116.169 Y98.067 E25.28028
G1 X116.099 Y97.997
G0 F3600 X116.169 Y98.632
G1 F1800 X131.366 Y113.83 E25.81642
G1 X131.436 Y113.9
G0 F3600 X130.8 Y113.83
G1 F1800 X116.169 Y99.198 E26.33258
G1 X116.099 Y99.128
G0 F3600 X116.169 Y99.764
G1 F1800 X130.234 Y113.83 E26.82878
G1 X130.304 Y113.9
G0 F3600 X129.669 Y113.83
G1 F1800 X116.169 Y100.329 E27.30505
G1 X116.099 Y100.259
G0 F3600 X116.169 Y100.895
G1 F1800 X129.103 Y113.83 E27.76135
G1 X129.173 Y113.9
G0 F3600 X128.537 Y113.83
G1 F1800 X116.169 Y101.461 E28.19768
G1 X116.099 Y101.391
G0 F3600 X116.169 Y102.027
G1 F1800 X127.972 Y113.83 E28.61406
G1 X128.042 Y113.9
G0 F3600 X127.406 Y113.83
G1 F1800 X116.169 Y102.592 E29.01049
G1 X116.099 Y102.522
G0 F3600 X116.169 Y103.158
G1 F1800 X126.84 Y113.83 E29.38696
G1 X126.91 Y113.9
G0 F3600 X126.275 Y113.83
G1 F1800 X116.169 Y103.724 E29.74348
G1 X116.099 Y103.654
G0 F3600 X116.169 Y104.289
G1 F1800 X125.709 Y113.83 E30.08004
G1 X125.779 Y113.9
G0 F3600 X125.143 Y113.83
G1 F1800 X116.169 Y104.855 E30.39664
G1 X116.099 Y104.785
G0 F3600 X116.169 Y105.421
G1 F1800 X124.578 Y113.83 E30.69329
G1 X124.648 Y113.9
G0 F3600 X124.012 Y113.83
G1 F1800 X116.169 Y105.986 E30.96999
G1 X116.099 Y105.916
G0 F3600 X116.169 Y106.552
G1 F1800 X123.446 Y113.83 E31.22673
G1 X123.516 Y113.9
G0 F3600 X122.881 Y113.83
G1 F1800 X116.169 Y107.118 E31.46351
G1 X116.099 Y107.048
G0 F3600 X116.169 Y107.683
G1 F1800 X122.315 Y113.83 E31.68035
G1 X122.385 Y113.9
G0 F3600 X121.749 Y113.83
G1 F1800 X116.169 Y108.249 E31.87721
G1 X116.099 Y108.179
G0 F3600 X116.169 Y108.815
G1 F1800 X121.183 Y113.83 E32.05411
G1 X121.253 Y113.9
G0 F3600 X120.618 Y113.83
G1 F1800 X116.169 Y109.38 E32.21108
G1 X116.099 Y109.31
G0 F3600 X116.169 Y109.946
G1 F1800 X120.052 Y113.83 E32.34808
G1 X120.122 Y113.9
G0 F3600 X119.486 Y113.83
G1 F1800 X116.169 Y110.512 E32.46512
G1 X116.099 Y110.442
G0 F3600 X116.169 Y111.077
G1 F1800 X118.921 Y113.83 E32.56222
G1 X118.991 Y113.9
G0 F3600 X118.355 Y113.83
G1 F1800 X116.169 Y111.643 E32.63935
G1 X116.099 Y111.573
G0 F3600 X116.169 Y112.209
G1 F1800 X117.789 Y113.83 E32.69652
G1 X117.859 Y113.9
G0 F3600 X117.224 Y113.83
G1 F1800 X116.169 Y112.775 E32.73374
G1 X116.099 Y112.705
G0 F3600 X116.169 Y113.34
M104 S210
G1 F1800 X116.658 Y113.83 E32.75101
G0 F3600 X134.33 Y114.33
G0 X134.4 Y114.4
;TIME_ELAPSED:51.497808
;LAYER:1
M140 S60
M106 S255
G0 F5400 X134.4 Y114.4 Z0.75
;TYPE:WALL-INNER
G1 F2700 X115.6 Y114.4 E34.62688
G1 X115.6 Y95.6 E36.50275
G1 X134.4 Y95.6 E38.37862
G1 X134.4 Y114.4 E40.25449
G0 F5400 X134.8 Y114.8
;TYPE:WALL-OUTER
G1 F1800 X115.2 Y114.8 E42.21019
G1 X115.2 Y95.2 E44.16588
G1 X134.8 Y95.2 E46.12158
G1 X134.8 Y114.8 E48.07728
G0 F5400 X134.6 Y114.8
G0 X134.33 Y114.33
G0 X134.01 Y114.01
;TYPE:SKIN
G1 F1800 X115.99 Y114.01 E49.87532
G1 X115.99 Y95.99 E51.67336
G1 X134.01 Y95.99 E53.47141
G1 X134.01 Y114.01 E55.26945
G0 F5400 X133.829 Y113.375
G1 F1800 X133.374 Y113.83 E55.33365
G0 F5400 X132.808 Y113.83
G1 F1800 X133.829 Y112.809 E55.47773
G1 X133.899 Y112.739
G0 F5400 X133.829 Y112.244
G1 F1800 X132.243 Y113.83 E55.70153
G1 X132.173 Y113.9
G0 F5400 X131.677 Y113.83
G1 F1800 X133.829 Y111.678 E56.0052
G1 X133.899 Y111.608
G0 F5400 X133.829 Y111.112
G1 F1800 X131.111 Y113.83 E56.38874
G1 X131.041 Y113.9
G0 F5400 X130.546 Y113.83
G1 F1800 X133.829 Y110.546 E56.85208
G1 X133.899 Y110.476
G0 F5400 X133.829 Y109.981
G1 F1800 X129.98 Y113.83 E57.39521
G1 X129.91 Y113.9
G0 F5400 X129.414 Y113.83
G1 F1800 X133.829 Y109.415 E58.01822
G1 X133.899 Y109.345
G0 F5400 X133.829 Y108.849
G1 F1800 X128.848 Y113.83 E58.72109
G1 X128.778 Y113.9
G0 F5400 X128.283 Y113.83
G1 F1800 X133.829 Y108.284 E59.50369
G1 X133.899 Y108.214
G0 F5400 X133.829 Y107.718
G1 F1800 X127.717 Y113.83 E60.36616
G1 X127.647 Y113.9
G0 F5400 X127.151 Y113.83
G1 F1800 X133.829 Y107.152 E61.3085
G1 X133.899 Y107.082
G0 F5400 X133.829 Y106.587
G1 F1800 X126.586 Y113.83 E62.33056
G1 X126.516 Y113.9
G0 F5400 X126.02 Y113.83
G1 F1800 X133.829 Y106.021 E63.4325
G1 X133.899 Y105.951
G0 F5400 X133.829 Y105.455
G1 F1800 X125.454 Y113.83 E64.6143
G1 X125.384 Y113.9
G0 F5400 X124.889 Y113.83
G1 F1800 X133.829 Y104.89 E65.87583
G1 X133.899 Y104.82
G0 F5400 X133.829 Y104.324
G1 F1800 X124.323 Y113.83 E67.21723
G1 X124.253 Y113.9
G0 F5400 X123.757 Y113.83
G1 F1800 X133.829 Y103.758 E68.6385
G1 X133.899 Y103.688
G0 F5400 X133.829 Y103.193
G1 F1800 X123.192 Y113.83 E70.13949
G1 X123.122 Y113.9
G0 F5400 X122.626 Y113.83
G1 F1800 X133.829 Y102.627 E71.72036
G1 X133.899 Y102.557
G0 F5400 X133.829 Y102.061
G1 F1800 X122.06 Y113.83 E73.38109
G1 X121.99 Y113.9
G0 F5400 X121.495 Y113.83
G1 F1800 X133.829 Y101.495 E75.12162
G1 X133.899 Y101.425
G0 F5400 X133.829 Y100.93
G1 F1800 X120.929 Y113.83 E76.94195
G1 X120.859 Y113.9
G0 F5400 X120.363 Y113.83
G1 F1800 X133.829 Y100.364 E78.84215
G1 X133.899 Y100.294
G0 F5400 X133.829 Y99.798
G1 F1800 X119.798 Y113.83 E80.82215
G1 X119.728 Y113.9
G0 F5400 X119.232 Y113.83
G1 F1800 X133.829 Y99.233 E82.88194
G1 X133.899 Y99.163
G0 F5400 X133.829 Y98.667
G1 F1800 X118.666 Y113.83 E85.0216
G1 X118.596 Y113.9
G0 F5400 X118.1 Y113.83
G1 F1800 X133.829 Y98.101 E87.24113
G1 X133.899 Y98.031
G0 F5400 X133.829 Y97.536
G1 F1800 X117.535 Y113.83 E89.54039
G1 X117.465 Y113.9
G0 F5400 X116.969 Y113.83
G1 F1800 X133.829 Y96.97 E91.91952
G1 X133.899 Y96.9
G0 F5400 X133.829 Y96.404
G1 F1800 X116.403 Y113.83 E94.37852
G1 X116.333 Y113.9
G0 F5400 X116.169 Y113.498
G1 F1800 X133.498 Y96.17 E96.82376
G1 X133.568 Y96.1
G0 F5400 X132.932 Y96.17
G1 F1800 X116.169 Y112.932 E99.18913
G1 X116.099 Y113.002
G0 F5400 X116.169 Y112.367
G1 F1800 X132.366 Y96.17 E101.4747
G1 X132.436 Y96.1
G0 F5400 X131.801 Y96.17
G1 F1800 X116.169 Y111.801 E103.68047
G1 X116.099 Y111.871
G0 F5400 X116.169 Y111.235
G1 F1800 X131.235 Y96.17 E105.80638
G1 X131.305 Y96.1
G0 F5400 X130.669 Y96.17
G1 F1800 X116.169 Y110.669 E107.85241
G1 X116.099 Y110.739
G0 F5400 X116.169 Y110.104
G1 F1800 X130.104 Y96.17 E109.81872
G1 X130.174 Y96.1
G0 F5400 X129.538 Y96.17
G1 F1800 X116.169 Y109.538 E111.70516
G1 X116.099 Y109.608
G0 F5400 X116.169 Y108.972
G1 F1800 X128.972 Y96.17 E113.51173
G1 X129.042 Y96.1
G0 F5400 X128.407 Y96.17
G1 F1800 X116.169 Y108.407 E115.23858
G1 X116.099 Y108.477
G0 F5400 X116.169 Y107.841
G1 F1800 X127.841 Y96.17 E116.88555
G1 X127.911 Y96.1
G0 F5400 X127.275 Y96.17
G1 F1800 X116.169 Y107.275 E118.45266
G1 X116.099 Y107.345
G0 F5400 X116.169 Y106.71
G1 F1800 X126.709 Y96.17 E119.93996
G1 X126.779 Y96.1
G0 F5400 X126.144 Y96.17
G1 F1800 X116.169 Y106.144 E121.34747
G1 X116.099 Y106.214
G0 F5400 X116.169 Y105.578
G1 F1800 X125.578 Y96.17 E122.67512
G1 X125.648 Y96.1
G0 F5400 X125.012 Y96.17
G1 F1800 X116.169 Y105.013 E123.92296
G1 X116.099 Y105.083
G0 F5400 X116.169 Y104.447
G1 F1800 X124.447 Y96.17 E125.091
G1 X124.517 Y96.1
G0 F5400 X123.881 Y96.17
G1 F1800 X116.169 Y103.881 E126.17918
G1 X116.099 Y103.951
G0 F5400 X116.169 Y103.316
G1 F1800 X123.315 Y96.17 E127.18756
G1 X123.385 Y96.1
G0 F5400 X122.75 Y96.17
G1 F1800 X116.169 Y102.75 E128.11614
G1 X116.099 Y102.82
G0 F5400 X116.169 Y102.184
G1 F1800 X122.184 Y96.17 E128.96485
G1 X122.254 Y96.1
G0 F5400 X121.618 Y96.17
G1 F1800 X116.169 Y101.619 E129.73376
G1 X116.099 Y101.689
G0 F5400 X116.169 Y101.053
G1 F1800 X121.053 Y96.17 E130.42287
G1 X121.123 Y96.1
G0 F5400 X120.487 Y96.17
G1 F1800 X116.169 Y100.487 E131.03212
G1 X116.099 Y100.557
G0 F5400 X116.169 Y99.921
G1 F1800 X119.921 Y96.17 E131.5615
G1 X119.991 Y96.1
G0 F5400 X119.356 Y96.17
G1 F1800 X116.169 Y99.356 E132.01115
G1 X116.099 Y99.426
G0 F5400 X116.169 Y98.79
G1 F1800 X118.79 Y96.17 E132.38093
G1 X118.86 Y96.1
G0 F5400 X118.224 Y96.17
G1 F1800 X116.169 Y98.224 E132.67084
G1 X116.099 Y98.294
G0 F5400 X116.169 Y97.659
G1 F1800 X117.659 Y96.17 E132.88102
G1 X117.729 Y96.1
G0 F5400 X117.093 Y96.17
G1 F1800 X116.169 Y97.093 E133.01134
