;FLAVOR:Repetier
;TIME:1804
;Generated with Cura_SteamEngine 3.1.0
M82 ; absolute extrusion mode
G21 ; set units to millimeters
G90 ; use absolute positioning
M82 ; absolute extrusion mode
M104 S210 ; set extruder temp
M140 S60.0 ; set bed temp
M190 S60.0 ; wait for bed temp
M109 S210 ; wait for extruder temp
G28 W ; home all without mesh bed level
G80 ; mesh bed leveling
G92 E0.0 ; reset extruder distance position
G1 Y-3.0 F1000.0 ; go outside print area
G1 X60.0 E9.0 F1000.0 ; intro line
G1 X100.0 E21.5 F1000.0 ; intro line
G92 E0.0 ; reset extruder distance position
;LAYER_COUNT:23
;LAYER:0
M107
G0 F3600 X76.057 Y88.83 Z0.15
;TYPE:SKIRT
G1 F1800 X76.446 Y88.507 E0.01261
G1 X76.881 Y88.249 E0.02523
G1 X77.352 Y88.063 E0.03786
G1 X77.845 Y87.954 E0.05046
G1 X78.289 Y87.923 E0.06156
G1 X171.707 Y87.922 E2.39188
G1 X172.211 Y87.962 E2.40449
G1 X172.702 Y88.081 E2.41709
G1 X173.169 Y88.275 E2.42971
G1 X173.599 Y88.541 E2.44232
G1 X173.982 Y88.871 E2.45493
G1 X176.709 Y91.627 E2.55165
G1 X177.035 Y92.014 E2.56427
G1 X177.296 Y92.446 E2.57686
G1 X177.486 Y92.915 E2.58948
G1 X177.599 Y93.408 E2.6021
G1 X177.634 Y93.876 E2.61381
G1 X177.645 Y116.139 E3.16916
G1 X177.605 Y116.643 E3.18177
G1 X177.487 Y117.135 E3.19439
G1 X177.292 Y117.602 E3.20702
G1 X177.027 Y118.032 E3.21962
G1 X176.709 Y118.403 E3.23181
G1 X173.982 Y121.132 E3.32804
G1 X173.597 Y121.46 E3.34066
G1 X173.166 Y121.724 E3.35327
G1 X172.698 Y121.916 E3.36589
G1 X172.206 Y122.033 E3.3785
G1 X171.718 Y122.07 E3.39071
G1 X78.292 Y122.078 E5.72123
G1 X77.788 Y122.038 E5.73384
G1 X77.297 Y121.919 E5.74645
G1 X76.83 Y121.725 E5.75906
G1 X76.4 Y121.459 E5.77167
G1 X76.037 Y121.148 E5.7836
G1 X73.771 Y118.897 E5.86327
G1 X73.73 Y118.856 E5.86472
G1 X73.259 Y118.371 E5.88158
G1 X72.937 Y117.982 E5.89418
G1 X72.68 Y117.547 E5.90678
G1 X72.494 Y117.076 E5.91942
G1 X72.385 Y116.583 E5.93201
G1 X72.355 Y116.142 E5.94304
G1 X72.355 Y93.859 E6.49889
G1 X72.395 Y93.355 E6.5115
G1 X72.514 Y92.864 E6.5241
G1 X72.708 Y92.397 E6.53672
G1 X72.974 Y91.967 E6.54933
G1 X73.285 Y91.604 E6.56125
G1 X75.536 Y89.338 E6.64093
G1 X75.574 Y89.3 E6.64227
G1 X76.057 Y88.83 E6.65908
G1 F2100 E5.85908
G0 F3600 X77.635 Y90.824
G0 X78.542 Y91.73
G0 X173.763 Y94.14
G0 X173.855 Y94.102
;TYPE:WALL-INNER
G1 F2100 E6.65908
G1 F1800 X173.855 Y115.898 E7.20278
G1 X171.465 Y118.288 E7.2871
G1 X78.535 Y118.288 E9.60525
G1 X76.145 Y115.898 E9.68956
G1 X76.145 Y94.102 E10.23326
G1 X78.535 Y91.712 E10.31758
G1 X171.465 Y91.712 E12.63573
G1 X173.855 Y94.102 E12.72004
G0 F3600 X174.255 Y93.936
;TYPE:WALL-OUTER
G1 F1800 X174.255 Y116.064 E13.27202
G1 X171.631 Y118.688 E13.36459
G1 X78.369 Y118.688 E15.69102
G1 X75.745 Y116.064 E15.78359
G1 X75.745 Y93.936 E16.33558
G1 X78.369 Y91.312 E16.42815
G1 X171.631 Y91.312 E18.75458
G1 X174.255 Y93.936 E18.84714
G0 F3600 X174.255 Y94.136
G0 X173.465 Y94.262
;TYPE:SKIN
G1 F1800 X173.465 Y115.738 E19.38287
G1 X171.305 Y117.898 E19.45907
G1 X78.695 Y117.898 E21.76923
G1 X76.535 Y115.738 E21.84543
G1 X76.535 Y94.262 E22.38115
G1 X78.695 Y92.102 E22.45735
G1 X171.305 Y92.102 E24.76752
G1 X173.465 Y94.262 E24.84372
G0 F3600 X170.911 Y92.281
G1 F1800 X173.284 Y94.654 E24.92743
G1 X173.354 Y94.724
G0 F3600 X173.284 Y95.219
G1 F1800 X170.346 Y92.281 E25.03108
G1 X170.276 Y92.211
G0 F3600 X169.78 Y92.281
G1 F1800 X173.284 Y95.785 E25.15469
G1 X173.354 Y95.855
G0 F3600 X173.284 Y96.351
G1 F1800 X169.214 Y92.281 E25.29827
G1 X169.144 Y92.211
G0 F3600 X168.649 Y92.281
G1 F1800 X173.284 Y96.916 E25.46178
G1 X173.354 Y96.986
G0 F3600 X173.284 Y97.482
G1 F1800 X168.083 Y92.281 E25.64526
G1 X168.013 Y92.211
G0 F3600 X167.517 Y92.281
G1 F1800 X173.284 Y98.048 E25.84871
G1 X173.354 Y98.118
G0 F3600 X173.284 Y98.613
G1 F1800 X166.952 Y92.281 E26.07209
G1 X166.882 Y92.211
G0 F3600 X166.386 Y92.281
G1 F1800 X173.284 Y99.179 E26.31543
G1 X173.354 Y99.249
G0 F3600 X173.284 Y99.745
G1 F1800 X165.82 Y92.281 E26.57875
G1 X165.75 Y92.211
G0 F3600 X165.255 Y92.281
G1 F1800 X173.284 Y100.31 E26.86199
G1 X173.354 Y100.38
G0 F3600 X173.284 Y100.876
G1 F1800 X164.689 Y92.281 E27.1652
G1 X164.619 Y92.211
G0 F3600 X164.123 Y92.281
G1 F1800 X173.284 Y101.442 E27.48838
G1 X173.354 Y101.512
G0 F3600 X173.284 Y102.007
G1 F1800 X163.558 Y92.281 E27.83149
G1 X163.488 Y92.211
G0 F3600 X162.992 Y92.281
G1 F1800 X173.284 Y102.573 E28.19457
G1 X173.354 Y102.643
G0 F3600 X173.284 Y103.139
G1 F1800 X162.426 Y92.281 E28.57762
G1 X162.356 Y92.211
G0 F3600 X161.86 Y92.281
G1 F1800 X173.284 Y103.704 E28.98061
G1 X173.354 Y103.774
G0 F3600 X173.284 Y104.27
G1 F1800 X161.295 Y92.281 E29.40355
G1 X161.225 Y92.211
G0 F3600 X160.729 Y92.281
G1 F1800 X173.284 Y104.836 E29.84647
G1 X173.354 Y104.906
G0 F3600 X173.284 Y105.402
G1 F1800 X160.163 Y92.281 E30.30934
G1 X160.093 Y92.211
G0 F3600 X159.598 Y92.281
G1 F1800 X173.284 Y105.967 E30.79216
G1 X173.354 Y106.037
G0 F3600 X173.284 Y106.533
G1 F1800 X159.032 Y92.281 E31.29493
G1 X158.962 Y92.211
G0 F3600 X158.466 Y92.281
G1 F1800 X173.284 Y107.099 E31.81768
G1 X173.354 Y107.169
G0 F3600 X173.284 Y107.664
G1 F1800 X157.901 Y92.281 E32.36036
G1 X157.831 Y92.211
G0 F3600 X157.335 Y92.281
G1 F1800 X173.284 Y108.23 E32.923
G1 X173.354 Y108.3
G0 F3600 X173.284 Y108.796
G1 F1800 X156.769 Y92.281 E33.50561
G1 X156.699 Y92.211
G0 F3600 X156.204 Y92.281
G1 F1800 X173.284 Y109.361 E34.10815
G1 X173.354 Y109.431
G0 F3600 X173.284 Y109.927
G1 F1800 X155.638 Y92.281 E34.73066
G1 X155.568 Y92.211
G0 F3600 X155.072 Y92.281
G1 F1800 X173.284 Y110.493 E35.37314
G1 X173.354 Y110.563
G0 F3600 X173.284 Y111.058
G1 F1800 X154.507 Y92.281 E36.03555
G1 X154.437 Y92.211
G0 F3600 X153.941 Y92.281
G1 F1800 X173.284 Y111.624 E36.71793
G1 X173.354 Y111.694
G0 F3600 X173.284 Y112.19
G1 F1800 X153.375 Y92.281 E37.42027
G1 X153.305 Y92.211
G0 F3600 X152.81 Y92.281
G1 F1800 X173.284 Y112.755 E38.14255
G1 X173.354 Y112.825
G0 F3600 X173.284 Y113.321
G1 F1800 X152.244 Y92.281 E38.88479
G1 X152.174 Y92.211
G0 F3600 X151.678 Y92.281
G1 F1800 X173.284 Y113.887 E39.647
G1 X173.354 Y113.957
G0 F3600 X173.284 Y114.453
G1 F1800 X151.112 Y92.281 E40.42918
G1 X151.042 Y92.211
G0 F3600 X150.547 Y92.281
G1 F1800 X173.284 Y115.018 E41.23129
G1 X173.354 Y115.088
G0 F3600 X173.284 Y115.584
G1 F1800 X149.981 Y92.281 E42.05336
G1 X149.911 Y92.211
G0 F3600 X149.415 Y92.281
G1 F1800 X173.041 Y115.906 E42.88682
G1 X173.111 Y115.976
G0 F3600 X172.758 Y116.189
G1 F1800 X148.85 Y92.281 E43.73023
G1 X148.78 Y92.211
G0 F3600 X148.284 Y92.281
G1 F1800 X172.475 Y116.472 E44.58364
G1 X172.545 Y116.542
G0 F3600 X172.192 Y116.755
G1 F1800 X147.718 Y92.281 E45.44702
G1 X147.648 Y92.211
G0 F3600 X147.153 Y92.281
G1 F1800 X171.909 Y117.038 E46.32038
G1 X171.979 Y117.108
G0 F3600 X171.626 Y117.321
G1 F1800 X146.587 Y92.281 E47.20371
G1 X146.517 Y92.211
G0 F3600 X146.021 Y92.281
G1 F1800 X171.343 Y117.603 E48.09701
G1 X171.413 Y117.673
G0 F3600 X170.892 Y117.717
G1 F1800 X145.456 Y92.281 E48.99434
G1 X145.386 Y92.211
G0 F3600 X144.89 Y92.281
G1 F1800 X170.326 Y117.717 E49.89166
G1 X170.396 Y117.787
G0 F3600 X169.76 Y117.717
G1 F1800 X144.324 Y92.281 E50.78898
G1 X144.254 Y92.211
G0 F3600 X143.759 Y92.281
G1 F1800 X169.195 Y117.717 E51.68631
G1 X169.265 Y117.787
G0 F3600 X168.629 Y117.717
G1 F1800 X143.193 Y92.281 E52.58363
G1 X143.123 Y92.211
G0 F3600 X142.627 Y92.281
G1 F1800 X168.063 Y117.717 E53.48096
G1 X168.133 Y117.787
G0 F3600 X167.498 Y117.717
G1 F1800 X142.061 Y92.281 E54.3783
G1 X141.991 Y92.211
G0 F3600 X141.496 Y92.281
G1 F1800 X166.932 Y117.717 E55.27562
G1 X167.002 Y117.787
G0 F3600 X166.366 Y117.717
G1 F1800 X140.93 Y92.281 E56.17294
G1 X140.86 Y92.211
G0 F3600 X140.364 Y92.281
G1 F1800 X165.8 Y117.717 E57.07027
G1 X165.87 Y117.787
G0 F3600 X165.235 Y117.717
G1 F1800 X139.799 Y92.281 E57.96759
G1 X139.729 Y92.211
G0 F3600 X139.233 Y92.281
G1 F1800 X164.669 Y117.717 E58.86491
G1 X164.739 Y117.787
G0 F3600 X164.103 Y117.717
G1 F1800 X138.667 Y92.281 E59.76224
G1 X138.597 Y92.211
G0 F3600 X138.102 Y92.281
G1 F1800 X163.538 Y117.717 E60.65956
G1 X163.608 Y117.787
G0 F3600 X162.972 Y117.717
G1 F1800 X137.536 Y92.281 E61.55689
G1 X137.466 Y92.211
G0 F3600 X136.97 Y92.281
G1 F1800 X162.406 Y117.717 E62.45421
G1 X162.476 Y117.787
G0 F3600 X161.841 Y117.717
G1 F1800 X136.405 Y92.281 E63.35153
G1 X136.335 Y92.211
G0 F3600 X135.839 Y92.281
G1 F1800 X161.275 Y117.717 E64.24886
G1 X161.345 Y117.787
G0 F3600 X160.709 Y117.717
G1 F1800 X135.273 Y92.281 E65.14618
G1 X135.203 Y92.211
G0 F3600 X134.708 Y92.281
G1 F1800 X160.144 Y117.717 E66.0435
G1 X160.214 Y117.787
G0 F3600 X159.578 Y117.717
G1 F1800 X134.142 Y92.281 E66.94083
G1 X134.072 Y92.211
G0 F3600 X133.576 Y92.281
G1 F1800 X159.012 Y117.717 E67.83815
G1 X159.082 Y117.787
G0 F3600 X158.447 Y117.717
G1 F1800 X133.011 Y92.281 E68.73547
G1 X132.941 Y92.211
G0 F3600 X132.445 Y92.281
G1 F1800 X157.881 Y117.717 E69.6328
G1 X157.951 Y117.787
G0 F3600 X157.315 Y117.717
G1 F1800 X131.879 Y92.281 E70.53012
G1 X131.809 Y92.211
G0 F3600 X131.313 Y92.281
G1 F1800 X156.75 Y117.717 E71.42746
G1 X156.82 Y117.787
G0 F3600 X156.184 Y117.717
G1 F1800 X130.748 Y92.281 E72.32479
G1 X130.678 Y92.211
G0 F3600 X130.182 Y92.281
G1 F1800 X155.618 Y117.717 E73.22211
G1 X155.688 Y117.787
G0 F3600 X155.052 Y117.717
G1 F1800 X129.616 Y92.281 E74.11943
G1 X129.546 Y92.211
G0 F3600 X129.051 Y92.281
G1 F1800 X154.487 Y117.717 E75.01676
G1 X154.557 Y117.787
G0 F3600 X153.921 Y117.717
G1 F1800 X128.485 Y92.281 E75.91408
G1 X128.415 Y92.211
G0 F3600 X127.919 Y92.281
G1 F1800 X153.355 Y117.717 E76.8114
G1 X153.425 Y117.787
G0 F3600 X152.79 Y117.717
G1 F1800 X127.354 Y92.281 E77.70873
G1 X127.284 Y92.211
G0 F3600 X126.788 Y92.281
G1 F1800 X152.224 Y117.717 E78.60605
G1 X152.294 Y117.787
G0 F3600 X151.658 Y117.717
G1 F1800 X126.222 Y92.281 E79.50338
G1 X126.152 Y92.211
G0 F3600 X125.657 Y92.281
G1 F1800 X151.093 Y117.717 E80.4007
G1 X151.163 Y117.787
G0 F3600 X150.527 Y117.717
G1 F1800 X125.091 Y92.281 E81.29802
G1 X125.021 Y92.211
G0 F3600 X124.525 Y92.281
G1 F1800 X149.961 Y117.717 E82.19535
G1 X150.031 Y117.787
G0 F3600 X149.396 Y117.717
G1 F1800 X123.96 Y92.281 E83.09267
G1 X123.89 Y92.211
G0 F3600 X123.394 Y92.281
G1 F1800 X148.83 Y117.717 E83.98999
G1 X148.9 Y117.787
G0 F3600 X148.264 Y117.717
G1 F1800 X122.828 Y92.281 E84.88732
G1 X122.758 Y92.211
G0 F3600 X122.263 Y92.281
G1 F1800 X147.699 Y117.717 E85.78464
G1 X147.769 Y117.787
G0 F3600 X147.133 Y117.717
G1 F1800 X121.697 Y92.281 E86.68196
G1 X121.627 Y92.211
G0 F3600 X121.131 Y92.281
G1 F1800 X146.567 Y117.717 E87.57929
G1 X146.637 Y117.787
G0 F3600 X146.001 Y117.717
G1 F1800 X120.565 Y92.281 E88.47661
G1 X120.495 Y92.211
G0 F3600 X120 Y92.281
G1 F1800 X145.436 Y117.717 E89.37393
G1 X145.506 Y117.787
G0 F3600 X144.87 Y117.717
G1 F1800 X119.434 Y92.281 E90.27126
G1 X119.364 Y92.211
G0 F3600 X118.868 Y92.281
G1 F1800 X144.304 Y117.717 E91.16858
G1 X144.374 Y117.787
G0 F3600 X143.739 Y117.717
G1 F1800 X118.303 Y92.281 E92.06591
G1 X118.233 Y92.211
G0 F3600 X117.737 Y92.281
G1 F1800 X143.173 Y117.717 E92.96323
G1 X143.243 Y117.787
G0 F3600 X142.607 Y117.717
G1 F1800 X117.171 Y92.281 E93.86055
G1 X117.101 Y92.211
G0 F3600 X116.606 Y92.281
G1 F1800 X142.042 Y117.717 E94.75788
G1 X142.112 Y117.787
G0 F3600 X141.476 Y117.717
G1 F1800 X116.04 Y92.281 E95.6552
G1 X115.97 Y92.211
G0 F3600 X115.474 Y92.281
G1 F1800 X140.91 Y117.717 E96.55252
G1 X140.98 Y117.787
G0 F3600 X140.345 Y117.717
G1 F1800 X114.909 Y92.281 E97.44985
G1 X114.839 Y92.211
G0 F3600 X114.343 Y92.281
G1 F1800 X139.779 Y117.717 E98.34717
G1 X139.849 Y117.787
G0 F3600 X139.213 Y117.717
G1 F1800 X113.777 Y92.281 E99.24449
G1 X113.707 Y92.211
G0 F3600 X113.212 Y92.281
G1 F1800 X138.648 Y117.717 E100.14182
G1 X138.718 Y117.787
G0 F3600 X138.082 Y117.717
G1 F1800 X112.646 Y92.281 E101.03914
G1 X112.576 Y92.211
G0 F3600 X112.08 Y92.281
G1 F1800 X137.516 Y117.717 E101.93646
G1 X137.586 Y117.787
G0 F3600 X136.951 Y117.717
G1 F1800 X111.514 Y92.281 E102.83381
G1 X111.444 Y92.211
G0 F3600 X110.949 Y92.281
G1 F1800 X136.385 Y117.717 E103.73113
G1 X136.455 Y117.787
G0 F3600 X135.819 Y117.717
G1 F1800 X110.383 Y92.281 E104.62845
G1 X110.313 Y92.211
G0 F3600 X109.817 Y92.281
G1 F1800 X135.253 Y117.717 E105.52578
G1 X135.323 Y117.787
G0 F3600 X134.688 Y117.717
G1 F1800 X109.252 Y92.281 E106.4231
G1 X109.182 Y92.211
G0 F3600 X108.686 Y92.281
G1 F1800 X134.122 Y117.717 E107.32042
G1 X134.192 Y117.787
G0 F3600 X133.556 Y117.717
G1 F1800 X108.12 Y92.281 E108.21775
G1 X108.05 Y92.211
G0 F3600 X107.555 Y92.281
G1 F1800 X132.991 Y117.717 E109.11507
G1 X133.061 Y117.787
G0 F3600 X132.425 Y117.717
G1 F1800 X106.989 Y92.281 E110.01239
G1 X106.919 Y92.211
G0 F3600 X106.423 Y92.281
G1 F1800 X131.859 Y117.717 E110.90972
G1 X131.929 Y117.787
G0 F3600 X131.294 Y117.717
G1 F1800 X105.858 Y92.281 E111.80704
G1 X105.788 Y92.211
G0 F3600 X105.292 Y92.281
G1 F1800 X130.728 Y117.717 E112.70437
G1 X130.798 Y117.787
G0 F3600 X130.162 Y117.717
G1 F1800 X104.726 Y92.281 E113.60169
G1 X104.656 Y92.211
G0 F3600 X104.161 Y92.281
G1 F1800 X129.597 Y117.717 E114.49901
G1 X129.667 Y117.787
G0 F3600 X129.031 Y117.717
G1 F1800 X103.595 Y92.281 E115.39634
G1 X103.525 Y92.211
G0 F3600 X103.029 Y92.281
G1 F1800 X128.465 Y117.717 E116.29366
G1 X128.535 Y117.787
G0 F3600 X127.9 Y117.717
G1 F1800 X102.464 Y92.281 E117.19098
G1 X102.394 Y92.211
G0 F3600 X101.898 Y92.281
G1 F1800 X127.334 Y117.717 E118.08831
G1 X127.404 Y117.787
G0 F3600 X126.768 Y117.717
G1 F1800 X101.332 Y92.281 E118.98563
G1 X101.262 Y92.211
G0 F3600 X100.766 Y92.281
G1 F1800 X126.203 Y117.717 E119.88297
G1 X126.273 Y117.787
G0 F3600 X125.637 Y117.717
G1 F1800 X100.201 Y92.281 E120.7803
G1 X100.131 Y92.211
G0 F3600 X99.635 Y92.281
G1 F1800 X125.071 Y117.717 E121.67762
G1 X125.141 Y117.787
G0 F3600 X124.505 Y117.717
G1 F1800 X99.069 Y92.281 E122.57494
G1 X98.999 Y92.211
G0 F3600 X98.504 Y92.281
G1 F1800 X123.94 Y117.717 E123.47227
G1 X124.01 Y117.787
G0 F3600 X123.374 Y117.717
G1 F1800 X97.938 Y92.281 E124.36959
G1 X97.868 Y92.211
G0 F3600 X97.372 Y92.281
G1 F1800 X122.808 Y117.717 E125.26691
G1 X122.878 Y117.787
G0 F3600 X122.243 Y117.717
G1 F1800 X96.807 Y92.281 E126.16424
G1 X96.737 Y92.211
G0 F3600 X96.241 Y92.281
G1 F1800 X121.677 Y117.717 E127.06156
G1 X121.747 Y117.787
G0 F3600 X121.111 Y117.717
G1 F1800 X95.675 Y92.281 E127.95888
G1 X95.605 Y92.211
G0 F3600 X95.11 Y92.281
G1 F1800 X120.546 Y117.717 E128.85621
G1 X120.616 Y117.787
G0 F3600 X119.98 Y117.717
G1 F1800 X94.544 Y92.281 E129.75353
G1 X94.474 Y92.211
G0 F3600 X93.978 Y92.281
G1 F1800 X119.414 Y117.717 E130.65086
G1 X119.484 Y117.787
G0 F3600 X118.849 Y117.717
G1 F1800 X93.413 Y92.281 E131.54818
G1 X93.343 Y92.211
G0 F3600 X92.847 Y92.281
G1 F1800 X118.283 Y117.717 E132.4455
G1 X118.353 Y117.787
G0 F3600 X117.717 Y117.717
G1 F1800 X92.281 Y92.281 E133.34283
G1 X92.211 Y92.211
G0 F3600 X91.715 Y92.281
G1 F1800 X117.152 Y117.717 E134.24017
G1 X117.222 Y117.787
G0 F3600 X116.586 Y117.717
G1 F1800 X91.15 Y92.281 E135.13749
G1 X91.08 Y92.211
G0 F3600 X90.584 Y92.281
G1 F1800 X116.02 Y117.717 E136.03481
G1 X116.09 Y117.787
G0 F3600 X115.454 Y117.717
G1 F1800 X90.018 Y92.281 E136.93214
G1 X89.948 Y92.211
G0 F3600 X89.453 Y92.281
G1 F1800 X114.889 Y117.717 E137.82946
G1 X114.959 Y117.787
G0 F3600 X114.323 Y117.717
G1 F1800 X88.887 Y92.281 E138.72678
G1 X88.817 Y92.211
G0 F3600 X88.321 Y92.281
G1 F1800 X113.757 Y117.717 E139.62411
G1 X113.827 Y117.787
G0 F3600 X113.192 Y117.717
G1 F1800 X87.756 Y92.281 E140.52143
G1 X87.686 Y92.211
G0 F3600 X87.19 Y92.281
G1 F1800 X112.626 Y117.717 E141.41876
G1 X112.696 Y117.787
G0 F3600 X112.06 Y117.717
G1 F1800 X86.624 Y92.281 E142.31608
G1 X86.554 Y92.211
G0 F3600 X86.059 Y92.281
G1 F1800 X111.495 Y117.717 E143.2134
G1 X111.565 Y117.787
G0 F3600 X110.929 Y117.717
G1 F1800 X85.493 Y92.281 E144.11073
G1 X85.423 Y92.211
G0 F3600 X84.927 Y92.281
G1 F1800 X110.363 Y117.717 E145.00805
G1 X110.433 Y117.787
G0 F3600 X109.798 Y117.717
G1 F1800 X84.362 Y92.281 E145.90537
G1 X84.292 Y92.211
G0 F3600 X83.796 Y92.281
G1 F1800 X109.232 Y117.717 E146.8027
G1 X109.302 Y117.787
