;FLAVOR:Repetier
;TIME:1906
;Generated with Cura_SteamEngine 3.1.0
M82 ; absolute extrusion mode
G21 ; set units to millimeters
G90 ; use absolute positioning
M82 ; absolute extrusion mode
M104 S210 ; set extruder temp
M140 S60.0 ; set bed temp
M190 S60.0 ; wait for bed temp
M109 S210 ; wait for extruder temp
G28 W ; home all without mesh bed level
G80 ; mesh bed leveling
G92 E0.0 ; reset extruder distance position
G1 Y-3.0 F1000.0 ; go outside print area
G1 X60.0 E9.0 F1000.0 ; intro line
G1 X100.0 E21.5 F1000.0 ; intro line
G92 E0.0 ; reset extruder distance position
;LAYER_COUNT:30
;LAYER:0
M107
G0 F3600 X76.893 Y90.824 Z0.15
;TYPE:SKIRT
G1 F1800 X77.283 Y90.502 E0.01262
G1 X77.718 Y90.245 E0.02522
G1 X78.189 Y90.06 E0.03784
G1 X78.683 Y89.952 E0.05046
G1 X79.12 Y89.922 E0.06138
G1 X170.879 Y89.922 E2.35032
G1 X171.383 Y89.962 E2.36293
G1 X171.874 Y90.081 E2.37554
G1 X172.341 Y90.275 E2.38815
G1 X172.771 Y90.541 E2.40076
G1 X173.126 Y90.844 E2.4124
G1 X174.221 Y91.924 E2.45077
G1 X174.267 Y91.97 E2.45239
G1 X174.739 Y92.455 E2.46928
G1 X175.062 Y92.844 E2.48189
G1 X175.32 Y93.279 E2.4945
G1 X175.506 Y93.749 E2.50711
G1 X175.615 Y94.243 E2.51973
G1 X175.646 Y94.687 E2.53083
G1 X175.645 Y115.314 E3.04538
G1 X175.605 Y115.818 E3.05799
G1 X175.486 Y116.31 E3.07062
G1 X175.291 Y116.776 E3.08322
G1 X174.908 Y117.357 E3.10058
G1 X171.426 Y121.556 E3.23665
G1 X168.175 Y125.958 E3.37316
G1 X165.173 Y130.543 E3.50987
G1 X162.447 Y135.272 E3.64603
G1 X159.979 Y140.17 E3.78284
G1 X157.798 Y145.188 E3.91933
G1 X155.903 Y150.325 E4.05591
G1 X154.054 Y156.447 E4.21544
G1 X153.87 Y156.918 E4.22805
G1 X153.615 Y157.354 E4.24065
G1 X153.254 Y157.784 E4.25466
G1 X148.796 Y162.244 E4.41196
G1 X148.412 Y162.572 E4.42456
G1 X147.98 Y162.836 E4.43719
G1 X147.513 Y163.028 E4.44978
G1 X147.021 Y163.145 E4.4624
G1 X146.534 Y163.182 E4.47458
G1 X99.478 Y163.19 E5.6484
G1 X98.974 Y163.15 E5.66101
G1 X98.482 Y163.031 E5.67364
G1 X98.016 Y162.837 E5.68623
G1 X97.585 Y162.571 E5.69886
G1 X97.219 Y162.257 E5.71089
G1 X93.223 Y158.276 E5.8516
G1 X93.185 Y158.238 E5.85294
G1 X92.715 Y157.754 E5.86977
G1 X92.393 Y157.365 E5.88236
G1 X92.136 Y156.93 E5.89497
G1 X91.893 Y156.244 E5.91312
G1 X90.257 Y149.146 E6.09483
G1 X88.68 Y143.874 E6.23209
G1 X86.815 Y138.726 E6.36868
G1 X85.787 Y136.222 E6.4362
G1 X83.487 Y131.239 E6.5731
G1 X80.913 Y126.398 E6.70987
G1 X78.07 Y121.714 E6.84655
G1 X74.918 Y117.127 E6.98539
G1 X74.665 Y116.689 E6.998
G1 X74.485 Y116.217 E7.01061
G1 X74.381 Y115.722 E7.02322
G1 X74.355 Y115.315 E7.0334
G1 X74.355 Y94.687 E7.54796
G1 X74.395 Y94.183 E7.56058
G1 X74.514 Y93.692 E7.57318
G1 X74.708 Y93.225 E7.58579
G1 X74.974 Y92.795 E7.59841
G1 X75.277 Y92.44 E7.61005
G1 X76.356 Y91.346 E7.64838
G1 X76.407 Y91.295 E7.65018
G1 X76.893 Y90.824 E7.66706
G1 F2100 E6.86706
G0 F3600 X78.464 Y92.823
G0 X79.37 Y93.73
G0 X80.91 Y94.741
G0 X80.935 Y94.837
;TYPE:WALL-INNER
G1 F2100 E7.66706
G1 F1800 X80.367 Y95.073 E7.6824
G1 X79.88 Y95.447 E7.69772
G1 X79.506 Y95.934 E7.71304
G1 X79.27 Y96.502 E7.72838
G1 X79.189 Y97.112 E7.74373
G1 X79.27 Y97.722 E7.75908
G1 X79.505 Y98.289 E7.77439
G1 X79.88 Y98.778 E7.78976
G1 X80.367 Y99.152 E7.80508
G1 X80.936 Y99.388 E7.82045
G1 X81.545 Y99.467 E7.83577
G1 X82.154 Y99.388 E7.85108
G1 X82.722 Y99.153 E7.86642
G1 X83.211 Y98.778 E7.88179
G1 X83.586 Y98.289 E7.89716
G1 X83.821 Y97.721 E7.9125
G1 X83.9 Y97.112 E7.92781
G1 X83.821 Y96.503 E7.94313
G1 X83.585 Y95.934 E7.9585
G1 X83.211 Y95.447 E7.97382
G1 X82.722 Y95.072 E7.98919
G1 X82.155 Y94.837 E8.0045
G1 X81.545 Y94.756 E8.01985
G1 X80.935 Y94.837 E8.0352
G0 F3600 X80.91 Y94.741
G0 X81.545 Y94.716
G0 X82.165 Y94.799
G0 X82.741 Y95.038
G0 X83.189 Y95.38
G0 X86.873 Y100.42
G0 X86.911 Y100.512
G1 F1800 X84.945 Y102.478 E8.10456
G1 X84.945 Y107.522 E8.23038
G1 X86.911 Y109.488 E8.29973
G1 X163.089 Y109.488 E10.2
G1 X165.055 Y107.522 E10.26936
G1 X165.055 Y102.478 E10.39518
G1 X163.089 Y100.512 E10.46454
G1 X86.911 Y100.512 E12.36481
G0 F3600 X86.873 Y100.42
G0 X84.909 Y102.463
G0 X80.911 Y110.516
G0 X80.936 Y110.612
G1 F1800 X80.367 Y110.848 E12.38017
G1 X79.88 Y111.222 E12.39549
G1 X79.505 Y111.711 E12.41086
G1 X79.27 Y112.278 E12.42617
G1 X79.189 Y112.888 E12.44152
G1 X79.27 Y113.498 E12.45687
G1 X79.506 Y114.066 E12.47222
G1 X79.88 Y114.553 E12.48753
G1 X80.367 Y114.927 E12.50285
G1 X80.935 Y115.163 E12.51819
G1 X81.545 Y115.244 E12.53354
G1 X82.155 Y115.163 E12.54889
G1 X82.722 Y114.928 E12.5642
G1 X83.211 Y114.553 E12.57958
G1 X83.585 Y114.066 E12.59489
G1 X83.821 Y113.497 E12.61026
G1 X83.9 Y112.888 E12.62558
G1 X83.821 Y112.279 E12.6409
G1 X83.586 Y111.711 E12.65623
G1 X83.211 Y111.222 E12.6716
G1 X82.722 Y110.847 E12.68697
G1 X82.154 Y110.612 E12.70231
G1 X81.545 Y110.533 E12.71763
G1 X80.936 Y110.612 E12.73295
G0 F3600 X80.911 Y110.516
G0 X167.821 Y110.516
G0 X167.846 Y110.612
G1 F1800 X167.278 Y110.847 E12.74828
G1 X166.789 Y111.222 E12.76365
G1 X166.414 Y111.711 E12.77902
G1 X166.179 Y112.279 E12.79436
G1 X166.1 Y112.888 E12.80968
G1 X166.179 Y113.497 E12.825
G1 X166.415 Y114.066 E12.84036
G1 X166.789 Y114.553 E12.85568
G1 X167.278 Y114.928 E12.87105
G1 X167.845 Y115.163 E12.88636
G1 X168.455 Y115.244 E12.90171
G1 X169.065 Y115.163 E12.91706
G1 X169.633 Y114.927 E12.9324
G1 X170.12 Y114.553 E12.94772
G1 X170.494 Y114.066 E12.96304
G1 X170.73 Y113.498 E12.97838
G1 X170.811 Y112.888 E12.99373
G1 X170.73 Y112.278 E13.00908
G1 X170.495 Y111.711 E13.02439
G1 X170.12 Y111.222 E13.03976
G1 X169.633 Y110.848 E13.05508
G1 X169.064 Y110.612 E13.07045
G1 X168.455 Y110.533 E13.08577
G1 X167.846 Y110.612 E13.10109
G0 F3600 X167.821 Y110.516
G0 X166.06 Y97.112
G0 X166.141 Y96.493
G0 X166.381 Y95.914
G0 X166.761 Y95.419
G0 X167.043 Y95.205
G0 X167.82 Y94.741
G0 X167.845 Y94.837
G1 F1800 X167.278 Y95.072 E13.1164
G1 X166.789 Y95.447 E13.13177
G1 X166.415 Y95.934 E13.14709
G1 X166.179 Y96.503 E13.16245
G1 X166.1 Y97.112 E13.17777
G1 X166.179 Y97.721 E13.19309
G1 X166.414 Y98.289 E13.20842
G1 X166.789 Y98.778 E13.2238
G1 X167.278 Y99.153 E13.23917
G1 X167.846 Y99.388 E13.2545
G1 X168.455 Y99.467 E13.26982
G1 X169.064 Y99.388 E13.28514
G1 X169.633 Y99.152 E13.30051
G1 X170.12 Y98.778 E13.31582
G1 X170.495 Y98.289 E13.33119
G1 X170.73 Y97.722 E13.34651
G1 X170.811 Y97.112 E13.36186
G1 X170.73 Y96.502 E13.37721
G1 X170.494 Y95.934 E13.39255
G1 X170.12 Y95.447 E13.40787
G1 X169.633 Y95.073 E13.42318
G1 X169.065 Y94.837 E13.43853
G1 X168.455 Y94.756 E13.45388
G1 X167.845 Y94.837 E13.46923
G0 F3600 X167.82 Y94.741
G0 X168.179 Y94.728
G0 X171.763 Y94.968
G0 X171.855 Y94.93
G1 F1800 X171.855 Y115.07 E13.97162
G1 X170.637 Y116.288 E14.01459
G1 X79.363 Y116.288 E16.29143
G1 X78.145 Y115.07 E16.3344
G1 X78.145 Y94.93 E16.83679
G1 X79.363 Y93.712 E16.87976
G1 X170.637 Y93.712 E19.1566
G1 X171.855 Y94.93 E19.19957
G0 F3600 X172.255 Y94.764
;TYPE:WALL-OUTER
G1 F1800 X172.255 Y115.236 E19.71024
G1 X170.803 Y116.688 E19.76147
G1 X79.197 Y116.688 E22.04659
G1 X77.745 Y115.236 E22.09781
G1 X77.745 Y94.764 E22.60849
G1 X79.197 Y93.312 E22.65971
G1 X170.803 Y93.312 E24.94483
G1 X172.255 Y94.764 E24.99605
G0 F3600 X172.255 Y94.964
G0 X171.755 Y94.964
G0 X169.082 Y94.764
G0 X167.885 Y94.731
G0 X167.95 Y95.227
G1 F1800 X167.479 Y95.422 E25.00877
G1 X167.074 Y95.732 E25.02149
G1 X166.764 Y96.136 E25.03419
G1 X166.569 Y96.607 E25.04691
G1 X166.503 Y97.112 E25.05962
G1 X166.569 Y97.617 E25.07232
G1 X166.764 Y98.088 E25.08504
G1 X167.074 Y98.493 E25.09776
G1 X167.479 Y98.803 E25.11048
G1 X167.95 Y98.998 E25.1232
G1 X168.455 Y99.064 E25.1359
G1 X168.96 Y98.998 E25.14861
G1 X169.431 Y98.803 E25.16132
G1 X169.835 Y98.493 E25.17403
G1 X170.145 Y98.088 E25.18675
G1 X170.34 Y97.617 E25.19946
G1 X170.407 Y97.112 E25.21217
G1 X170.34 Y96.607 E25.22488
G1 X170.145 Y96.136 E25.2376
G1 X169.835 Y95.732 E25.2503
G1 X169.431 Y95.422 E25.263
G1 X168.96 Y95.227 E25.27572
G1 X168.455 Y95.16 E25.28843
G1 X167.95 Y95.227 E25.30113
G0 F3600 X167.765 Y95.303
G0 X167.574 Y94.841
G0 X166.761 Y95.419
G0 X166.381 Y95.914
G0 X166.141 Y96.493
G0 X166.077 Y96.994
G0 X167.887 Y110.506
G0 X167.95 Y111.002
G1 F1800 X167.479 Y111.197 E25.31385
G1 X167.074 Y111.507 E25.32657
G1 X166.764 Y111.912 E25.33929
G1 X166.569 Y112.383 E25.35201
G1 X166.503 Y112.888 E25.36472
G1 X166.569 Y113.393 E25.37742
G1 X166.764 Y113.864 E25.39014
G1 X167.074 Y114.268 E25.40284
G1 X167.479 Y114.578 E25.41556
G1 X167.95 Y114.773 E25.42828
G1 X168.455 Y114.84 E25.44099
G1 X168.96 Y114.773 E25.45369
G1 X169.431 Y114.578 E25.46641
G1 X169.835 Y114.268 E25.47911
G1 X170.145 Y113.864 E25.49182
G1 X170.34 Y113.393 E25.50453
G1 X170.407 Y112.888 E25.51724
G1 X170.34 Y112.383 E25.52995
G1 X170.145 Y111.912 E25.54266
G1 X169.835 Y111.507 E25.55539
G1 X169.431 Y111.197 E25.56809
G1 X168.96 Y111.002 E25.5808
G1 X168.455 Y110.936 E25.59351
G1 X167.95 Y111.002 E25.60621
G0 F3600 X167.765 Y111.078
G0 X167.574 Y110.616
G0 X86.896 Y109.524
G0 X84.909 Y107.537
G0 X84.909 Y102.463
G0 X86.896 Y100.476
G0 X87.077 Y100.412
G0 X87.077 Y100.912
G1 F1800 X85.345 Y102.644 E25.66731
G1 X85.345 Y107.356 E25.78486
G1 X87.077 Y109.088 E25.84596
G1 X162.923 Y109.088 E27.73794
G1 X164.655 Y107.356 E27.79904
G1 X164.655 Y102.644 E27.91659
G1 X162.923 Y100.912 E27.97769
G1 X87.077 Y100.912 E29.86967
G0 F3600 X86.936 Y101.053
G0 X86.584 Y100.699
G0 X83.619 Y95.914
G0 X83.239 Y95.419
G0 X82.741 Y95.038
G0 X82.165 Y94.799
G0 X81.814 Y94.753
G0 X80.975 Y94.731
G0 X81.04 Y95.227
G1 F1800 X80.569 Y95.422 E29.88239
G1 X80.165 Y95.732 E29.89509
G1 X79.855 Y96.136 E29.90779
G1 X79.66 Y96.607 E29.92051
G1 X79.593 Y97.112 E29.93322
G1 X79.66 Y97.617 E29.94593
G1 X79.855 Y98.088 E29.95864
G1 X80.165 Y98.493 E29.97136
G1 X80.569 Y98.803 E29.98407
G1 X81.04 Y98.998 E29.99678
G1 X81.545 Y99.064 E30.00949
G1 X82.05 Y98.998 E30.02219
G1 X82.521 Y98.803 E30.03491
G1 X82.926 Y98.493 E30.04763
G1 X83.236 Y98.088 E30.06035
G1 X83.431 Y97.617 E30.07307
G1 X83.497 Y97.112 E30.08578
G1 X83.431 Y96.607 E30.09848
G1 X83.236 Y96.136 E30.1112
G1 X82.926 Y95.732 E30.1239
G1 X82.521 Y95.422 E30.13662
G1 X82.05 Y95.227 E30.14934
G1 X81.545 Y95.16 E30.16205
G1 X81.04 Y95.227 E30.17475
G0 F3600 X80.855 Y95.303
G0 X80.665 Y94.841
G0 X79.852 Y95.419
G0 X79.472 Y95.914
G0 X79.232 Y96.492
G0 X79.166 Y96.994
G0 X80.85 Y110.54
G0 X81.04 Y111.002
G1 F1800 X80.569 Y111.197 E30.18747
G1 X80.165 Y111.507 E30.20017
G1 X79.855 Y111.912 E30.21289
G1 X79.66 Y112.383 E30.22561
G1 X79.593 Y112.888 E30.23832
G1 X79.66 Y113.393 E30.25103
G1 X79.855 Y113.864 E30.26374
G1 X80.165 Y114.268 E30.27645
G1 X80.569 Y114.578 E30.28915
G1 X81.04 Y114.773 E30.30186
G1 X81.545 Y114.84 E30.31457
G1 X82.05 Y114.773 E30.32728
G1 X82.521 Y114.578 E30.34
G1 X82.926 Y114.268 E30.35272
G1 X83.236 Y113.864 E30.36542
G1 X83.431 Y113.393 E30.37814
G1 X83.497 Y112.888 E30.39084
G1 X83.431 Y112.383 E30.40355
G1 X83.236 Y111.912 E30.41626
G1 X82.926 Y111.507 E30.42899
G1 X82.521 Y111.197 E30.44171
G1 X82.05 Y111.002 E30.45442
G1 X81.545 Y110.936 E30.46713
G1 X81.04 Y111.002 E30.47983
G0 F3600 X80.855 Y111.078
G0 X80.665 Y110.616
G0 X80.835 Y110.232
;TYPE:SKIN
G1 F1800 X80.17 Y110.507 E30.49778
G1 X79.601 Y110.944 E30.51568
G1 X79.164 Y111.514 E30.5336
G1 X78.89 Y112.176 E30.55147
G1 X78.795 Y112.888 E30.56939
G1 X78.89 Y113.6 E30.58731
G1 X79.165 Y114.263 E30.60521
G1 X79.601 Y114.832 E30.62309
G1 X80.17 Y115.268 E30.64097
G1 X80.833 Y115.543 E30.65888
G1 X81.545 Y115.638 E30.6768
G1 X82.257 Y115.543 E30.69472
G1 X82.919 Y115.269 E30.71259
G1 X83.489 Y114.832 E30.7305
G1 X83.926 Y114.263 E30.7484
G1 X84.201 Y113.598 E30.76635
G1 X84.294 Y112.888 E30.78421
G1 X84.201 Y112.178 E30.80208
G1 X83.927 Y111.514 E30.82
G1 X83.49 Y110.943 E30.83793
G1 X82.919 Y110.506 E30.85587
G1 X82.255 Y110.232 E30.87379
G1 X81.545 Y110.139 E30.89165
G1 X80.835 Y110.232 E30.90951
G0 F3600 X84.555 Y107.684
G1 F1800 X86.749 Y109.878 E30.98691
G1 X163.251 Y109.878 E32.89526
G1 X165.445 Y107.684 E32.97266
G1 X165.445 Y102.316 E33.10656
G1 X163.251 Y100.122 E33.18396
G1 X86.749 Y100.122 E35.09231
G1 X84.555 Y102.316 E35.16971
G1 X84.555 Y107.684 E35.30362
G0 F3600 X81.545 Y99.861
G1 F1800 X82.255 Y99.768 E35.32148
G1 X82.919 Y99.494 E35.3394
G1 X83.49 Y99.057 E35.35734
G1 X83.927 Y98.486 E35.37527
G1 X84.201 Y97.822 E35.39319
G1 X84.294 Y97.112 E35.41105
G1 X84.201 Y96.402 E35.42892
G1 X83.926 Y95.737 E35.44687
G1 X83.489 Y95.168 E35.46476
G1 X82.919 Y94.731 E35.48268
G1 X82.257 Y94.457 E35.50055
G1 X81.545 Y94.362 E35.51847
G1 X80.833 Y94.457 E35.53639
G1 X80.17 Y94.732 E35.55429
G1 X79.601 Y95.168 E35.57217
G1 X79.165 Y95.737 E35.59006
G1 X78.89 Y96.4 E35.60796
G1 X78.795 Y97.112 E35.62588
G1 X78.89 Y97.824 E35.6438
G1 X79.164 Y98.486 E35.66167
G1 X79.601 Y99.056 E35.67959
G1 X80.17 Y99.493 E35.69748
G1 X80.835 Y99.768 E35.71543
G1 X81.545 Y99.861 E35.7333
G0 F3600 X78.535 Y114.91
G1 F1800 X78.535 Y95.09 E36.22771
G1 X79.523 Y94.102 E36.26256
G1 X170.477 Y94.102 E38.53142
G1 X171.465 Y95.09 E38.56627
G1 X171.465 Y114.91 E39.06069
G1 X170.477 Y115.898 E39.09554
G1 X79.523 Y115.898 E41.3644
G1 X78.535 Y114.91 E41.39925
G0 F3600 X81.545 Y115.284
G0 X165.706 Y112.888
G1 F1800 X165.799 Y113.598 E41.41711
G1 X166.074 Y114.263 E41.43506
G1 X166.511 Y114.832 E41.45296
G1 X167.081 Y115.269 E41.47088
G1 X167.743 Y115.543 E41.48875
G1 X168.455 Y115.638 E41.50667
G1 X169.167 Y115.543 E41.52459
G1 X169.83 Y115.268 E41.54249
G1 X170.399 Y114.832 E41.56037
G1 X170.835 Y114.263 E41.57826
G1 X171.11 Y113.6 E41.59616
G1 X171.205 Y112.888 E41.61408
G1 X171.11 Y112.176 E41.632
G1 X170.836 Y111.514 E41.64987
G1 X170.399 Y110.944 E41.66779
G1 X169.83 Y110.507 E41.68568
G1 X169.165 Y110.232 E41.70363
G1 X168.455 Y110.139 E41.7215
G1 X167.745 Y110.232 E41.73936
G1 X167.081 Y110.506 E41.75728
G1 X166.51 Y110.943 E41.77521
G1 X166.073 Y111.514 E41.79315
G1 X165.799 Y112.178 E41.81107
G1 X165.706 Y112.888 E41.82893
G0 F3600 X165.799 Y97.822
G1 F1800 X166.073 Y98.486 E41.84685
G1 X166.51 Y99.057 E41.86478
G1 X167.081 Y99.494 E41.88272
G1 X167.745 Y99.768 E41.90064
G1 X168.455 Y99.861 E41.9185
G1 X169.165 Y99.768 E41.93636
G1 X169.83 Y99.493 E41.95431
G1 X170.399 Y99.056 E41.97221
G1 X170.836 Y98.486 E41.99013
G1 X171.11 Y97.824 E42.008
G1 X171.205 Y97.112 E42.02592
G1 X171.11 Y96.4 E42.04384
G1 X170.835 Y95.737 E42.06174
G1 X170.399 Y95.168 E42.07962
G1 X169.83 Y94.732 E42.09751
G1 X169.167 Y94.457 E42.11541
G1 X168.455 Y94.362 E42.13333
G1 X167.743 Y94.457 E42.15125
G1 X167.081 Y94.731 E42.16912
G1 X166.511 Y95.168 E42.18704
G1 X166.074 Y95.737 E42.20493
G1 X165.799 Y96.402 E42.22288
G1 X165.706 Y97.112 E42.24075
G1 X165.799 Y97.822 E42.25861
G0 F3600 X166.141 Y96.493
G0 X166.381 Y95.914
G0 X166.761 Y95.419
G0 X167.259 Y95.038
G0 X167.725 Y94.845
G0 X170.083 Y94.282
G1 F1800 X171.283 Y95.482 E42.30094
G1 X171.353 Y95.552
G0 F3600 X171.07 Y95.834
G1 F1800 X171.283 Y96.047 E42.30846
G0 F3600 X171.155 Y98.182
G0 X171.219 Y98.246
G1 F1800 X171.136 Y98.728 E42.3159
G1 X171.013 Y99.171 E42.33066
G0 F3600 X171.284 Y100.008
G1 F1800 X170.489 Y99.213 E42.35871
G1 X170.419 Y99.143
G0 F3600 X170.17 Y99.459
G1 F1800 X171.284 Y100.573 E42.39801
G1 X171.354 Y100.643
G0 F3600 X171.284 Y101.139
G1 F1800 X169.832 Y99.687 E42.44923
G1 X169.762 Y99.617
G0 F3600 X169.431 Y99.852
G1 F1800 X171.284 Y101.705 E42.5146
G1 X171.354 Y101.775
G0 F3600 X171.284 Y102.27
G1 F1800 X168.987 Y99.973 E42.59563
G1 X168.917 Y99.903
G0 F3600 X168.486 Y100.038
G1 F1800 X171.284 Y102.836 E42.69434
G1 X171.354 Y102.906
G0 F3600 X171.284 Y103.402
G1 F1800 X167.845 Y99.962 E42.81568
G1 X167.775 Y99.892
G0 F3600 X166.899 Y99.583
G1 F1800 X171.284 Y103.968 E42.97037
G1 X171.354 Y104.038
G0 F3600 X171.284 Y104.533
G1 F1800 X161.032 Y94.282 E43.33202
G1 X160.962 Y94.212
G0 F3600 X160.467 Y94.282
G1 F1800 X171.284 Y105.099 E43.71362
G1 X171.354 Y105.169
G0 F3600 X171.284 Y105.665
G1 F1800 X159.901 Y94.282 E44.11519
G1 X159.831 Y94.212
G0 F3600 X159.335 Y94.282
G1 F1800 X171.284 Y106.23 E44.5367
G1 X171.354 Y106.3
G0 F3600 X171.284 Y106.796
G1 F1800 X158.77 Y94.282 E44.97817
G1 X158.7 Y94.212
G0 F3600 X158.204 Y94.282
