;FLAVOR:Repetier
;TIME:20026
;Generated with Cura_SteamEngine 3.1.0
M82 ; absolute extrusion mode
G21 ; set units to millimeters
G90 ; use absolute positioning
M82 ; absolute extrusion mode
M104 S210 ; set extruder temp
M140 S60.0 ; set bed temp
M190 S60.0 ; wait for bed temp
M109 S210 ; wait for extruder temp
G28 W ; home all without mesh bed level
G80 ; mesh bed leveling
G92 E0.0 ; reset extruder distance position
G1 Y-3.0 F1000.0 ; go outside print area
G1 X60.0 E9.0 F1000.0 ; intro line
G1 X100.0 E21.5 F1000.0 ; intro line
G92 E0.0 ; reset extruder distance position
;LAYER_COUNT:54
;LAYER:0
M107
G0 F3600 X31.684 Y23.235 Z0.15
;TYPE:SKIRT
G1 F1800 X31.717 Y23.203 E0.00115
G1 X32.2 Y22.733 E0.01796
G1 X32.589 Y22.41 E0.03057
G1 X33.024 Y22.152 E0.04319
G1 X33.495 Y21.966 E0.05582
G1 X33.988 Y21.857 E0.06841
G1 X34.432 Y21.826 E0.07952
G1 X215.564 Y21.825 E4.59787
G1 X216.068 Y21.865 E4.61048
G1 X216.559 Y21.984 E4.62309
G1 X217.026 Y22.178 E4.6357
G1 X217.456 Y22.444 E4.64831
G1 X217.83 Y22.766 E4.66063
G1 X227.23 Y32.195 E4.99275
G1 X227.558 Y32.58 E5.00536
G1 X227.821 Y33.012 E5.01798
G1 X228.012 Y33.48 E5.03059
G1 X228.127 Y33.972 E5.04319
G1 X228.164 Y34.454 E5.05525
G1 X228.175 Y175.565 E8.57528
G1 X228.135 Y176.069 E8.58789
G1 X228.016 Y176.56 E8.6005
G1 X227.822 Y177.027 E8.61311
G1 X227.556 Y177.457 E8.62572
G1 X227.238 Y177.828 E8.63791
G1 X217.838 Y187.23 E8.96956
G1 X217.453 Y187.558 E8.98217
G1 X217.022 Y187.821 E8.99477
G1 X216.554 Y188.013 E9.00739
G1 X216.062 Y188.13 E9.02
G1 X215.575 Y188.167 E9.03219
G1 X34.439 Y188.175 E13.55064
G1 X33.935 Y188.135 E13.56325
G1 X33.444 Y188.016 E13.57586
G1 X32.977 Y187.822 E13.58847
G1 X32.547 Y187.556 E13.60108
G1 X32.177 Y187.238 E13.61325
G1 X22.763 Y177.829 E13.94527
G1 X22.435 Y177.445 E13.95787
G1 X22.171 Y177.013 E13.9705
G1 X21.979 Y176.546 E13.98309
G1 X21.862 Y176.054 E13.99571
G1 X21.825 Y175.566 E14.00792
G1 X21.825 Y34.435 E17.52844
G1 X21.865 Y33.931 E17.54105
G1 X21.984 Y33.44 E17.55366
G1 X22.178 Y32.973 E17.56627
G1 X22.444 Y32.543 E17.57888
G1 X22.76 Y32.174 E17.591
G1 X31.684 Y23.235 E17.90609
G1 F2100 E17.10609
G0 F3600 X34.405 Y24.388
G0 X34.445 Y24.404
G0 X130.859 Y65.24
G0 X130.9 Y65.256
G0 X133.241 Y66.249
G0 X134.517 Y66.249
G0 X140.072 Y68.295
G0 X140.172 Y68.295
;TYPE:WALL-INNER
G1 F2100 E17.90609
G1 F1800 X134.506 Y70.399 E18.05686
G1 X134.506 Y66.233 E18.16078
G1 X140.172 Y68.295 E18.31118
G0 F3600 X140.072 Y68.295
G0 X141.331 Y68.291
;TYPE:WALL-OUTER
G1 F1800 X134.106 Y70.974 E18.50344
G1 X134.106 Y65.662 E18.63595
G1 X141.331 Y68.291 E18.82774
G0 F3600 X141.144 Y68.36
G0 X140.072 Y68.295
G0 X139.042 Y68.299
;TYPE:SKIN
G1 F1800 X134.896 Y69.839 E18.93806
G1 X134.896 Y66.791 E19.01409
G1 X139.042 Y68.299 E19.12415
G0 F3600 X138.433 Y68.288
G1 F1800 X137.783 Y68.204 E19.13477
G0 F3600 X137.641 Y68.627
G1 F1800 X136.625 Y67.611 E19.17062
G1 X136.555 Y67.541
G0 F3600 X135.735 Y67.287
G1 F1800 X137.228 Y68.78 E19.22328
G1 X137.298 Y68.85
G0 F3600 X136.815 Y68.933
G1 F1800 X135.075 Y67.192 E19.28469
G1 X135.005 Y67.122
G0 F3600 X135.075 Y67.758
G1 F1800 X136.403 Y69.087 E19.33155
G1 X136.473 Y69.157
G0 F3600 X135.991 Y69.24
G1 F1800 X135.075 Y68.324 E19.36387
G1 X135.005 Y68.254
G0 F3600 X135.327 Y69.141
G1 F1800 X135.12 Y69.5 E19.37436
G0 F3600 X135.075 Y69.455
G1 F2100 E18.57436
G0 F3600 X134.517 Y70.383
G0 X134.96 Y71.578
G0 X134.993 Y74.75
G0 X134.993 Y74.794
G0 X135.069 Y81.967
G0 X126.026 Y82.036
G0 X134.211 Y85.011
G0 X135.103 Y85.216
G0 X135.185 Y92.883
G0 X135.185 Y92.927
G0 X135.217 Y95.767
G0 X135.137 Y97.043
G0 X135.167 Y97.131
G0 X135.179 Y97.032
;TYPE:WALL-INNER
G1 F2100 E19.37436
G1 F1800 X135.383 Y97.071 E19.37954
G1 X135.764 Y97.144 E19.38922
G1 X136.304 Y97.39 E19.40402
G1 X136.804 Y97.715 E19.41889
G1 X137.137 Y98.098 E19.43155
G1 X137.39 Y98.508 E19.44357
G1 X137.522 Y98.975 E19.45568
G1 X137.584 Y99.496 E19.46877
G1 X137.524 Y99.977 E19.48086
G1 X137.396 Y100.426 E19.4925
G1 X137.154 Y100.822 E19.50408
G1 X136.839 Y101.193 E19.51622
G1 X136.339 Y101.527 E19.53122
G1 X135.789 Y101.785 E19.54638
G1 X135.383 Y101.87 E19.55672
G1 X135.173 Y101.913 E19.56207
G1 X135.124 Y101.917 E19.5633
G1 X135.124 Y101.702 E19.56684
G1 X135.124 Y97.237 E19.67822
G1 X135.124 Y97.029 E19.68169
G1 X135.179 Y97.032 E19.68306
G0 F3600 X134.935 Y96.616
;TYPE:WALL-OUTER
G1 F1800 X135.232 Y96.635 E19.69049
G1 X135.886 Y96.76 E19.7071
G1 X136.495 Y97.037 E19.72379
G1 X137.07 Y97.411 E19.7409
G1 X137.459 Y97.86 E19.75572
G1 X137.76 Y98.347 E19.77
G1 X137.915 Y98.895 E19.7842
G1 X137.987 Y99.497 E19.79933
G1 X137.917 Y100.06 E19.81348
G1 X137.766 Y100.587 E19.82716
G1 X137.478 Y101.058 E19.84093
G1 X137.11 Y101.492 E19.85512
G1 X136.533 Y101.878 E19.87244
G1 X135.914 Y102.168 E19.88949
G1 X135.232 Y102.31 E19.90687
G1 X134.94 Y102.335 E19.91418
G1 X134.724 Y102.352 E19.91958
G1 X134.724 Y102.136 E19.92299
G1 X134.724 Y102.135 E19.92302
G1 X134.724 Y96.815 E20.05573
G1 X134.724 Y96.814 E20.05575
G1 X134.724 Y96.603 E20.06102
G1 X134.935 Y96.616 E20.06437
G0 F3600 X135.135 Y96.628
G0 X135.192 Y97.101
G0 X135.514 Y97.493
;TYPE:SKIN
G1 F1800 X135.644 Y97.518 E20.06767
G1 X136.115 Y97.733 E20.08059
G1 X136.546 Y98.013 E20.09341
G1 X136.821 Y98.328 E20.10384
G1 X137.03 Y98.668 E20.1138
G1 X137.137 Y99.044 E20.12355
G1 X137.191 Y99.498 E20.13495
G1 X137.141 Y99.9 E20.14506
G1 X137.036 Y100.268 E20.1546
G1 X136.836 Y100.596 E20.16419
G1 X136.579 Y100.898 E20.17408
G1 X136.145 Y101.188 E20.1871
G1 X135.667 Y101.411 E20.20026
G1 X135.514 Y101.443 E20.20416
G1 X135.514 Y97.493 E20.30269
G0 F3600 X135.693 Y98.357
G1 F1800 X136.99 Y99.655 E20.34846
G1 X137.06 Y99.725
G0 F3600 X136.89 Y100.12
G1 F1800 X135.693 Y98.923 E20.39069
G1 X135.623 Y98.853
G0 F3600 X135.693 Y99.489
G1 F1800 X136.69 Y100.486 E20.42586
G1 X136.76 Y100.556
G0 F3600 X136.422 Y100.784
G1 F1800 X135.693 Y100.054 E20.4516
G1 X135.623 Y99.984
G0 F3600 X135.693 Y100.62
G1 F1800 X136.083 Y101.01 E20.46535
G0 F3600 X136.952 Y99.051
G1 F1800 X135.693 Y97.792 E20.50977
G1 X135.623 Y97.722
G1 F2100 E19.70977
G0 F3600 X135.137 Y101.903
G0 X135.242 Y103.176
G0 X134.934 Y105.834
G0 X134.93 Y105.878
G0 X134.481 Y109.769
G0 X134.477 Y109.813
G0 X134.143 Y112.713
G0 X134.07 Y113.994
G0 X134.061 Y114.074
G0 X134.072 Y113.975
;TYPE:WALL-INNER
G1 F2100 E20.50977
G1 F1800 X134.903 Y114.126 E20.53084
G1 X135.649 Y114.45 E20.55113
G1 X136.355 Y114.891 E20.57189
G1 X136.781 Y115.372 E20.58792
G1 X137.117 Y115.901 E20.60355
G1 X137.295 Y116.503 E20.61921
G1 X137.377 Y117.149 E20.63546
G1 X137.295 Y117.797 E20.65175
G1 X137.119 Y118.39 E20.66718
G1 X136.785 Y118.912 E20.68264
G1 X136.355 Y119.392 E20.69871
G1 X135.654 Y119.832 E20.71936
G1 X134.914 Y120.156 E20.73951
G1 X134.099 Y120.306 E20.76018
G1 X133.212 Y120.359 E20.78235
G1 X132.32 Y120.31 E20.80463
G1 X131.488 Y120.159 E20.82573
G1 X130.723 Y119.831 E20.84649
G1 X130.013 Y119.391 E20.86732
G1 X129.586 Y118.912 E20.88333
G1 X129.252 Y118.39 E20.89879
G1 X129.076 Y117.797 E20.91422
G1 X128.994 Y117.149 E20.93051
G1 X129.076 Y116.503 E20.94676
G1 X129.254 Y115.901 E20.96242
G1 X129.59 Y115.372 E20.97805
G1 X130.016 Y114.891 E20.99408
G1 X130.722 Y114.45 E21.01484
G1 X131.468 Y114.126 E21.03513
G1 X132.299 Y113.975 E21.0562
G1 X133.185 Y113.925 E21.07834
G1 X134.072 Y113.975 E21.1005
G0 F3600 X134.125 Y113.578
;TYPE:WALL-OUTER
G1 F1800 X135.018 Y113.74 E21.12314
G1 X135.835 Y114.095 E21.14536
G1 X136.617 Y114.583 E21.16835
G1 X137.103 Y115.132 E21.18664
G1 X137.485 Y115.733 E21.20441
G1 X137.688 Y116.42 E21.22228
G1 X137.781 Y117.149 E21.24061
G1 X137.688 Y117.876 E21.25889
G1 X137.485 Y118.56 E21.27669
G1 X137.105 Y119.154 E21.29428
G1 X136.615 Y119.702 E21.31262
G1 X135.847 Y120.184 E21.33524
G1 X135.031 Y120.541 E21.35745
G1 X134.147 Y120.704 E21.37988
G1 X133.214 Y120.759 E21.40319
G1 X132.267 Y120.707 E21.42685
G1 X131.371 Y120.545 E21.44956
G1 X130.539 Y120.188 E21.47215
G1 X129.753 Y119.7 E21.49523
G1 X129.266 Y119.154 E21.51348
G1 X128.886 Y118.56 E21.53107
G1 X128.683 Y117.876 E21.54886
G1 X128.59 Y117.149 E21.56715
G1 X128.683 Y116.42 E21.58548
G1 X128.886 Y115.733 E21.60335
G1 X129.268 Y115.132 E21.62111
G1 X129.754 Y114.583 E21.6394
G1 X130.536 Y114.095 E21.6624
G1 X131.353 Y113.74 E21.68462
G1 X132.246 Y113.578 E21.70726
G1 X133.185 Y113.525 E21.73072
G1 X134.125 Y113.578 E21.7542
G0 F3600 X134.321 Y113.613
G0 X134.232 Y114.105
G0 X134.029 Y114.363
;TYPE:SKIN
G1 F1800 X134.792 Y114.502 E21.77355
G1 X135.462 Y114.794 E21.79178
G1 X136.101 Y115.192 E21.81056
G1 X136.47 Y115.61 E21.82447
G1 X136.758 Y116.063 E21.83786
G1 X136.914 Y116.59 E21.85157
G1 X136.984 Y117.145 E21.86552
G1 X136.912 Y117.716 E21.87988
G1 X136.76 Y118.229 E21.89323
G1 X136.474 Y118.676 E21.90646
G1 X136.101 Y119.091 E21.92038
G1 X135.472 Y119.486 E21.93891
G1 X134.802 Y119.78 E21.95716
G1 X134.055 Y119.918 E21.97611
G1 X133.21 Y119.967 E21.99723
G1 X132.364 Y119.922 E22.01836
G1 X131.603 Y119.783 E22.03766
G1 X130.896 Y119.48 E22.05684
G1 X130.267 Y119.09 E22.07531
G1 X129.897 Y118.675 E22.08918
G1 X129.611 Y118.229 E22.10239
G1 X129.459 Y117.716 E22.11574
G1 X129.387 Y117.145 E22.1301
G1 X129.457 Y116.59 E22.14405
G1 X129.613 Y116.063 E22.15776
G1 X129.901 Y115.61 E22.17115
G1 X130.27 Y115.192 E22.18506
G1 X130.909 Y114.794 E22.20384
G1 X131.579 Y114.502 E22.22207
G1 X132.342 Y114.363 E22.24142
G1 X133.185 Y114.317 E22.26248
G1 X134.029 Y114.363 E22.28356
G0 F3600 X135.273 Y114.909
G1 F1800 X136.63 Y116.265 E22.33141
G1 X136.7 Y116.335
G0 F3600 X136.782 Y116.983
G1 F1800 X134.416 Y114.617 E22.41488
G1 X134.346 Y114.547
G0 F3600 X133.762 Y114.529
G1 F1800 X136.755 Y117.522 E22.52047
G1 X136.825 Y117.592
G0 F3600 X136.646 Y117.978
G1 F1800 X133.167 Y114.499 E22.6432
G1 X133.097 Y114.429
G0 F3600 X132.629 Y114.527
G1 F1800 X136.462 Y118.36 E22.77842
G1 X136.532 Y118.43
G0 F3600 X136.222 Y118.685
G1 F1800 X132.122 Y114.585 E22.92306
G1 X132.052 Y114.515
G0 F3600 X131.643 Y114.672
G1 F1800 X135.945 Y118.974 E23.07482
G1 X136.015 Y119.044
G0 F3600 X135.598 Y119.193
G1 F1800 X131.247 Y114.842 E23.22831
G1 X131.177 Y114.772
G0 F3600 X130.87 Y115.031
G1 F1800 X135.232 Y119.393 E23.3822
G1 X135.302 Y119.463
G0 F3600 X134.839 Y119.566
G1 F1800 X130.522 Y115.248 E23.53451
G1 X130.452 Y115.178
G0 F3600 X130.222 Y115.515
G1 F1800 X134.381 Y119.673 E23.68121
G1 X134.451 Y119.743
G0 F3600 X133.888 Y119.746
G1 F1800 X129.972 Y115.83 E23.81936
G1 X129.902 Y115.76
G0 F3600 X129.763 Y116.186
G1 F1800 X133.353 Y119.777 E23.94602
G1 X133.423 Y119.847
G0 F3600 X132.773 Y119.762
G1 F1800 X129.633 Y116.623 E24.05678
G1 X129.563 Y116.553
G0 F3600 X129.569 Y117.124
G1 F1800 X132.143 Y119.698 E24.14758
G1 X132.213 Y119.768
G0 F3600 X131.364 Y119.484
G1 F1800 X129.667 Y117.787 E24.20745
G1 X129.597 Y117.717
G1 F2100 E23.40745
G0 F3600 X132.322 Y120.291
G0 X132.25 Y121.572
G0 X133.791 Y124.523
G0 X133.811 Y124.562
G0 X136.166 Y129.067
G0 X136.186 Y129.106
G0 X137.787 Y132.167
G0 X137.787 Y133.446
G0 X142.595 Y135.708
G0 X142.694 Y135.709
;TYPE:WALL-INNER
G1 F2100 E24.20745
G1 F1800 X142.677 Y136.48 E24.22668
G1 X142.627 Y137.236 E24.24558
G1 X142.554 Y137.96 E24.26374
G1 X142.441 Y138.368 E24.2743
G1 X142.287 Y138.74 E24.28434
G1 X142.061 Y139.066 E24.29424
G1 X141.791 Y139.366 E24.3043
G1 X141.443 Y139.606 E24.31485
G1 X141.084 Y139.783 E24.32483
G1 X140.685 Y139.872 E24.33503
G1 X140.248 Y139.911 E24.34598
G1 X139.883 Y139.882 E24.35511
G1 X139.542 Y139.816 E24.36377
G1 X139.218 Y139.684 E24.3725
G1 X138.914 Y139.516 E24.38116
G1 X138.642 Y139.29 E24.38999
G1 X138.409 Y139.045 E24.39842
G1 X138.229 Y138.761 E24.40681
G1 X138.082 Y138.461 E24.41514
G1 X137.92 Y137.697 E24.43462
G1 X137.812 Y136.91 E24.45444
G1 X137.772 Y136.068 E24.47547
G1 X137.773 Y133.432 E24.54122
G1 X142.693 Y133.432 E24.66395
G1 X142.694 Y135.709 E24.72075
G0 F3600 X143.094 Y135.718
;TYPE:WALL-OUTER
G1 F1800 X143.077 Y136.493 E24.74009
G1 X143.025 Y137.276 E24.75966
G1 X142.949 Y138.032 E24.77862
G1 X142.82 Y138.497 E24.79065
G1 X142.639 Y138.933 E24.80243
G1 X142.377 Y139.312 E24.81392
G1 X142.056 Y139.669 E24.8259
G1 X141.643 Y139.954 E24.83842
G1 X141.221 Y140.162 E24.85015
G1 X140.747 Y140.268 E24.86227
G1 X140.246 Y140.312 E24.87481
G1 X139.828 Y140.279 E24.88527
G1 X139.426 Y140.201 E24.89549
G1 X139.052 Y140.049 E24.90556
G1 X138.684 Y139.846 E24.91604
G1 X138.369 Y139.584 E24.92626
G1 X138.093 Y139.294 E24.93625
G1 X137.88 Y138.959 E24.94615
G1 X137.702 Y138.594 E24.95628
G1 X137.526 Y137.767 E24.97738
G1 X137.412 Y136.938 E24.99825
G1 X137.372 Y136.087 E25.0195
G1 X137.373 Y133.032 E25.09571
G1 X143.093 Y133.032 E25.23839
G1 X143.094 Y135.718 E25.3054
G0 F3600 X143.09 Y135.918
G0 X142.59 Y135.907
G0 X142.304 Y135.701
;TYPE:SKIN
G1 F1800 X142.287 Y136.454 E25.32419
G1 X142.237 Y137.21 E25.34308
G1 X142.17 Y137.887 E25.36006
G1 X142.072 Y138.238 E25.36915
G1 X141.94 Y138.557 E25.37776
G1 X141.758 Y138.819 E25.38572
G1 X141.532 Y139.071 E25.39416
G1 X141.238 Y139.273 E25.40306
G1 X140.955 Y139.413 E25.41093
G1 X140.627 Y139.486 E25.41932
G1 X140.244 Y139.521 E25.42891
G1 X139.943 Y139.496 E25.43644
G1 X139.652 Y139.44 E25.44384
G1 X139.387 Y139.332 E25.45097
G1 X139.135 Y139.192 E25.45817
G1 X138.908 Y139.004 E25.46552
G1 X138.718 Y138.804 E25.4724
G1 X138.572 Y138.576 E25.47915
G1 X138.454 Y138.333 E25.48589
G1 X138.302 Y137.617 E25.50415
G1 X138.202 Y136.883 E25.52263
G1 X138.162 Y136.068 E25.54298
G1 X138.163 Y133.822 E25.59901
G1 X142.303 Y133.822 E25.70228
G1 X142.304 Y135.701 E25.74915
G0 F3600 X142.122 Y134.203
G1 F1800 X141.921 Y134.001 E25.75626
G0 F3600 X141.355 Y134.001
G1 F1800 X142.122 Y134.768 E25.78332
G1 X142.192 Y134.838
G0 F3600 X142.123 Y135.335
G1 F1800 X140.789 Y134.001 E25.83038
G1 X140.719 Y133.931
G0 F3600 X140.224 Y134.001
G1 F1800 X142.119 Y135.896 E25.89723
G1 X142.189 Y135.966
G0 F3600 X142.105 Y136.448
G1 F1800 X139.658 Y134.001 E25.98356
G1 X139.588 Y133.931
G0 F3600 X139.092 Y134.001
G1 F1800 X142.071 Y136.98 E26.08865
G1 X142.141 Y137.05
G0 F3600 X142.026 Y137.501
G1 F1800 X138.527 Y134.001 E26.2121
G1 X138.457 Y133.931
G0 F3600 X138.341 Y134.381
G1 F1800 X141.953 Y137.993 E26.33953
G1 X142.023 Y138.063
G0 F3600 X141.805 Y138.411
G1 F1800 X138.341 Y134.947 E26.46173
G1 X138.271 Y134.877
G0 F3600 X138.341 Y135.512
G1 F1800 X141.577 Y138.749 E26.57591
G1 X141.647 Y138.819
G0 F3600 X141.284 Y139.021
G1 F1800 X138.341 Y136.078 E26.67973
G1 X138.271 Y136.008
G0 F3600 X138.371 Y136.674
G1 F1800 X140.924 Y139.227 E26.76979
G1 X140.994 Y139.297
G0 F3600 X140.451 Y139.32
G1 F1800 X138.44 Y137.309 E26.84074
G1 X138.37 Y137.239
G0 F3600 X138.566 Y138
G1 F1800 X139.863 Y139.297 E26.88649
G1 X139.933 Y139.367
G1 F2100 E26.08649
G0 F3600 X138.424 Y139.033
G0 X137.341 Y139.721
G0 X134.626 Y140.58
G0 X133.426 Y140.978
G0 X124.703 Y147.772
G0 X124.773 Y147.842
;TYPE:WALL-INNER
G1 F2100 E26.88649
G1 F1800 X124.773 Y153.397 E27.02506
G1 X147.542 Y153.397 E27.59304
G1 X147.542 Y147.842 E27.73161
G1 X124.773 Y147.842 E28.29958
G0 F3600 X124.703 Y147.772
G0 X124.703 Y127.808
G0 X124.773 Y127.878
G1 F1800 X124.773 Y133.432 E28.43813
G1 X132.909 Y133.432 E28.64108
G1 X132.909 Y135.675 E28.69703
G1 X132.919 Y136.82 E28.72559
G1 X132.963 Y137.977 E28.75448
G1 X133.07 Y139.133 E28.78344
G1 X133.23 Y140.315 E28.81319
G1 X133.426 Y140.978 E28.83044
G1 X133.666 Y141.612 E28.84735
G1 X133.984 Y142.211 E28.86426
G1 X134.346 Y142.792 E28.88134
G1 X134.846 Y143.393 E28.90084
G1 X135.397 Y143.943 E28.92026
G1 X136.023 Y144.404 E28.93966
G1 X136.696 Y144.816 E28.95934
G1 X137.571 Y145.17 E28.98289
G1 X138.465 Y145.432 E29.00612
G1 X139.386 Y145.556 E29.02931
G1 X140.312 Y145.601 E29.05243
G1 X141.502 Y145.522 E29.08218
G1 X142.683 Y145.306 E29.11213
G1 X143.792 Y144.848 E29.14206
G1 X144.856 Y144.236 E29.17268
G1 X145.643 Y143.514 E29.19932
G1 X146.323 Y142.719 E29.22542
G1 X146.819 Y141.797 E29.25153
G1 X147.203 Y140.795 E29.2783
G1 X147.393 Y139.425 E29.3128
G1 X147.509 Y138.099 E29.34601
G1 X147.545 Y136.775 E29.37905
G1 X147.542 Y127.878 E29.60098
G1 X124.773 Y127.878 E30.16896
