; generated by Slic3r 1.36.2-prusa3d on 2017-12-26 at 21:51:24

; 

; external perimeters extrusion width = 0.60mm
; perimeters extrusion width = 0.43mm
; infill extrusion width = 0.70mm
; solid infill extrusion width = 0.70mm
; top infill extrusion width = 0.43mm
; first layer extrusion width = 0.42mm

M107
M115 U3.0.12 ; tell printer latest fw version
M83  ; extruder relative mode
M104 S210 ; set extruder temp
M140 S65 ; set bed temp
M190 S65 ; wait for bed temp
M109 S210 ; wait for extruder temp
G28 W ; home all without mesh bed level
G80 ; mesh bed leveling
G1 Y-3.0 F1000.0 ; go outside pritn area
G1 X60.0 E9.0  F1000.0 ; intro line
G1 X100.0 E12.5  F1000.0 ; intro line
; Filament gcode

G21 ; set units to millimeters
G90 ; use absolute coordinates
M83 ; use relative distances for extrusion
G1 E-0.80000 F2100.00000
G1 Z0.200 F7200.000
G1 X109.532 Y17.459 F7200.000
G1 E0.80000 F2100.00000
M204 S1000
G1 F2100
G1 X110.131 Y17.180 E0.01987
G1 X110.779 Y17.077 E0.01976
G1 X192.965 Y16.772 E2.47216
G1 X193.853 Y16.946 E0.02722
G1 X194.612 Y17.439 E0.02722
G1 X195.132 Y18.179 E0.02722
G1 X195.337 Y19.061 E0.02722
G1 X195.339 Y74.157 E1.65729
G1 X195.281 Y74.671 E0.01555
G1 X195.112 Y75.163 E0.01567
G1 X125.752 Y192.244 E4.09335
G1 X125.394 Y192.637 E0.01601
G1 X124.957 Y192.941 E0.01601
G1 X124.464 Y193.141 E0.01601
G1 X123.939 Y193.225 E0.01601
G1 X110.788 Y193.227 E0.39556
G1 X110.290 Y193.166 E0.01510
G1 X109.812 Y193.001 E0.01521
G1 X109.257 Y192.636 E0.01998
G1 X108.824 Y192.132 E0.01998
G1 X108.547 Y191.524 E0.02010
G1 X108.449 Y190.867 E0.01998
G1 X108.449 Y19.450 E5.15621
G1 X108.507 Y18.932 E0.01567
G1 X108.676 Y18.439 E0.01567
G1 X109.036 Y17.890 E0.01976
G1 X109.487 Y17.499 E0.01795
G1 F5760
G1 X110.131 Y17.180 E-0.24886
G1 F5760
G1 X110.779 Y17.077 E-0.22750
G1 F5760
G1 X111.598 Y17.074 E-0.28364
G1 E-0.04000 F2100.00000
G1 X118.676 Y184.609 F7200.000
G1 E0.80000 F2100.00000
G1 F840
G1 X119.218 Y184.680 E0.01643
G1 X119.722 Y184.889 E0.01643
G1 X120.156 Y185.221 E0.01643
G1 X120.488 Y185.655 E0.01643
G1 X120.697 Y186.159 E0.01643
G1 X120.768 Y186.701 E0.01643
G1 X120.697 Y187.242 E0.01643
G1 X120.488 Y187.747 E0.01643
G1 X120.156 Y188.180 E0.01643
G1 X119.722 Y188.513 E0.01643
G1 X119.218 Y188.722 E0.01643
G1 X118.676 Y188.793 E0.01643
G1 X118.135 Y188.722 E0.01643
G1 X117.630 Y188.513 E0.01643
G1 X117.197 Y188.180 E0.01643
G1 X116.864 Y187.747 E0.01643
G1 X116.655 Y187.242 E0.01643
G1 X116.584 Y186.701 E0.01643
G1 X116.655 Y186.159 E0.01643
G1 X116.864 Y185.655 E0.01643
G1 X117.197 Y185.221 E0.01643
G1 X117.630 Y184.889 E0.01643
G1 X118.135 Y184.680 E0.01643
G1 X118.617 Y184.616 E0.01462
G1 X118.666 Y184.990 F7200.000
G1 F840
G1 X119.119 Y185.047 E0.01374
G1 X119.532 Y185.218 E0.01344
G1 X119.887 Y185.490 E0.01344
G1 X120.159 Y185.845 E0.01344
G1 X120.330 Y186.258 E0.01344
G1 X120.388 Y186.701 E0.01344
G1 X120.330 Y187.144 E0.01344
G1 X120.159 Y187.557 E0.01344
G1 X119.887 Y187.911 E0.01344
G1 X119.532 Y188.183 E0.01344
G1 X119.119 Y188.354 E0.01344
G1 X118.676 Y188.412 E0.01344
G1 X118.233 Y188.354 E0.01344
G1 X117.820 Y188.183 E0.01344
G1 X117.466 Y187.911 E0.01344
G1 X117.194 Y187.557 E0.01344
G1 X117.023 Y187.144 E0.01344
G1 X116.964 Y186.701 E0.01344
G1 X117.023 Y186.258 E0.01344
G1 X117.194 Y185.845 E0.01344
G1 X117.466 Y185.490 E0.01344
G1 X117.820 Y185.218 E0.01344
G1 X118.233 Y185.047 E0.01344
G1 X118.606 Y184.998 E0.01132
G1 X118.864 Y184.643 F7200.000
G1 F5760
G1 X119.119 Y185.047 E-0.17842
G1 F5760
G1 X119.532 Y185.218 E-0.15477
G1 F5760
G1 X119.887 Y185.490 E-0.15478
G1 F5760
G1 X120.159 Y185.845 E-0.15477
G1 F5760
G1 X120.288 Y186.157 E-0.11725
G1 E-0.04000 F2100.00000
G1 X118.676 Y183.493 F7200.000
G1 E0.80000 F2100.00000
G1 F840
G1 X118.135 Y183.422 E0.01643
G1 X117.630 Y183.213 E0.01643
G1 X117.197 Y182.880 E0.01643
G1 X116.864 Y182.447 E0.01643
G1 X116.655 Y181.942 E0.01643
G1 X116.584 Y181.401 E0.01643
G1 X116.655 Y180.859 E0.01643
G1 X116.864 Y180.355 E0.01643
G1 X117.197 Y179.921 E0.01643
G1 X117.630 Y179.589 E0.01643
G1 X118.135 Y179.380 E0.01643
G1 X118.676 Y179.309 E0.01643
G1 X119.218 Y179.380 E0.01643
G1 X119.722 Y179.589 E0.01643
G1 X120.156 Y179.921 E0.01643
G1 X120.488 Y180.355 E0.01643
G1 X120.697 Y180.859 E0.01643
G1 X120.768 Y181.401 E0.01643
G1 X120.697 Y181.942 E0.01643
G1 X120.488 Y182.447 E0.01643
G1 X120.156 Y182.880 E0.01643
G1 X119.722 Y183.213 E0.01643
G1 X119.218 Y183.422 E0.01643
G1 X118.736 Y183.485 E0.01462
G1 X118.686 Y183.111 F7200.000
G1 F840
G1 X118.233 Y183.054 E0.01374
G1 X117.820 Y182.883 E0.01344
G1 X117.466 Y182.611 E0.01344
G1 X117.194 Y182.257 E0.01344
G1 X117.023 Y181.844 E0.01344
G1 X116.964 Y181.401 E0.01344
G1 X117.023 Y180.958 E0.01344
G1 X117.194 Y180.545 E0.01344
G1 X117.466 Y180.190 E0.01344
G1 X117.820 Y179.918 E0.01344
G1 X118.233 Y179.747 E0.01344
G1 X118.676 Y179.689 E0.01344
G1 X119.119 Y179.747 E0.01344
G1 X119.532 Y179.918 E0.01344
G1 X119.887 Y180.190 E0.01344
G1 X120.159 Y180.545 E0.01344
G1 X120.330 Y180.958 E0.01344
G1 X120.388 Y181.401 E0.01344
G1 X120.330 Y181.844 E0.01344
G1 X120.159 Y182.257 E0.01344
G1 X119.887 Y182.611 E0.01344
G1 X119.532 Y182.883 E0.01344
G1 X119.119 Y183.054 E0.01344
G1 X118.746 Y183.103 E0.01133
G1 X118.488 Y183.458 F7200.000
G1 F5760
G1 X118.233 Y183.054 E-0.17842
G1 F5760
G1 X117.820 Y182.883 E-0.15477
G1 F5760
G1 X117.466 Y182.611 E-0.15478
G1 F5760
G1 X117.194 Y182.257 E-0.15477
G1 F5760
G1 X117.064 Y181.944 E-0.11726
G1 E-0.04000 F2100.00000
G1 X118.676 Y147.393 F7200.000
G1 E0.80000 F2100.00000
G1 F840
G1 X118.135 Y147.322 E0.01643
G1 X117.630 Y147.113 E0.01643
G1 X117.197 Y146.780 E0.01643
G1 X116.864 Y146.347 E0.01643
G1 X116.655 Y145.842 E0.01643
G1 X116.584 Y145.301 E0.01643
G1 X116.655 Y144.759 E0.01643
G1 X116.864 Y144.255 E0.01643
G1 X117.197 Y143.821 E0.01643
G1 X117.630 Y143.489 E0.01643
G1 X118.135 Y143.280 E0.01643
G1 X118.676 Y143.209 E0.01643
G1 X119.218 Y143.280 E0.01643
G1 X119.722 Y143.489 E0.01643
G1 X120.156 Y143.821 E0.01643
G1 X120.488 Y144.255 E0.01643
G1 X120.697 Y144.759 E0.01643
G1 X120.768 Y145.301 E0.01643
G1 X120.697 Y145.842 E0.01643
G1 X120.488 Y146.347 E0.01643
G1 X120.156 Y146.780 E0.01643
G1 X119.722 Y147.113 E0.01643
G1 X119.218 Y147.322 E0.01643
G1 X118.736 Y147.385 E0.01462
G1 X118.686 Y147.011 F7200.000
G1 F840
G1 X118.233 Y146.954 E0.01374
G1 X117.820 Y146.783 E0.01344
G1 X117.466 Y146.511 E0.01344
G1 X117.194 Y146.157 E0.01344
G1 X117.023 Y145.744 E0.01344
G1 X116.964 Y145.301 E0.01344
G1 X117.023 Y144.858 E0.01344
G1 X117.194 Y144.445 E0.01344
G1 X117.466 Y144.090 E0.01344
G1 X117.820 Y143.818 E0.01344
G1 X118.233 Y143.647 E0.01344
G1 X118.676 Y143.589 E0.01344
G1 X119.119 Y143.647 E0.01344
G1 X119.532 Y143.818 E0.01344
G1 X119.887 Y144.090 E0.01344
G1 X120.159 Y144.445 E0.01344
G1 X120.330 Y144.858 E0.01344
G1 X120.388 Y145.301 E0.01344
G1 X120.330 Y145.744 E0.01344
G1 X120.159 Y146.157 E0.01344
G1 X119.887 Y146.511 E0.01344
G1 X119.532 Y146.783 E0.01344
G1 X119.119 Y146.954 E0.01344
G1 X118.746 Y147.003 E0.01133
G1 X118.488 Y147.358 F7200.000
G1 F5760
G1 X118.233 Y146.954 E-0.17842
G1 F5760
G1 X117.820 Y146.783 E-0.15478
G1 F5760
G1 X117.466 Y146.511 E-0.15477
G1 F5760
G1 X117.194 Y146.157 E-0.15478
G1 F5760
G1 X117.064 Y145.844 E-0.11724
G1 E-0.04000 F2100.00000
G1 X118.676 Y142.093 F7200.000
G1 E0.80000 F2100.00000
G1 F840
G1 X118.135 Y142.022 E0.01643
G1 X117.630 Y141.812 E0.01643
G1 X117.197 Y141.480 E0.01643
G1 X116.864 Y141.047 E0.01643
G1 X116.655 Y140.542 E0.01643
G1 X116.584 Y140.001 E0.01643
G1 X116.655 Y139.459 E0.01643
G1 X116.864 Y138.955 E0.01643
G1 X117.197 Y138.521 E0.01643
G1 X117.630 Y138.189 E0.01643
G1 X118.135 Y137.980 E0.01643
G1 X118.676 Y137.909 E0.01643
G1 X119.218 Y137.980 E0.01643
G1 X119.722 Y138.189 E0.01643
G1 X120.156 Y138.521 E0.01643
G1 X120.488 Y138.955 E0.01643
G1 X120.697 Y139.459 E0.01643
G1 X120.768 Y140.001 E0.01643
G1 X120.697 Y140.542 E0.01643
G1 X120.488 Y141.047 E0.01643
G1 X120.156 Y141.480 E0.01643
G1 X119.722 Y141.813 E0.01643
G1 X119.218 Y142.022 E0.01643
G1 X118.736 Y142.085 E0.01462
G1 X118.686 Y141.711 F7200.000
G1 F840
G1 X118.233 Y141.654 E0.01374
G1 X117.820 Y141.483 E0.01344
G1 X117.466 Y141.211 E0.01344
G1 X117.194 Y140.857 E0.01344
G1 X117.023 Y140.444 E0.01344
G1 X116.964 Y140.001 E0.01344
G1 X117.023 Y139.558 E0.01344
G1 X117.194 Y139.145 E0.01344
G1 X117.466 Y138.790 E0.01344
G1 X117.820 Y138.518 E0.01344
G1 X118.233 Y138.347 E0.01344
G1 X118.676 Y138.289 E0.01344
G1 X119.119 Y138.347 E0.01344
G1 X119.532 Y138.518 E0.01344
G1 X119.887 Y138.790 E0.01344
G1 X120.159 Y139.145 E0.01344
G1 X120.330 Y139.558 E0.01344
G1 X120.388 Y140.001 E0.01344
G1 X120.330 Y140.444 E0.01344
G1 X120.159 Y140.857 E0.01344
G1 X119.887 Y141.211 E0.01344
G1 X119.532 Y141.483 E0.01344
G1 X119.119 Y141.654 E0.01344
G1 X118.746 Y141.703 E0.01133
G1 X118.488 Y142.058 F7200.000
G1 F5760
G1 X118.233 Y141.654 E-0.17842
G1 F5760
G1 X117.820 Y141.483 E-0.15478
G1 F5760
G1 X117.466 Y141.211 E-0.15477
G1 F5760
G1 X117.194 Y140.857 E-0.15478
G1 F5760
G1 X117.064 Y140.544 E-0.11725
G1 E-0.04000 F2100.00000
G1 X118.676 Y130.594 F7200.000
G1 E0.80000 F2100.00000
G1 F840
G1 X118.135 Y130.523 E0.01643
G1 X117.630 Y130.314 E0.01643
G1 X117.197 Y129.981 E0.01643
G1 X116.864 Y129.548 E0.01643
G1 X116.655 Y129.043 E0.01643
G1 X116.584 Y128.502 E0.01643
G1 X116.655 Y127.961 E0.01643
G1 X116.864 Y127.456 E0.01643
G1 X117.197 Y127.023 E0.01643
G1 X117.630 Y126.690 E0.01643
G1 X118.135 Y126.481 E0.01643
G1 X118.676 Y126.410 E0.01643
G1 X119.218 Y126.481 E0.01643
G1 X119.722 Y126.690 E0.01643
G1 X120.156 Y127.023 E0.01643
G1 X120.488 Y127.456 E0.01643
G1 X120.697 Y127.961 E0.01643
G1 X120.768 Y128.502 E0.01643
G1 X120.697 Y129.043 E0.01643
G1 X120.488 Y129.548 E0.01643
G1 X120.156 Y129.981 E0.01643
G1 X119.722 Y130.314 E0.01643
G1 X119.218 Y130.523 E0.01643
G1 X118.736 Y130.586 E0.01462
G1 X118.686 Y130.212 F7200.000
G1 F840
G1 X118.233 Y130.155 E0.01374
G1 X117.820 Y129.984 E0.01344
G1 X117.466 Y129.712 E0.01344
G1 X117.194 Y129.358 E0.01344
G1 X117.023 Y128.945 E0.01344
G1 X116.964 Y128.502 E0.01344
G1 X117.023 Y128.059 E0.01344
G1 X117.194 Y127.646 E0.01344
G1 X117.466 Y127.292 E0.01344
G1 X117.820 Y127.020 E0.01344
G1 X118.233 Y126.849 E0.01344
G1 X118.676 Y126.790 E0.01344
G1 X119.119 Y126.849 E0.01344
G1 X119.532 Y127.020 E0.01344
G1 X119.887 Y127.292 E0.01344
G1 X120.159 Y127.646 E0.01344
G1 X120.330 Y128.059 E0.01344
G1 X120.388 Y128.502 E0.01344
G1 X120.330 Y128.945 E0.01344
G1 X120.159 Y129.358 E0.01344
G1 X119.887 Y129.712 E0.01344
G1 X119.532 Y129.984 E0.01344
G1 X119.119 Y130.155 E0.01344
G1 X118.746 Y130.205 E0.01133
G1 X118.488 Y130.560 F7200.000
G1 F5760
G1 X118.233 Y130.155 E-0.17842
G1 F5760
G1 X117.820 Y129.984 E-0.15478
G1 F5760
G1 X117.466 Y129.712 E-0.15477
G1 F5760
G1 X117.194 Y129.358 E-0.15478
G1 F5760
G1 X117.064 Y129.045 E-0.11725
G1 E-0.04000 F2100.00000
G1 X118.676 Y125.294 F7200.000
G1 E0.80000 F2100.00000
G1 F840
G1 X118.135 Y125.223 E0.01643
G1 X117.630 Y125.014 E0.01643
G1 X117.197 Y124.681 E0.01643
G1 X116.864 Y124.248 E0.01643
G1 X116.655 Y123.743 E0.01643
G1 X116.584 Y123.202 E0.01643
G1 X116.655 Y122.661 E0.01643
G1 X116.864 Y122.156 E0.01643
G1 X117.197 Y121.723 E0.01643
G1 X117.630 Y121.390 E0.01643
G1 X118.135 Y121.181 E0.01643
G1 X118.676 Y121.110 E0.01643
G1 X119.218 Y121.181 E0.01643
G1 X119.722 Y121.390 E0.01643
G1 X120.156 Y121.723 E0.01643
G1 X120.488 Y122.156 E0.01643
G1 X120.697 Y122.661 E0.01643
G1 X120.768 Y123.202 E0.01643
G1 X120.697 Y123.743 E0.01643
G1 X120.488 Y124.248 E0.01643
G1 X120.156 Y124.681 E0.01643
G1 X119.722 Y125.014 E0.01643
G1 X119.218 Y125.223 E0.01643
G1 X118.736 Y125.286 E0.01462
G1 X118.686 Y124.912 F7200.000
G1 F840
G1 X118.233 Y124.855 E0.01374
G1 X117.820 Y124.684 E0.01344
G1 X117.466 Y124.412 E0.01344
G1 X117.194 Y124.058 E0.01344
G1 X117.023 Y123.645 E0.01344
G1 X116.964 Y123.202 E0.01344
G1 X117.023 Y122.759 E0.01344
G1 X117.194 Y122.346 E0.01344
G1 X117.466 Y121.992 E0.01344
G1 X117.820 Y121.720 E0.01344
G1 X118.233 Y121.549 E0.01344
G1 X118.676 Y121.490 E0.01344
G1 X119.119 Y121.549 E0.01344
G1 X119.532 Y121.720 E0.01344
G1 X119.887 Y121.992 E0.01344
G1 X120.159 Y122.346 E0.01344
G1 X120.330 Y122.759 E0.01344
G1 X120.388 Y123.202 E0.01344
G1 X120.330 Y123.645 E0.01344
G1 X120.159 Y124.058 E0.01344
G1 X119.887 Y124.412 E0.01344
G1 X119.532 Y124.684 E0.01344
G1 X119.119 Y124.855 E0.01344
G1 X118.746 Y124.905 E0.01133
G1 X118.488 Y125.260 F7200.000
G1 F5760
G1 X118.233 Y124.855 E-0.17842
G1 F5760
G1 X117.820 Y124.684 E-0.15478
G1 F5760
G1 X117.466 Y124.412 E-0.15477
G1 F5760
G1 X117.194 Y124.058 E-0.15478
G1 F5760
G1 X117.064 Y123.745 E-0.11724
G1 E-0.04000 F2100.00000
G1 X118.676 Y89.194 F7200.000
G1 E0.80000 F2100.00000
G1 F840
G1 X118.135 Y89.123 E0.01643
G1 X117.630 Y88.914 E0.01643
G1 X117.197 Y88.581 E0.01643
G1 X116.864 Y88.148 E0.01643
G1 X116.655 Y87.643 E0.01643
G1 X116.584 Y87.102 E0.01643
G1 X116.655 Y86.561 E0.01643
G1 X116.864 Y86.056 E0.01643
G1 X117.197 Y85.623 E0.01643
G1 X117.630 Y85.290 E0.01643
G1 X118.135 Y85.081 E0.01643
G1 X118.676 Y85.010 E0.01643
G1 X119.218 Y85.081 E0.01643
G1 X119.722 Y85.290 E0.01643
G1 X120.156 Y85.623 E0.01643
G1 X120.488 Y86.056 E0.01643
G1 X120.697 Y86.561 E0.01643
G1 X120.768 Y87.102 E0.01643
G1 X120.697 Y87.643 E0.01643
G1 X120.488 Y88.148 E0.01643
G1 X120.156 Y88.581 E0.01643
G1 X119.722 Y88.914 E0.01643
G1 X119.218 Y89.123 E0.01643
G1 X118.736 Y89.186 E0.01462
G1 X118.686 Y88.812 F7200.000
G1 F840
G1 X118.233 Y88.755 E0.01374
G1 X117.820 Y88.584 E0.01344
G1 X117.466 Y88.312 E0.01344
G1 X117.194 Y87.958 E0.01344
G1 X117.023 Y87.545 E0.01344
G1 X116.964 Y87.102 E0.01344
G1 X117.023 Y86.659 E0.01344
G1 X117.194 Y86.246 E0.01344
G1 X117.466 Y85.892 E0.01344
G1 X117.820 Y85.620 E0.01344
G1 X118.233 Y85.449 E0.01344
G1 X118.676 Y85.390 E0.01344
G1 X119.119 Y85.449 E0.01344
G1 X119.532 Y85.620 E0.01344
G1 X119.887 Y85.892 E0.01344
G1 X120.159 Y86.246 E0.01344
G1 X120.330 Y86.659 E0.01344
G1 X120.388 Y87.102 E0.01344
G1 X120.330 Y87.545 E0.01344
G1 X120.159 Y87.958 E0.01344
G1 X119.887 Y88.312 E0.01344
G1 X119.532 Y88.584 E0.01344
G1 X119.119 Y88.755 E0.01344
G1 X118.746 Y88.805 E0.01133
G1 X118.488 Y89.160 F7200.000
G1 F5760
G1 X118.233 Y88.755 E-0.17842
G1 F5760
G1 X117.820 Y88.584 E-0.15478
G1 F5760
G1 X117.466 Y88.312 E-0.15477
G1 F5760
G1 X117.194 Y87.958 E-0.15478
G1 F5760
G1 X117.064 Y87.645 E-0.11724
G1 E-0.04000 F2100.00000
G1 X118.676 Y83.894 F7200.000
G1 E0.80000 F2100.00000
G1 F840
G1 X118.135 Y83.823 E0.01643
G1 X117.630 Y83.614 E0.01643
G1 X117.197 Y83.281 E0.01643
G1 X116.864 Y82.848 E0.01643
G1 X116.655 Y82.343 E0.01643
G1 X116.584 Y81.802 E0.01643
G1 X116.655 Y81.261 E0.01643
G1 X116.864 Y80.756 E0.01643
G1 X117.197 Y80.323 E0.01643
G1 X117.630 Y79.990 E0.01643
G1 X118.135 Y79.781 E0.01643
G1 X118.676 Y79.710 E0.01643
G1 X119.218 Y79.781 E0.01643
G1 X119.722 Y79.990 E0.01643
G1 X120.156 Y80.323 E0.01643
G1 X120.488 Y80.756 E0.01643
G1 X120.697 Y81.261 E0.01643
G1 X120.768 Y81.802 E0.01643
G1 X120.697 Y82.343 E0.01643
G1 X120.488 Y82.848 E0.01643
G1 X120.156 Y83.281 E0.01643
G1 X119.722 Y83.614 E0.01643
G1 X119.218 Y83.823 E0.01643
G1 X118.736 Y83.886 E0.01462
G1 X118.686 Y83.512 F7200.000
G1 F840
G1 X118.233 Y83.455 E0.01374
G1 X117.820 Y83.284 E0.01344
G1 X117.466 Y83.012 E0.01344
G1 X117.194 Y82.658 E0.01344
G1 X117.023 Y82.245 E0.01344
G1 X116.964 Y81.802 E0.01344
G1 X117.023 Y81.359 E0.01344
G1 X117.194 Y80.946 E0.01344
G1 X117.466 Y80.592 E0.01344
G1 X117.820 Y80.320 E0.01344
G1 X118.233 Y80.149 E0.01344
G1 X118.676 Y80.090 E0.01344
G1 X119.119 Y80.149 E0.01344
G1 X119.532 Y80.320 E0.01344
G1 X119.887 Y80.592 E0.01344
G1 X120.159 Y80.946 E0.01344
G1 X120.330 Y81.359 E0.01344
G1 X120.388 Y81.802 E0.01344
G1 X120.330 Y82.245 E0.01344
G1 X120.159 Y82.658 E0.01344
G1 X119.887 Y83.012 E0.01344
G1 X119.532 Y83.284 E0.01344
G1 X119.119 Y83.455 E0.01344
G1 X118.746 Y83.505 E0.01133
G1 X118.488 Y83.860 F7200.000
G1 F5760
G1 X118.233 Y83.455 E-0.17843
G1 F5760
G1 X117.820 Y83.284 E-0.15477
