; generated by Slic3r 1.36.2-prusa3d on 2018-01-01 at 13:37:24

; 

; external perimeters extrusion width = 0.60mm
; perimeters extrusion width = 0.43mm
; infill extrusion width = 0.70mm
; solid infill extrusion width = 0.70mm
; top infill extrusion width = 0.43mm
; first layer extrusion width = 0.42mm

M107
M115 U3.0.12 ; tell printer latest fw version
M83  ; extruder relative mode
M104 S210 ; set extruder temp
M140 S65 ; set bed temp
M190 S65 ; wait for bed temp
M109 S210 ; wait for extruder temp
G28 W ; home all without mesh bed level
G80 ; mesh bed leveling
G1 Y-3.0 F1000.0 ; go outside pritn area
G1 X60.0 E9.0  F1000.0 ; intro line
G1 X100.0 E12.5  F1000.0 ; intro line
; Filament gcode

G21 ; set units to millimeters
G90 ; use absolute coordinates
M83 ; use relative distances for extrusion
G1 E-0.80000 F2100.00000
G1 Z0.200 F7200.000
G1 X67.994 Y78.590 F7200.000
G1 E0.80000 F2100.00000
M204 S1000
G1 F2100
G1 X69.554 Y77.367 E0.05963
G1 X71.424 Y76.076 E0.06837
G1 X73.116 Y75.055 E0.05943
G1 X74.951 Y74.092 E0.06233
G1 X76.840 Y73.242 E0.06233
G1 X78.697 Y72.536 E0.05974
G1 X80.872 Y71.858 E0.06853
G1 X82.786 Y71.389 E0.05927
G1 X84.828 Y71.014 E0.06244
G1 X86.885 Y70.764 E0.06233
G1 X88.934 Y70.640 E0.06175
G1 X160.419 Y70.628 E2.15026
G1 X162.788 Y70.742 E0.07135
G1 X164.608 Y70.935 E0.05505
G1 X166.515 Y71.249 E0.05814
G1 X168.642 Y71.729 E0.06559
G1 X170.835 Y72.381 E0.06880
G1 X172.553 Y72.999 E0.05493
G1 X174.335 Y73.758 E0.05826
G1 X176.288 Y74.729 E0.06560
G1 X178.264 Y75.882 E0.06883
G1 X179.786 Y76.890 E0.05490
G1 X181.431 Y78.123 E0.06187
G1 X183.170 Y79.612 E0.06883
G1 X184.485 Y80.872 E0.05478
G1 X185.879 Y82.374 E0.06164
G1 X187.328 Y84.153 E0.06903
G1 X188.400 Y85.632 E0.05493
G1 X189.444 Y87.262 E0.05826
G1 X190.610 Y89.364 E0.07230
G1 X191.402 Y91.014 E0.05504
G1 X192.137 Y92.802 E0.05814
G1 X192.847 Y94.863 E0.06559
G1 X193.445 Y97.067 E0.06869
G1 X193.823 Y98.858 E0.05505
G1 X194.114 Y100.769 E0.05814
G1 X194.315 Y102.944 E0.06571
G1 X194.372 Y105.231 E0.06883
G1 X194.315 Y107.055 E0.05489
G1 X194.131 Y109.100 E0.06176
G1 X193.779 Y111.365 E0.06894
G1 X193.397 Y113.150 E0.05490
G1 X192.853 Y115.122 E0.06152
G1 X192.101 Y117.290 E0.06903
G1 X191.407 Y118.979 E0.05493
G1 X190.570 Y120.721 E0.05814
G1 X189.393 Y122.821 E0.07241
G1 X188.406 Y124.362 E0.05504
G1 X187.272 Y125.927 E0.05815
G1 X185.891 Y127.615 E0.06560
G1 X184.331 Y129.282 E0.06868
G1 X183.006 Y130.545 E0.05504
G1 X181.531 Y131.799 E0.05825
G1 X179.792 Y133.109 E0.06548
G1 X177.877 Y134.360 E0.06880
G1 X176.295 Y135.271 E0.05493
G1 X174.550 Y136.147 E0.05871
G1 X172.575 Y136.996 E0.06468
G1 X170.745 Y137.655 E0.05848
G1 X168.433 Y138.325 E0.07241
G1 X166.645 Y138.730 E0.05516
G1 X164.620 Y139.067 E0.06175
G1 X162.582 Y139.282 E0.06164
G1 X160.617 Y139.373 E0.05917
G1 X87.058 Y139.243 E2.21264
G1 X84.849 Y138.988 E0.06690
G1 X82.761 Y138.606 E0.06385
G1 X80.743 Y138.107 E0.06253
G1 X78.760 Y137.487 E0.06246
G1 X76.821 Y136.750 E0.06242
G1 X74.925 Y135.895 E0.06256
G1 X73.091 Y134.931 E0.06233
G1 X71.315 Y133.855 E0.06245
G1 X69.607 Y132.675 E0.06243
G1 X67.974 Y131.394 E0.06244
G1 X66.422 Y130.016 E0.06244
G1 X64.955 Y128.547 E0.06244
G1 X63.579 Y126.993 E0.06244
G1 X62.300 Y125.358 E0.06244
G1 X61.122 Y123.649 E0.06244
G1 X60.047 Y121.868 E0.06255
G1 X59.085 Y120.033 E0.06233
G1 X58.193 Y118.038 E0.06573
G1 X57.498 Y116.195 E0.05926
G1 X56.880 Y114.209 E0.06256
G1 X56.386 Y112.200 E0.06222
G1 X56.028 Y110.250 E0.05963
G1 X55.755 Y107.991 E0.06847
G1 X55.639 Y106.022 E0.05933
G1 X55.640 Y103.946 E0.06244
G1 X55.766 Y101.877 E0.06233
G1 X56.004 Y99.909 E0.05963
G1 X56.415 Y97.672 E0.06843
G1 X56.890 Y95.756 E0.05937
G1 X57.507 Y93.778 E0.06233
G1 X58.287 Y91.737 E0.06573
G1 X59.098 Y89.941 E0.05927
G1 X60.063 Y88.103 E0.06244
G1 X61.135 Y86.330 E0.06233
G1 X62.260 Y84.698 E0.05963
G1 X63.666 Y82.905 E0.06853
G1 X64.975 Y81.432 E0.05927
G1 X66.440 Y79.967 E0.06233
G1 X67.949 Y78.630 E0.06064
G1 F5760
G1 X69.554 Y77.367 E-0.70735
G1 F5760
G1 X69.679 Y77.280 E-0.05265
G1 E-0.04000 F2100.00000
G1 X95.959 Y99.842 F7200.000
G1 E0.80000 F2100.00000
G1 F1260
G1 X96.617 Y99.079 E0.03029
G1 X97.360 Y98.399 E0.03029
G1 X98.178 Y97.812 E0.03029
G1 X99.060 Y97.326 E0.03029
G1 X99.993 Y96.947 E0.03029
G1 X100.965 Y96.682 E0.03029
G1 X101.961 Y96.533 E0.03029
G1 X102.959 Y96.504 E0.03004
G1 X103.971 Y96.593 E0.03054
G1 X104.956 Y96.800 E0.03030
G1 X105.910 Y97.123 E0.03029
G1 X106.820 Y97.556 E0.03029
G1 X107.671 Y98.094 E0.03029
G1 X108.453 Y98.728 E0.03029
G1 X109.155 Y99.451 E0.03029
G1 X109.766 Y100.251 E0.03029
G1 X110.278 Y101.118 E0.03029
G1 X110.684 Y102.040 E0.03029
G1 X110.978 Y103.003 E0.03029
G1 X111.155 Y103.986 E0.03004
G1 X111.216 Y105.000 E0.03054
G1 X111.156 Y106.005 E0.03030
G1 X110.978 Y106.997 E0.03029
G1 X110.684 Y107.960 E0.03029
G1 X110.278 Y108.882 E0.03029
G1 X109.766 Y109.749 E0.03029
G1 X109.155 Y110.549 E0.03029
G1 X108.459 Y111.266 E0.03004
G1 X107.671 Y111.906 E0.03054
G1 X106.820 Y112.444 E0.03030
G1 X105.910 Y112.877 E0.03029
G1 X104.956 Y113.200 E0.03029
G1 X103.971 Y113.407 E0.03029
G1 X102.968 Y113.497 E0.03029
G1 X101.961 Y113.467 E0.03029
G1 X100.965 Y113.318 E0.03029
G1 X99.993 Y113.053 E0.03029
G1 X99.060 Y112.674 E0.03029
G1 X98.178 Y112.188 E0.03029
G1 X97.360 Y111.601 E0.03029
G1 X96.617 Y110.921 E0.03029
G1 X95.959 Y110.158 E0.03029
G1 X95.396 Y109.323 E0.03029
G1 X94.937 Y108.427 E0.03029
G1 X94.586 Y107.483 E0.03029
G1 X94.351 Y106.512 E0.03004
G1 X94.230 Y105.504 E0.03054
G1 X94.230 Y104.496 E0.03030
G1 X94.349 Y103.496 E0.03029
G1 X94.586 Y102.517 E0.03029
G1 X94.937 Y101.573 E0.03029
G1 X95.396 Y100.677 E0.03029
G1 X95.926 Y99.892 E0.02849
G1 X95.805 Y99.473 F7200.000
G1 F5760
G1 X96.617 Y99.079 E-0.36947
G1 F5760
G1 X97.360 Y98.399 E-0.34883
G1 F5760
G1 X97.458 Y98.329 E-0.04171
G1 E-0.04000 F2100.00000
G1 X107.159 Y121.085 F7200.000
G1 E0.80000 F2100.00000
G1 F840
G1 X107.651 Y120.938 E0.01542
G1 X108.117 Y120.912 E0.01405
G1 X108.574 Y120.989 E0.01393
G1 X109.003 Y121.165 E0.01395
G1 X109.382 Y121.431 E0.01393
G1 X109.694 Y121.773 E0.01393
G1 X109.924 Y122.178 E0.01400
G1 X110.063 Y122.652 E0.01487
G1 X110.087 Y123.149 E0.01494
G1 X109.993 Y123.636 E0.01494
G1 X109.787 Y124.088 E0.01494
G1 X109.479 Y124.479 E0.01495
G1 X109.089 Y124.786 E0.01495
G1 X108.637 Y124.992 E0.01494
G1 X108.149 Y125.086 E0.01494
G1 X107.653 Y125.062 E0.01494
G1 X107.179 Y124.923 E0.01487
G1 X106.774 Y124.693 E0.01400
G1 X106.431 Y124.382 E0.01393
G1 X106.166 Y124.002 E0.01393
G1 X105.990 Y123.573 E0.01395
G1 X105.913 Y123.116 E0.01393
G1 X105.939 Y122.650 E0.01405
G1 X106.086 Y122.159 E0.01542
G1 X106.350 Y121.715 E0.01555
G1 X106.716 Y121.350 E0.01554
G1 X107.108 Y121.116 E0.01374
G1 X107.301 Y121.439 F7200.000
G1 F840
G1 X107.716 Y121.312 E0.01306
G1 X108.096 Y121.291 E0.01144
G1 X108.470 Y121.354 E0.01140
G1 X108.821 Y121.498 E0.01143
G1 X109.132 Y121.716 E0.01140
G1 X109.387 Y121.996 E0.01140
G1 X109.574 Y122.326 E0.01143
G1 X109.688 Y122.715 E0.01220
G1 X109.708 Y123.122 E0.01223
G1 X109.631 Y123.521 E0.01223
G1 X109.462 Y123.890 E0.01223
G1 X109.211 Y124.210 E0.01224
G1 X108.891 Y124.462 E0.01224
G1 X108.521 Y124.630 E0.01223
G1 X108.122 Y124.707 E0.01223
G1 X107.716 Y124.688 E0.01223
G1 X107.327 Y124.573 E0.01220
G1 X106.997 Y124.386 E0.01143
G1 X106.716 Y124.131 E0.01140
G1 X106.499 Y123.820 E0.01140
G1 X106.355 Y123.469 E0.01143
G1 X106.292 Y123.095 E0.01140
G1 X106.313 Y122.715 E0.01144
G1 X106.433 Y122.312 E0.01267
G1 X106.650 Y121.948 E0.01272
G1 X106.949 Y121.649 E0.01272
G1 X107.250 Y121.470 E0.01052
G1 X107.343 Y121.042 F7200.000
G1 F5760
G1 X107.716 Y121.312 E-0.17058
G1 F5760
G1 X108.096 Y121.291 E-0.13178
G1 F5760
G1 X108.470 Y121.354 E-0.13127
G1 F5760
G1 X108.821 Y121.498 E-0.13157
G1 F5760
G1 X109.132 Y121.716 E-0.13125
G1 F5760
G1 X109.255 Y121.851 E-0.06355
G1 E-0.04000 F2100.00000
G1 X108.117 Y89.088 F7200.000
G1 E0.80000 F2100.00000
G1 F840
G1 X107.651 Y89.062 E0.01405
G1 X107.159 Y88.915 E0.01542
G1 X106.716 Y88.650 E0.01554
G1 X106.350 Y88.285 E0.01554
G1 X106.086 Y87.841 E0.01555
G1 X105.939 Y87.350 E0.01542
G1 X105.913 Y86.884 E0.01405
G1 X105.990 Y86.427 E0.01393
G1 X106.166 Y85.998 E0.01395
G1 X106.431 Y85.618 E0.01393
G1 X106.774 Y85.307 E0.01393
G1 X107.179 Y85.077 E0.01400
G1 X107.653 Y84.938 E0.01487
G1 X108.149 Y84.914 E0.01494
G1 X108.637 Y85.008 E0.01494
G1 X109.089 Y85.214 E0.01494
G1 X109.479 Y85.521 E0.01495
G1 X109.787 Y85.912 E0.01495
G1 X109.993 Y86.364 E0.01494
G1 X110.087 Y86.851 E0.01494
G1 X110.063 Y87.348 E0.01494
G1 X109.924 Y87.822 E0.01487
G1 X109.694 Y88.227 E0.01400
G1 X109.382 Y88.569 E0.01393
G1 X109.003 Y88.835 E0.01393
G1 X108.574 Y89.011 E0.01395
G1 X108.176 Y89.078 E0.01213
G1 X108.114 Y88.706 F7200.000
G1 F840
G1 X107.716 Y88.688 E0.01197
G1 X107.312 Y88.567 E0.01267
G1 X106.949 Y88.351 E0.01272
G1 X106.650 Y88.052 E0.01272
G1 X106.433 Y87.688 E0.01272
G1 X106.313 Y87.285 E0.01267
G1 X106.292 Y86.905 E0.01144
G1 X106.355 Y86.531 E0.01140
G1 X106.499 Y86.179 E0.01143
G1 X106.716 Y85.869 E0.01140
G1 X106.997 Y85.614 E0.01140
G1 X107.327 Y85.427 E0.01143
G1 X107.716 Y85.312 E0.01220
G1 X108.122 Y85.293 E0.01223
G1 X108.521 Y85.370 E0.01223
G1 X108.891 Y85.538 E0.01223
G1 X109.211 Y85.790 E0.01223
G1 X109.462 Y86.110 E0.01224
G1 X109.631 Y86.479 E0.01223
G1 X109.708 Y86.878 E0.01223
G1 X109.688 Y87.285 E0.01223
G1 X109.574 Y87.674 E0.01220
G1 X109.387 Y88.004 E0.01143
G1 X109.132 Y88.284 E0.01140
G1 X108.821 Y88.502 E0.01140
G1 X108.470 Y88.646 E0.01143
G1 X108.173 Y88.696 E0.00906
G1 X107.937 Y89.062 F7200.000
G1 F5760
G1 X107.716 Y88.688 E-0.15823
G1 F5760
G1 X107.312 Y88.567 E-0.14593
G1 F5760
G1 X106.949 Y88.351 E-0.14647
G1 F5760
G1 X106.650 Y88.052 E-0.14647
G1 F5760
G1 X106.433 Y87.688 E-0.14648
G1 F5760
G1 X106.420 Y87.643 E-0.01642
G1 E-0.04000 F2100.00000
G1 X74.088 Y86.884 F7200.000
G1 E0.80000 F2100.00000
G1 F840
G1 X74.062 Y87.350 E0.01405
G1 X73.916 Y87.841 E0.01542
G1 X73.651 Y88.285 E0.01554
G1 X73.286 Y88.650 E0.01554
G1 X72.842 Y88.915 E0.01554
G1 X72.351 Y89.062 E0.01542
G1 X71.884 Y89.088 E0.01405
G1 X71.428 Y89.011 E0.01393
G1 X70.998 Y88.835 E0.01395
G1 X70.619 Y88.569 E0.01393
G1 X70.307 Y88.227 E0.01393
G1 X70.078 Y87.822 E0.01400
G1 X69.938 Y87.348 E0.01487
G1 X69.915 Y86.851 E0.01494
G1 X70.008 Y86.364 E0.01494
G1 X70.215 Y85.912 E0.01494
G1 X70.522 Y85.521 E0.01495
G1 X70.913 Y85.214 E0.01495
G1 X71.364 Y85.008 E0.01494
G1 X71.852 Y84.914 E0.01494
G1 X72.348 Y84.938 E0.01494
G1 X72.822 Y85.077 E0.01487
G1 X73.227 Y85.307 E0.01400
G1 X73.570 Y85.618 E0.01393
G1 X73.835 Y85.998 E0.01393
G1 X74.011 Y86.427 E0.01395
G1 X74.078 Y86.824 E0.01213
G1 X73.706 Y86.887 F7200.000
G1 F840
G1 X73.688 Y87.285 E0.01197
G1 X73.568 Y87.688 E0.01267
G1 X73.351 Y88.052 E0.01272
G1 X73.052 Y88.351 E0.01272
G1 X72.689 Y88.567 E0.01272
G1 X72.285 Y88.688 E0.01267
G1 X71.905 Y88.709 E0.01144
G1 X71.532 Y88.646 E0.01140
G1 X71.180 Y88.502 E0.01143
G1 X70.870 Y88.284 E0.01140
G1 X70.615 Y88.004 E0.01140
G1 X70.427 Y87.674 E0.01143
G1 X70.313 Y87.284 E0.01220
G1 X70.293 Y86.878 E0.01223
G1 X70.370 Y86.479 E0.01223
G1 X70.539 Y86.110 E0.01223
G1 X70.790 Y85.790 E0.01224
G1 X71.110 Y85.538 E0.01223
G1 X71.480 Y85.370 E0.01223
G1 X71.879 Y85.293 E0.01223
G1 X72.285 Y85.312 E0.01223
G1 X72.674 Y85.427 E0.01220
G1 X73.005 Y85.614 E0.01143
G1 X73.285 Y85.869 E0.01140
G1 X73.502 Y86.180 E0.01140
G1 X73.646 Y86.531 E0.01143
G1 X73.696 Y86.828 E0.00906
G1 X74.063 Y87.064 F7200.000
G1 F5760
G1 X73.688 Y87.285 E-0.15822
G1 F5760
G1 X73.568 Y87.688 E-0.14593
G1 F5760
G1 X73.351 Y88.052 E-0.14647
G1 F5760
G1 X73.052 Y88.351 E-0.14648
G1 F5760
G1 X72.689 Y88.567 E-0.14647
G1 F5760
G1 X72.644 Y88.581 E-0.01642
G1 E-0.04000 F2100.00000
G1 X71.884 Y120.912 F7200.000
G1 E0.80000 F2100.00000
G1 F840
G1 X72.351 Y120.938 E0.01405
G1 X72.842 Y121.085 E0.01542
G1 X73.286 Y121.350 E0.01555
G1 X73.651 Y121.715 E0.01554
G1 X73.916 Y122.159 E0.01554
G1 X74.062 Y122.650 E0.01542
G1 X74.088 Y123.116 E0.01405
G1 X74.011 Y123.573 E0.01393
G1 X73.835 Y124.002 E0.01395
G1 X73.570 Y124.382 E0.01393
G1 X73.227 Y124.693 E0.01393
G1 X72.822 Y124.923 E0.01400
G1 X72.348 Y125.062 E0.01487
G1 X71.852 Y125.086 E0.01494
G1 X71.364 Y124.992 E0.01494
G1 X70.913 Y124.786 E0.01494
G1 X70.522 Y124.479 E0.01495
G1 X70.215 Y124.088 E0.01495
G1 X70.008 Y123.636 E0.01494
G1 X69.915 Y123.149 E0.01494
G1 X69.938 Y122.652 E0.01494
G1 X70.078 Y122.178 E0.01487
G1 X70.308 Y121.773 E0.01400
G1 X70.619 Y121.431 E0.01393
G1 X70.998 Y121.165 E0.01393
G1 X71.428 Y120.989 E0.01395
G1 X71.825 Y120.922 E0.01212
G1 X71.888 Y121.294 F7200.000
G1 F840
G1 X72.285 Y121.312 E0.01197
G1 X72.689 Y121.433 E0.01267
G1 X73.052 Y121.649 E0.01272
G1 X73.351 Y121.948 E0.01272
G1 X73.568 Y122.312 E0.01272
G1 X73.688 Y122.715 E0.01267
G1 X73.709 Y123.095 E0.01144
G1 X73.646 Y123.469 E0.01140
G1 X73.502 Y123.821 E0.01143
G1 X73.285 Y124.131 E0.01140
G1 X73.005 Y124.386 E0.01140
G1 X72.674 Y124.573 E0.01143
G1 X72.285 Y124.688 E0.01220
G1 X71.879 Y124.707 E0.01223
G1 X71.480 Y124.630 E0.01223
G1 X71.110 Y124.462 E0.01223
G1 X70.790 Y124.210 E0.01224
G1 X70.539 Y123.890 E0.01224
G1 X70.370 Y123.521 E0.01223
G1 X70.293 Y123.122 E0.01223
G1 X70.313 Y122.716 E0.01223
G1 X70.427 Y122.326 E0.01220
G1 X70.615 Y121.996 E0.01143
G1 X70.870 Y121.716 E0.01140
G1 X71.180 Y121.498 E0.01140
G1 X71.532 Y121.354 E0.01143
G1 X71.829 Y121.304 E0.00906
G1 X72.064 Y120.938 F7200.000
G1 F5760
G1 X72.285 Y121.312 E-0.15824
G1 F5760
G1 X72.689 Y121.433 E-0.14593
G1 F5760
G1 X73.052 Y121.649 E-0.14648
G1 F5760
G1 X73.351 Y121.948 E-0.14647
G1 F5760
G1 X73.568 Y122.312 E-0.14647
G1 F5760
G1 X73.581 Y122.357 E-0.01641
G1 E-0.04000 F2100.00000
G1 X86.066 Y136.151 F7200.000
G1 E0.80000 F2100.00000
G1 F1680
G1 X85.241 Y136.050 E0.02501
G1 X83.382 Y135.707 E0.05685
G1 X81.530 Y135.249 E0.05739
G1 X79.720 Y134.683 E0.05705
G1 X77.947 Y134.008 E0.05706
G1 X76.218 Y133.228 E0.05706
G1 X74.547 Y132.349 E0.05680
G1 X72.918 Y131.361 E0.05732
G1 X71.358 Y130.282 E0.05706
G1 X69.866 Y129.111 E0.05706
G1 X68.447 Y127.852 E0.05706
G1 X67.113 Y126.515 E0.05680
G1 X65.851 Y125.088 E0.05732
G1 X64.682 Y123.594 E0.05706
G1 X63.611 Y122.039 E0.05680
G1 X62.626 Y120.408 E0.05732
G1 X61.746 Y118.727 E0.05706
G1 X60.972 Y117.005 E0.05680
G1 X60.298 Y115.223 E0.05732
G1 X59.735 Y113.411 E0.05706
G1 X59.284 Y111.578 E0.05680
G1 X58.942 Y109.703 E0.05732
G1 X58.715 Y107.820 E0.05706
G1 X58.602 Y105.927 E0.05706
G1 X58.603 Y104.030 E0.05706
G1 X58.718 Y102.145 E0.05680
G1 X58.949 Y100.254 E0.05732
G1 X59.292 Y98.388 E0.05706
G1 X59.747 Y96.547 E0.05706
G1 X60.312 Y94.736 E0.05706
G1 X60.983 Y92.971 E0.05680
G1 X61.765 Y91.233 E0.05732
G1 X62.648 Y89.554 E0.05706
G1 X63.625 Y87.939 E0.05680
G1 X64.708 Y86.371 E0.05732
G1 X65.879 Y84.878 E0.05706
G1 X67.131 Y83.465 E0.05680
G1 X68.479 Y82.118 E0.05732
G1 X69.899 Y80.861 E0.05706
G1 X71.386 Y79.697 E0.05680
G1 X72.954 Y78.615 E0.05732
G1 X74.578 Y77.634 E0.05706
G1 X76.258 Y76.753 E0.05706
G1 X77.988 Y75.975 E0.05706
G1 X79.753 Y75.306 E0.05680
G1 X81.572 Y74.739 E0.05732
G1 X83.414 Y74.286 E0.05706
G1 X85.280 Y73.944 E0.05706
G1 X87.163 Y73.716 E0.05706
G1 X89.048 Y73.602 E0.05680
G1 X90.953 Y73.602 E0.05732
G1 X92.838 Y73.716 E0.05680
G1 X94.726 Y73.945 E0.05719
G1 X96.592 Y74.287 E0.05706
G1 X98.429 Y74.739 E0.05692
G1 X100.248 Y75.306 E0.05732
G1 X102.014 Y75.975 E0.05680
G1 X103.744 Y76.753 E0.05706
G1 X105.424 Y77.634 E0.05706
G1 X107.047 Y78.615 E0.05706
G1 X108.616 Y79.697 E0.05732
G1 X110.102 Y80.861 E0.05680
G1 X111.522 Y82.118 E0.05706
G1 X112.864 Y83.459 E0.05706
G1 X114.123 Y84.878 E0.05706
G1 X115.298 Y86.378 E0.05732
G1 X116.372 Y87.932 E0.05680
G1 X117.354 Y89.554 E0.05706
G1 X118.240 Y91.241 E0.05732
G1 X119.015 Y92.963 E0.05680
G1 X119.692 Y94.744 E0.05732
G1 X120.254 Y96.547 E0.05680
G1 X120.710 Y98.388 E0.05706
G1 X121.054 Y100.262 E0.05732
G1 X121.282 Y102.136 E0.05680
G1 X121.398 Y104.030 E0.05706
G1 X121.400 Y105.927 E0.05706
G1 X121.286 Y107.820 E0.05706
G1 X121.058 Y109.712 E0.05732
